; generated by Slic3r 1.2.9 on 2017-06-23 at 11:43:16

; external perimeters extrusion width = 0.35mm
; perimeters extrusion width = 0.52mm
; infill extrusion width = 0.52mm
; solid infill extrusion width = 0.52mm
; top infill extrusion width = 0.52mm

M107 ; disable fan
G28 ; home all axes
G21 ; set units to millimeters
G90 ; use absolute coordinates
M82 ; use absolute distances for extrusion
G92 E0 ; reset extrusion distance
G1 E-0.50000 F420.00000 ; retract
G92 E0 ; reset extrusion distance
G1 Z0.200 F6000.000 ; move to next layer (0)
G1 X89.348 Y86.057 F6000.000 ; move to first skirt point
G1 E0.50000 F420.00000 ; unretract
G1 X90.340 Y85.111 E0.51866 F1800.000 ; skirt
G1 X100.325 Y77.436 E0.69008 ; skirt
G1 X102.338 Y76.390 E0.72095 ; skirt
G1 X104.275 Y76.094 E0.74762 ; skirt
G1 X106.275 Y76.094 E0.77484 ; skirt
G1 X108.508 Y76.491 E0.80572 ; skirt
G1 X110.468 Y77.633 E0.83659 F1800.000 ; skirt
G1 X111.914 Y79.380 E0.86746 ; skirt
G1 X112.756 Y82.575 E0.91243 ; skirt
G1 X112.756 Y117.425 E1.38678 ; skirt
G1 X112.359 Y119.658 E1.41765 ; skirt
G1 X111.217 Y121.618 E1.44852 ; skirt
G1 X109.470 Y123.064 E1.47940 ; skirt
G1 X106.275 Y123.906 E1.52436 ; skirt
G1 X104.275 Y123.906 E1.55159 ; skirt
G1 X102.042 Y123.509 E1.58246 ; skirt
G1 X100.374 Y122.601 E1.60830 ; skirt
G1 X90.389 Y115.076 E1.77849 ; skirt
G1 X88.845 Y113.415 E1.80936 ; skirt
G1 X87.967 Y111.323 E1.84023 ; skirt
G1 X87.809 Y109.900 E1.85972 ; skirt
G1 X87.809 Y90.250 E2.12718 ; skirt
G1 X88.206 Y88.017 E2.15805 ; skirt
G1 X89.321 Y86.102 E2.18821 ; skirt
G1 E1.68821 F420.00000 ; retract
G92 E0 ; reset extrusion distance
G1 X101.594 Y108.444 F6000.000 ; move to first perimeter point
G1 E0.50000 F420.00000 ; unretract
G1 X96.456 Y108.444 E0.56994 F1500.000 ; perimeter
G1 X96.456 Y98.306 E0.70793 ; perimeter
G1 X101.594 Y98.306 E0.77786 ; perimeter
G1 X101.594 Y108.392 E0.91514 ; perimeter
G1 X101.200 Y108.050 F6000.000 ; move to first perimeter point
G1 X96.850 Y108.050 E0.95293 F1500.000 ; perimeter
G1 X96.850 Y98.700 E1.03417 ; perimeter
G1 X101.200 Y98.700 E1.07197 ; perimeter
G1 X101.200 Y107.998 E1.15275 ; perimeter
G1 X101.200 Y108.400 F6000.000 ; move inwards before travel
G1 E0.65275 F420.00000 ; retract
G92 E0 ; reset extrusion distance
G1 X102.075 Y97.825 F6000.000 ; move to first perimeter point
G1 E0.50000 F420.00000 ; unretract
G1 X95.975 Y97.825 E0.58303 F2100.000 ; perimeter
G1 X95.975 Y108.849 E0.73308 ; perimeter
G1 X95.340 Y108.849 E0.74172 ; perimeter
G1 X95.340 Y91.300 E0.98060 ; perimeter
G1 X105.225 Y91.295 E1.11514 ; perimeter
G1 X105.225 Y108.844 E1.35401 ; perimeter
G1 X102.075 Y108.846 E1.39688 ; perimeter
G1 X102.075 Y97.877 E1.54618 ; perimeter
G1 E1.04618 F420.00000 ; retract
G92 E0 ; reset extrusion distance
G1 X104.844 Y90.814 F6000.000 ; move to first perimeter point
G1 E0.50000 F420.00000 ; unretract
G1 X104.844 Y83.144 E0.60439 F2100.000 ; perimeter
G1 X105.706 Y83.144 E0.61612 ; perimeter
G1 X105.706 Y116.856 E1.07498 ; perimeter
G1 X104.844 Y116.856 E1.08671 ; perimeter
G1 X104.844 Y109.326 E1.18921 ; perimeter
G1 X94.859 Y109.331 E1.32512 ; perimeter
G1 X94.859 Y90.819 E1.57708 ; perimeter
G1 X104.792 Y90.814 E1.71228 ; perimeter
G1 X104.450 Y90.420 F6000.000 ; move to first perimeter point
G1 X104.450 Y82.750 E1.77892 F1050.000 ; perimeter
G1 X106.100 Y82.750 E1.79326 ; perimeter
G1 X106.100 Y117.250 E2.09301 ; perimeter
G1 X104.450 Y117.250 E2.10735 ; perimeter
G1 X104.450 Y109.720 E2.17277 ; perimeter
G1 X94.465 Y109.725 E2.25953 ; perimeter
G1 X94.465 Y90.425 E2.42722 ; perimeter
G1 X104.397 Y90.420 E2.51352 ; perimeter
G1 X104.800 Y90.420 F6000.000 ; move inwards before travel
G1 X105.275 Y91.054 F6000.000 ; move to first infill point
G1 X105.275 Y83.385 E2.73162 F600.000 ; infill
G1 E2.23162 F420.00000 ; retract
G92 E0 ; reset extrusion distance
G1 X104.938 Y91.826 F6000.000 ; move to first infill point
G1 E0.50000 F420.00000 ; unretract
G1 X104.694 Y91.582 E0.50470 F2700.000 ; infill
G1 X104.013 Y91.582 E0.51397 ; infill
G1 X104.938 Y92.507 E0.53179 ; infill
G1 X104.938 Y93.188 E0.54106 ; infill
G1 X103.333 Y91.582 E0.57199 ; infill
G1 X102.652 Y91.583 E0.58126 ; infill
G1 X104.938 Y93.868 E0.62530 ; infill
G1 X104.938 Y94.549 E0.63457 ; infill
G1 X101.972 Y91.583 E0.69172 ; infill
G1 X101.291 Y91.583 E0.70099 ; infill
G1 X104.938 Y95.230 E0.77125 ; infill
G1 X104.938 Y95.911 E0.78052 ; infill
G1 X100.611 Y91.584 E0.86389 ; infill
G1 X99.930 Y91.584 E0.87317 ; infill
G1 X104.938 Y96.592 E0.96965 ; infill
G1 X104.938 Y97.273 E0.97892 ; infill
G1 X99.249 Y91.584 E1.08852 ; infill
G1 X98.569 Y91.585 E1.09779 ; infill
G1 X104.938 Y97.954 E1.22049 ; infill
G1 X104.938 Y98.635 E1.22977 ; infill
G1 X97.888 Y91.585 E1.36558 ; infill
G1 X97.208 Y91.585 E1.37485 ; infill
G1 X104.938 Y99.316 E1.52378 ; infill
G1 X104.938 Y99.997 E1.53306 ; infill
G1 X96.527 Y91.586 E1.69509 ; infill
G1 X95.847 Y91.586 E1.70436 ; infill
G1 X101.799 Y97.538 E1.81903 ; infill
G1 X101.118 Y97.538 E1.82831 ; infill
G1 X95.627 Y92.047 E1.93409 ; infill
G1 X95.627 Y92.728 E1.94337 ; infill
G1 X100.437 Y97.538 E2.03604 ; infill
G1 X99.756 Y97.538 E2.04531 ; infill
G1 X95.627 Y93.409 E2.12486 ; infill
G1 X95.627 Y94.090 E2.13414 ; infill
G1 X99.075 Y97.538 E2.20057 ; infill
G1 X98.394 Y97.538 E2.20985 ; infill
G1 X95.627 Y94.771 E2.26316 ; infill
G1 X95.627 Y95.452 E2.27244 ; infill
G1 X97.713 Y97.538 E2.31264 ; infill
G1 X97.032 Y97.538 E2.32191 ; infill
G1 X95.627 Y96.132 E2.34899 ; infill
G1 X95.627 Y96.813 E2.35827 ; infill
G1 X96.111 Y97.298 E2.36759 ; infill
G1 E1.86759 F420.00000 ; retract
G92 E0 ; reset extrusion distance
G1 X102.362 Y98.101 F6000.000 ; move to first infill point
G1 E0.50000 F420.00000 ; unretract
G1 X104.938 Y100.677 E0.54963 F2700.000 ; infill
G1 X104.938 Y101.358 E0.55891 ; infill
G1 X102.362 Y98.782 E0.60854 ; infill
G1 X102.362 Y99.463 E0.61781 ; infill
G1 X104.938 Y102.039 E0.66744 ; infill
G1 X104.938 Y102.720 E0.67672 ; infill
G1 X102.362 Y100.144 E0.72635 ; infill
G1 X102.362 Y100.825 E0.73562 ; infill
G1 X104.938 Y103.401 E0.78525 ; infill
G1 X104.938 Y104.082 E0.79453 ; infill
G1 X102.362 Y101.506 E0.84416 ; infill
G1 X102.362 Y102.187 E0.85343 ; infill
G1 X104.938 Y104.763 E0.90306 ; infill
G1 X104.938 Y105.444 E0.91234 ; infill
G1 X102.362 Y102.868 E0.96197 ; infill
G1 X102.362 Y103.549 E0.97124 ; infill
G1 X104.938 Y106.125 E1.02087 ; infill
G1 X104.938 Y106.806 E1.03015 ; infill
G1 X102.362 Y104.229 E1.07978 ; infill
G1 X102.362 Y104.910 E1.08905 ; infill
G1 X104.938 Y107.486 E1.13868 ; infill
G1 X104.938 Y108.167 E1.14796 ; infill
G1 X102.362 Y105.591 E1.19759 ; infill
G1 X102.362 Y106.272 E1.20686 ; infill
G1 X104.648 Y108.558 E1.25090 ; infill
G1 X103.967 Y108.558 E1.26017 ; infill
G1 X102.362 Y106.953 E1.29110 ; infill
G1 X102.362 Y107.634 E1.30037 ; infill
G1 X103.287 Y108.559 E1.31819 ; infill
G1 X102.606 Y108.559 E1.32746 ; infill
G1 X102.362 Y108.315 E1.33216 ; infill
G1 X101.835 Y108.886 F6000.000 ; move to first infill point
G1 X96.215 Y108.887 E1.49195 F600.000 ; infill
G1 X95.657 Y108.609 F6000.000 ; move to first infill point
G1 X95.657 Y97.584 E1.64200 F600.000 ; infill
G1 E1.14200 F420.00000 ; retract
G92 E0 ; reset extrusion distance
G1 X105.275 Y109.085 F6000.000 ; move to first infill point
G1 E0.50000 F420.00000 ; unretract
G1 X105.275 Y116.615 E0.71414 F600.000 ; infill
M106 S255 ; enable fan
G1 E0.21414 F420.00000 ; retract
G92 E0 ; reset extrusion distance
G1 Z0.400 F6000.000 ; move to next layer (1)
G1 X101.594 Y98.306 F6000.000 ; move to first perimeter point
G1 E0.50000 F420.00000 ; unretract
G1 X101.594 Y108.444 E0.63799 F2003.545 ; perimeter
G1 X96.456 Y108.444 E0.70793 ; perimeter
G1 X96.456 Y98.306 E0.84592 ; perimeter
G1 X101.542 Y98.306 E0.91514 ; perimeter
G1 X101.200 Y98.700 F6000.000 ; move to first perimeter point
G1 X101.200 Y108.050 E0.99638 F2003.545 ; perimeter
G1 X96.850 Y108.050 E1.03417 ; perimeter
G1 X96.850 Y98.700 E1.11541 ; perimeter
G1 X101.147 Y98.700 E1.15275 ; perimeter
G1 X101.550 Y98.700 F6000.000 ; move inwards before travel
G1 X102.075 Y97.825 F6000.000 ; move to first perimeter point
G1 X95.975 Y97.825 E1.23578 F2804.963 ; perimeter
G1 X95.975 Y108.849 E1.38583 ; perimeter
G1 X95.062 Y108.849 E1.39826 ; perimeter
G1 X95.062 Y91.300 E1.63713 ; perimeter
G1 X105.225 Y91.295 E1.77547 ; perimeter
G1 X105.225 Y108.844 E2.01434 ; perimeter
G1 X102.075 Y108.846 E2.05721 ; perimeter
G1 X102.075 Y97.877 E2.20650 ; perimeter
G1 E1.70650 F420.00000 ; retract
G92 E0 ; reset extrusion distance
G1 X104.844 Y90.814 F6000.000 ; move to first perimeter point
G1 E0.50000 F420.00000 ; unretract
G1 X104.844 Y83.144 E0.60439 F2804.963 ; perimeter
G1 X105.706 Y83.144 E0.61612 ; perimeter
G1 X105.706 Y116.856 E1.07498 ; perimeter
G1 X104.844 Y116.856 E1.08671 ; perimeter
G1 X104.844 Y109.326 E1.18921 ; perimeter
G1 X94.581 Y109.331 E1.32890 ; perimeter
G1 X94.581 Y90.819 E1.58087 ; perimeter
G1 X104.792 Y90.814 E1.71986 ; perimeter
G1 X104.450 Y90.420 F6000.000 ; move to first perimeter point
G1 X104.450 Y82.750 E1.78650 F1402.482 ; perimeter
G1 X106.100 Y82.750 E1.80083 ; perimeter
G1 X106.100 Y117.250 E2.10059 ; perimeter
G1 X104.450 Y117.250 E2.11492 ; perimeter
G1 X104.450 Y109.720 E2.18035 ; perimeter
G1 X94.186 Y109.725 E2.26953 ; perimeter
G1 X94.186 Y90.425 E2.43721 ; perimeter
G1 X104.397 Y90.420 E2.52593 ; perimeter
G1 X104.800 Y90.420 F6000.000 ; move inwards before travel
G1 X105.275 Y91.054 F6000.000 ; move to first infill point
G1 X105.275 Y83.385 E2.74403 F801.418 ; infill
G1 E2.24403 F420.00000 ; retract
G92 E0 ; reset extrusion distance
G1 X95.592 Y91.586 F6000.000 ; move to first infill point
G1 E0.50000 F420.00000 ; unretract
G1 X95.348 Y91.830 E0.50474 F3606.381 ; infill
G1 X95.348 Y92.516 E0.51416 ; infill
G1 X96.279 Y91.586 E0.53222 ; infill
G1 X96.965 Y91.586 E0.54165 ; infill
G1 X95.348 Y93.203 E0.57304 ; infill
G1 X95.348 Y93.889 E0.58246 ; infill
G1 X97.652 Y91.585 E0.62718 ; infill
G1 X98.338 Y91.585 E0.63660 ; infill
G1 X95.348 Y94.575 E0.69464 ; infill
G1 X95.348 Y95.261 E0.70406 ; infill
G1 X99.025 Y91.585 E0.77544 ; infill
G1 X99.711 Y91.584 E0.78486 ; infill
G1 X95.348 Y95.947 E0.86956 ; infill
G1 X95.348 Y96.633 E0.87898 ; infill
G1 X100.398 Y91.584 E0.97700 ; infill
G1 X101.084 Y91.584 E0.98643 ; infill
G1 X95.370 Y97.298 E1.09736 ; infill
G1 X96.056 Y97.298 E1.10677 ; infill
G1 X101.771 Y91.583 E1.21771 ; infill
G1 X102.457 Y91.583 E1.22713 ; infill
G1 X96.502 Y97.538 E1.34274 ; infill
G1 X97.188 Y97.538 E1.35216 ; infill
G1 X103.144 Y91.583 E1.46778 ; infill
G1 X103.830 Y91.582 E1.47720 ; infill
G1 X97.874 Y97.538 E1.59283 ; infill
G1 X98.560 Y97.538 E1.60225 ; infill
G1 X104.517 Y91.582 E1.71788 ; infill
G1 X104.938 Y91.847 E1.72471 ; infill
G1 X99.247 Y97.538 E1.83520 ; infill
G1 X99.933 Y97.538 E1.84462 ; infill
G1 X104.938 Y92.533 E1.94179 ; infill
G1 X104.938 Y93.219 E1.95121 ; infill
G1 X100.619 Y97.538 E2.03507 ; infill
G1 X101.305 Y97.538 E2.04448 ; infill
G1 X104.938 Y93.905 E2.11502 ; infill
G1 X104.938 Y94.591 E2.12444 ; infill
G1 X101.991 Y97.538 E2.18165 ; infill
G1 X102.362 Y97.853 F6000.000 ; move to first infill point
G1 X104.938 Y95.277 E2.23166 F3606.381 ; infill
G1 X104.938 Y95.963 E2.24108 ; infill
G1 X102.362 Y98.539 E2.29109 ; infill
G1 X102.362 Y99.226 E2.30051 ; infill
G1 X104.938 Y96.649 E2.35052 ; infill
G1 X104.938 Y97.336 E2.35994 ; infill
G1 X102.362 Y99.912 E2.40995 ; infill
G1 X102.362 Y100.598 E2.41937 ; infill
G1 X104.938 Y98.022 E2.46938 ; infill
G1 X104.938 Y98.708 E2.47880 ; infill
G1 X102.362 Y101.284 E2.52881 ; infill
G1 X102.362 Y101.970 E2.53823 ; infill
G1 X104.938 Y99.394 E2.58824 ; infill
G1 X104.938 Y100.080 E2.59766 ; infill
G1 X102.362 Y102.656 E2.64767 ; infill
G1 X102.362 Y103.342 E2.65709 ; infill
G1 X104.938 Y100.766 E2.70710 ; infill
G1 X104.938 Y101.452 E2.71652 ; infill
G1 X102.362 Y104.028 E2.76653 ; infill
G1 X102.362 Y104.715 E2.77595 ; infill
G1 X104.938 Y102.139 E2.82596 ; infill
G1 X104.938 Y102.825 E2.83538 ; infill
G1 X102.362 Y105.401 E2.88539 ; infill
G1 X102.362 Y106.087 E2.89481 ; infill
G1 X104.938 Y103.511 E2.94482 ; infill
G1 X104.938 Y104.197 E2.95424 ; infill
G1 X102.362 Y106.773 E3.00425 ; infill
G1 X102.362 Y107.459 E3.01367 ; infill
G1 X104.938 Y104.883 E3.06368 ; infill
G1 X104.938 Y105.569 E3.07310 ; infill
G1 X102.362 Y108.145 E3.12311 ; infill
G1 X102.635 Y108.559 E3.12991 ; infill
G1 X104.938 Y106.255 E3.17463 ; infill
G1 X104.938 Y106.941 E3.18405 ; infill
G1 X103.321 Y108.558 E3.21544 ; infill
G1 X104.007 Y108.558 E3.22486 ; infill
G1 X104.938 Y107.628 E3.24293 ; infill
G1 X104.938 Y108.314 E3.25235 ; infill
G1 X104.694 Y108.558 E3.25709 ; infill
G1 X105.275 Y109.085 F6000.000 ; move to first infill point
G1 X105.275 Y116.615 E3.47123 F801.418 ; infill
G1 E2.97123 F420.00000 ; retract
G92 E0 ; reset extrusion distance
G1 X101.835 Y108.886 F6000.000 ; move to first infill point
G1 E0.50000 F420.00000 ; unretract
G1 X96.215 Y108.887 E0.65979 F801.418 ; infill
G1 X95.518 Y108.609 F6000.000 ; move to first infill point
G1 X95.518 Y97.584 E0.97328 F801.418 ; infill
G1 E0.47328 F420.00000 ; retract
G92 E0 ; reset extrusion distance
G1 Z0.600 F6000.000 ; move to next layer (2)
G1 X101.594 Y98.306 F6000.000 ; move to first perimeter point
G1 E0.50000 F420.00000 ; unretract
G1 X101.594 Y108.444 E0.63799 F2014.072 ; perimeter
G1 X96.456 Y108.444 E0.70793 ; perimeter
G1 X96.456 Y98.306 E0.84592 ; perimeter
G1 X101.542 Y98.306 E0.91514 ; perimeter
G1 X101.200 Y98.700 F6000.000 ; move to first perimeter point
G1 X101.200 Y108.050 E0.99638 F2014.072 ; perimeter
G1 X96.850 Y108.050 E1.03417 ; perimeter
G1 X96.850 Y98.700 E1.11541 ; perimeter
G1 X101.147 Y98.700 E1.15275 ; perimeter
G1 X101.550 Y98.700 F6000.000 ; move inwards before travel
G1 X102.075 Y97.825 F6000.000 ; move to first perimeter point
G1 X95.975 Y97.825 E1.23578 F2819.701 ; perimeter
G1 X95.975 Y108.850 E1.38584 ; perimeter
G1 X94.910 Y108.850 E1.40034 ; perimeter
G1 X94.910 Y91.300 E1.63922 ; perimeter
G1 X105.225 Y91.295 E1.77962 ; perimeter
G1 X105.225 Y108.850 E2.01857 ; perimeter
G1 X102.075 Y108.850 E2.06144 ; perimeter
G1 X102.075 Y97.877 E2.21079 ; perimeter
G1 E1.71079 F420.00000 ; retract
G92 E0 ; reset extrusion distance
G1 X104.844 Y90.814 F6000.000 ; move to first perimeter point
G1 E0.50000 F420.00000 ; unretract
G1 X104.844 Y83.144 E0.60439 F2819.701 ; perimeter
G1 X105.706 Y83.144 E0.61612 ; perimeter
G1 X105.706 Y116.856 E1.07498 ; perimeter
G1 X104.844 Y116.856 E1.08671 ; perimeter
G1 X104.844 Y109.331 E1.18913 ; perimeter
G1 X94.429 Y109.331 E1.33090 ; perimeter
G1 X94.429 Y90.819 E1.58287 ; perimeter
G1 X104.792 Y90.814 E1.72392 ; perimeter
G1 X104.450 Y90.420 F6000.000 ; move to first perimeter point
G1 X104.450 Y82.750 E1.79057 F1409.851 ; perimeter
G1 X106.100 Y82.750 E1.80490 ; perimeter
G1 X106.100 Y117.250 E2.10466 ; perimeter
G1 X104.450 Y117.250 E2.11899 ; perimeter
G1 X104.450 Y109.725 E2.18438 ; perimeter
G1 X94.034 Y109.725 E2.27487 ; perimeter
G1 X94.034 Y90.425 E2.44256 ; perimeter
G1 X104.397 Y90.420 E2.53260 ; perimeter
G1 X104.800 Y90.420 F6000.000 ; move inwards before travel
G1 X105.275 Y91.054 F6000.000 ; move to first infill point
G1 X105.275 Y83.385 E2.75070 F805.629 ; infill
G1 E2.25070 F420.00000 ; retract
G92 E0 ; reset extrusion distance
G1 X104.938 Y91.826 F6000.000 ; move to first infill point
G1 E0.50000 F420.00000 ; unretract
G1 X104.694 Y91.582 E0.50470 F3625.330 ; infill
G1 X104.013 Y91.582 E0.51398 ; infill
G1 X104.938 Y92.507 E0.53180 ; infill
G1 X104.938 Y93.188 E0.54108 ; infill
G1 X103.333 Y91.582 E0.57202 ; infill
G1 X102.652 Y91.583 E0.58129 ; infill
G1 X104.938 Y93.869 E0.62535 ; infill
G1 X104.938 Y94.550 E0.63463 ; infill
G1 X101.971 Y91.583 E0.69180 ; infill
G1 X101.290 Y91.583 E0.70107 ; infill
G1 X104.938 Y95.231 E0.77136 ; infill
G1 X104.938 Y95.912 E0.78064 ; infill
G1 X100.610 Y91.584 E0.86405 ; infill
G1 X99.929 Y91.584 E0.87332 ; infill
G1 X104.938 Y96.593 E0.96985 ; infill
G1 X104.938 Y97.274 E0.97913 ; infill
