; generated by Slic3r 1.2.9 on 2017-08-11 at 10:33:49

; external perimeters extrusion width = 0.35mm
; perimeters extrusion width = 0.52mm
; infill extrusion width = 0.52mm
; solid infill extrusion width = 0.52mm
; top infill extrusion width = 0.52mm

G28 ; home all axes
G21 ; set units to millimeters
G90 ; use absolute coordinates
M82 ; use absolute distances for extrusion
G92 E0 ; reset extrusion distance
G1 E-0.50000 F420.00000 ; retract
G92 E0 ; reset extrusion distance
G1 Z0.200 F6000.000 ; move to next layer (0)
G1 X68.459 Y67.848 F6000.000 ; move to first skirt point
G1 E0.50000 F420.00000 ; unretract
G1 X68.940 Y67.397 E0.50898 F1800.000 ; skirt
G1 X69.352 Y67.061 E0.51620 ; skirt
G1 X69.782 Y66.753 E0.52341 ; skirt
G1 X70.133 Y66.531 E0.52906 ; skirt
G1 X70.591 Y66.275 E0.53620 ; skirt
G1 X71.192 Y65.992 E0.54524 ; skirt
G1 X96.889 Y56.103 E0.92001 ; skirt
G1 X97.775 Y55.817 E0.93269 ; skirt
G1 X98.176 Y55.713 E0.93833 ; skirt
G1 X98.579 Y55.637 E0.94392 ; skirt
G1 X99.361 Y55.548 E0.95463 ; skirt
G1 X99.779 Y55.522 E0.96032 ; skirt
G1 X111.019 Y55.522 E1.11331 ; skirt
G1 X111.842 Y55.588 E1.12455 F1800.000 ; skirt
G1 X112.626 Y55.714 E1.13535 ; skirt
G1 X113.464 Y55.949 E1.14720 ; skirt
G1 X114.156 Y56.203 E1.15723 ; skirt
G1 X114.985 Y56.620 E1.16987 ; skirt
G1 X115.573 Y56.976 E1.17923 ; skirt
G1 X115.907 Y57.219 E1.18484 ; skirt
G1 X116.342 Y57.573 E1.19248 ; skirt
G1 X116.816 Y58.002 E1.20119 ; skirt
G1 X126.661 Y67.848 E1.39070 ; skirt
G1 X126.940 Y68.146 E1.39626 ; skirt
G1 X127.281 Y68.551 E1.40346 ; skirt
G1 X127.667 Y69.082 E1.41240 ; skirt
G1 X127.953 Y69.541 E1.41975 ; skirt
G1 X128.203 Y70.003 E1.42690 ; skirt
G1 X128.378 Y70.376 E1.43252 ; skirt
G1 X128.578 Y70.871 E1.43978 ; skirt
G1 X128.780 Y71.491 E1.44866 ; skirt
G1 X128.882 Y71.890 E1.45426 ; skirt
G1 X128.986 Y72.412 E1.46151 ; skirt
G1 X129.068 Y73.061 E1.47040 ; skirt
G1 X129.098 Y73.599 E1.47774 ; skirt
G1 X129.101 Y126.200 E2.19370 ; skirt
G1 X129.056 Y127.065 E2.20548 ; skirt
G1 X128.986 Y127.589 E2.21268 ; skirt
G1 X128.882 Y128.113 E2.21996 ; skirt
G1 X128.744 Y128.632 E2.22727 ; skirt
G1 X128.578 Y129.129 E2.23440 ; skirt
G1 X128.378 Y129.624 E2.24166 ; skirt
G1 X128.143 Y130.114 E2.24907 ; skirt
G1 X127.887 Y130.571 E2.25620 ; skirt
G1 X127.667 Y130.918 E2.26178 ; skirt
G1 X127.358 Y131.350 E2.26901 ; skirt
G1 X127.024 Y131.760 E2.27621 ; skirt
G1 X126.661 Y132.152 E2.28348 ; skirt
G1 X116.816 Y141.998 E2.47299 ; skirt
G1 X116.519 Y142.277 E2.47855 ; skirt
G1 X115.915 Y142.775 E2.48920 ; skirt
G1 X115.579 Y143.020 E2.49486 ; skirt
G1 X114.985 Y143.380 E2.50432 ; skirt
G1 X114.145 Y143.802 E2.51711 ; skirt
G1 X113.788 Y143.943 E2.52234 ; skirt
G1 X113.028 Y144.183 E2.53318 ; skirt
G1 X112.631 Y144.285 E2.53876 ; skirt
G1 X112.199 Y144.367 E2.54474 ; skirt
G1 X111.441 Y144.451 E2.55513 ; skirt
G1 X111.029 Y144.478 E2.56075 ; skirt
G1 X99.980 Y144.481 E2.71114 ; skirt
G1 X99.361 Y144.452 E2.71957 ; skirt
G1 X98.604 Y144.367 E2.72994 ; skirt
G1 X98.162 Y144.284 E2.73606 ; skirt
G1 X97.704 Y144.162 E2.74251 ; skirt
G1 X96.889 Y143.897 E2.75418 ; skirt
G1 X71.076 Y133.958 E3.13066 ; skirt
G1 X70.706 Y133.784 E3.13623 ; skirt
G1 X70.245 Y133.535 E3.14336 ; skirt
G1 X69.786 Y133.249 E3.15072 ; skirt
G1 X69.351 Y132.938 E3.15801 ; skirt
G1 X68.846 Y132.520 E3.16692 ; skirt
G1 X68.459 Y132.152 E3.17419 ; skirt
G1 X68.179 Y131.854 E3.17976 ; skirt
G1 X67.840 Y131.449 E3.18695 ; skirt
G1 X67.453 Y130.918 E3.19589 ; skirt
G1 X67.167 Y130.459 E3.20325 ; skirt
G1 X66.917 Y129.997 E3.21039 ; skirt
G1 X66.692 Y129.509 E3.21772 ; skirt
G1 X66.499 Y129.011 E3.22499 ; skirt
G1 X66.340 Y128.509 E3.23216 ; skirt
G1 X66.210 Y127.988 E3.23946 ; skirt
G1 X66.114 Y127.462 E3.24674 ; skirt
G1 X66.052 Y126.939 E3.25390 ; skirt
G1 X66.022 Y126.401 E3.26124 ; skirt
G1 X66.022 Y73.599 E3.97994 ; skirt
G1 X66.064 Y72.936 E3.98898 ; skirt
G1 X66.134 Y72.414 E3.99614 ; skirt
G1 X66.210 Y72.012 E4.00172 ; skirt
G1 X66.375 Y71.371 E4.01073 ; skirt
G1 X66.542 Y70.869 E4.01792 ; skirt
G1 X66.692 Y70.491 E4.02345 ; skirt
G1 X66.975 Y69.891 E4.03249 ; skirt
G1 X67.231 Y69.433 E4.03963 ; skirt
G1 X67.453 Y69.082 E4.04528 ; skirt
G1 X67.839 Y68.551 E4.05422 ; skirt
G1 X68.423 Y67.886 E4.06627 ; skirt
G1 E3.56627 F420.00000 ; retract
G92 E0 ; reset extrusion distance
G1 X121.560 Y126.319 F6000.000 ; move to first perimeter point
G1 E0.50000 F420.00000 ; unretract
G1 X121.470 Y126.618 E0.50426 F2100.000 ; perimeter
G1 X121.289 Y126.873 E0.50851 ; perimeter
G1 X111.527 Y136.636 E0.69642 ; perimeter
G1 X111.344 Y136.786 E0.69965 ; perimeter
G1 X111.183 Y136.872 E0.70214 ; perimeter
G1 X111.004 Y136.927 E0.70468 ; perimeter
G1 X110.768 Y136.950 E0.70790 ; perimeter
G1 X100.031 Y136.950 E0.85405 ; perimeter
G1 X99.798 Y136.927 E0.85724 ; perimeter
G1 X99.556 Y136.854 E0.86068 ; perimeter
G1 X74.192 Y127.099 E1.23057 ; perimeter
G1 X73.979 Y126.991 E1.23382 ; perimeter
G1 X73.821 Y126.860 E1.23661 ; perimeter
G1 X73.702 Y126.706 E1.23925 ; perimeter
G1 X73.621 Y126.548 E1.24167 ; perimeter
G1 X73.572 Y126.377 E1.24409 ; perimeter
G1 X73.550 Y126.151 E1.24719 ; perimeter
G1 X73.550 Y73.833 E1.95929 ; perimeter
G1 X73.582 Y73.564 E1.96298 ; perimeter
G1 X73.669 Y73.343 E1.96621 ; perimeter
G1 X73.799 Y73.164 E1.96922 ; perimeter
G1 X73.957 Y73.024 E1.97209 ; perimeter
G1 X74.176 Y72.907 E1.97548 ; perimeter
G1 X99.557 Y63.146 E2.34560 ; perimeter
G1 X99.792 Y63.074 E2.34895 ; perimeter
G1 X100.033 Y63.050 E2.35224 ; perimeter
G1 X110.771 Y63.050 E2.49840 ; perimeter
G1 X111.004 Y63.073 E2.50159 F2100.000 ; perimeter
G1 X111.181 Y63.127 E2.50411 ; perimeter
G1 X111.344 Y63.214 E2.50663 ; perimeter
G1 X111.527 Y63.364 E2.50985 ; perimeter
G1 X121.289 Y73.127 E2.69776 ; perimeter
G1 X121.478 Y73.396 E2.70223 ; perimeter
G1 X121.547 Y73.606 E2.70525 ; perimeter
G1 X121.570 Y73.849 E2.70857 ; perimeter
G1 X121.564 Y126.267 E3.42202 ; perimeter
G1 X122.040 Y126.349 F6000.000 ; move to first perimeter point
G1 X122.007 Y126.547 E3.42475 F2100.000 ; perimeter
G1 X121.909 Y126.817 E3.42866 ; perimeter
G1 X121.832 Y126.958 E3.43086 ; perimeter
G1 X121.650 Y127.192 E3.43488 ; perimeter
G1 X111.851 Y136.993 E3.62353 ; perimeter
G1 X111.613 Y137.188 E3.62772 ; perimeter
G1 X111.368 Y137.319 E3.63149 ; perimeter
G1 X111.098 Y137.401 E3.63533 ; perimeter
G1 X110.792 Y137.431 E3.63952 ; perimeter
G1 X100.008 Y137.431 E3.78630 ; perimeter
G1 X99.704 Y137.401 E3.79046 ; perimeter
G1 X99.400 Y137.309 E3.79478 ; perimeter
G1 X73.996 Y127.539 E4.16525 ; perimeter
G1 X73.727 Y127.402 E4.16936 ; perimeter
G1 X73.464 Y127.185 E4.17400 ; perimeter
G1 X73.294 Y126.965 E4.17778 ; perimeter
G1 X73.172 Y126.726 E4.18144 ; perimeter
G1 X73.097 Y126.468 E4.18510 ; perimeter
G1 X73.069 Y126.173 E4.18913 ; perimeter
G1 X73.069 Y73.818 E4.90174 ; perimeter
G1 X73.115 Y73.444 E4.90686 ; perimeter
G1 X73.247 Y73.111 E4.91174 ; perimeter
G1 X73.452 Y72.828 E4.91650 ; perimeter
G1 X73.667 Y72.638 E4.92040 ; perimeter
G1 X73.987 Y72.464 E4.92536 ; perimeter
G1 X99.400 Y62.690 E5.29596 ; perimeter
G1 X99.697 Y62.600 E5.30019 ; perimeter
G1 X100.008 Y62.569 E5.30444 ; perimeter
G1 X110.794 Y62.569 E5.45125 ; perimeter
G1 X111.098 Y62.599 E5.45541 F2100.000 ; perimeter
G1 X111.366 Y62.680 E5.45921 ; perimeter
G1 X111.613 Y62.812 E5.46302 ; perimeter
G1 X111.851 Y63.007 E5.46721 ; perimeter
G1 X121.650 Y72.808 E5.65585 ; perimeter
G1 X121.832 Y73.042 E5.65988 ; perimeter
G1 X121.914 Y73.191 E5.66220 ; perimeter
G1 X122.022 Y73.523 E5.66696 ; perimeter
G1 X122.051 Y73.827 E5.67111 ; perimeter
G1 X122.044 Y126.297 E6.38528 ; perimeter
G1 X122.434 Y126.374 F6000.000 ; move to first perimeter point
G1 X122.388 Y126.651 E6.38772 F1050.000 ; perimeter
G1 X122.270 Y126.979 E6.39075 ; perimeter
G1 X122.162 Y127.175 E6.39270 ; perimeter
G1 X121.946 Y127.453 E6.39575 ; perimeter
G1 X112.116 Y137.285 E6.51655 ; perimeter
G1 X111.833 Y137.517 E6.51973 ; perimeter
G1 X111.520 Y137.685 E6.52282 ; perimeter
G1 X111.176 Y137.789 E6.52594 ; perimeter
G1 X110.811 Y137.825 E6.52912 ; perimeter
G1 X99.989 Y137.825 E6.62316 ; perimeter
G1 X99.627 Y137.790 E6.62632 ; perimeter
G1 X99.272 Y137.682 E6.62954 ; perimeter
G1 X73.835 Y127.900 E6.86633 ; perimeter
G1 X73.520 Y127.739 E6.86940 ; perimeter
G1 X73.337 Y127.606 E6.87137 ; perimeter
G1 X73.172 Y127.451 E6.87333 ; perimeter
G1 X72.960 Y127.178 E6.87634 ; perimeter
G1 X72.804 Y126.872 E6.87932 ; perimeter
G1 X72.708 Y126.542 E6.88231 ; perimeter
G1 X72.675 Y126.192 E6.88536 ; perimeter
G1 X72.675 Y73.806 E7.34052 ; perimeter
G1 X72.690 Y73.571 E7.34256 ; perimeter
G1 X72.733 Y73.346 E7.34455 ; perimeter
G1 X72.803 Y73.128 E7.34654 ; perimeter
G1 X72.901 Y72.921 E7.34854 ; perimeter
G1 X73.024 Y72.727 E7.35053 ; perimeter
G1 X73.168 Y72.553 E7.35249 ; perimeter
G1 X73.430 Y72.322 E7.35553 ; perimeter
G1 X73.621 Y72.201 E7.35749 ; perimeter
G1 X73.833 Y72.101 E7.35952 ; perimeter
G1 X99.272 Y62.318 E7.59634 ; perimeter
G1 X99.620 Y62.212 E7.59950 ; perimeter
G1 X99.989 Y62.175 E7.60272 ; perimeter
G1 X110.814 Y62.175 E7.69677 ; perimeter
G1 X111.176 Y62.211 E7.69993 F1050.000 ; perimeter
G1 X111.518 Y62.314 E7.70304 ; perimeter
G1 X111.833 Y62.483 E7.70614 ; perimeter
G1 X112.116 Y62.715 E7.70932 ; perimeter
G1 X121.946 Y72.547 E7.83012 ; perimeter
G1 X122.162 Y72.825 E7.83318 ; perimeter
G1 X122.271 Y73.023 E7.83515 ; perimeter
G1 X122.355 Y73.236 E7.83714 ; perimeter
G1 X122.412 Y73.455 E7.83910 ; perimeter
G1 X122.445 Y73.808 E7.84218 ; perimeter
G1 X122.437 Y126.322 E8.29845 ; perimeter
G1 X122.177 Y126.487 F6000.000 ; move inwards before travel
G1 E7.79845 F420.00000 ; retract
G92 E0 ; reset extrusion distance
G1 X98.677 Y136.162 F6000.000 ; move to first infill point
G1 E0.50000 F420.00000 ; unretract
G1 X73.840 Y111.325 E0.97827 F2700.000 ; infill
G1 X73.840 Y110.644 E0.98753 ; infill
G1 X99.783 Y136.587 E1.48709 ; infill
G1 X100.539 Y136.663 E1.49744 ; infill
G1 X73.840 Y109.964 E2.01156 ; infill
G1 X73.840 Y109.283 E2.02082 ; infill
G1 X101.220 Y136.663 E2.54804 ; infill
G1 X101.900 Y136.663 E2.55731 ; infill
G1 X73.840 Y108.603 E3.09763 ; infill
G1 X73.840 Y107.922 E3.10690 ; infill
G1 X102.581 Y136.663 E3.66032 ; infill
G1 X103.261 Y136.663 E3.66959 ; infill
G1 X73.840 Y107.242 E4.23612 ; infill
G1 X73.841 Y106.562 E4.24538 ; infill
G1 X103.942 Y136.663 E4.82501 ; infill
G1 X104.622 Y136.663 E4.83428 ; infill
G1 X73.841 Y105.881 E5.42701 ; infill
G1 X73.841 Y105.201 E5.43628 ; infill
G1 X105.303 Y136.663 E6.04211 ; infill
G1 X105.984 Y136.663 E6.05138 ; infill
G1 X73.841 Y104.520 E6.67032 ; infill
G1 X73.841 Y103.840 E6.67958 ; infill
G1 X106.664 Y136.663 E7.31162 ; infill
G1 X107.345 Y136.663 E7.32089 ; infill
G1 X73.841 Y103.159 E7.96603 ; infill
G1 X73.841 Y102.479 E7.97530 ; infill
G1 X108.025 Y136.663 E8.63354 ; infill
G1 X108.706 Y136.663 E8.64281 ; infill
G1 X73.841 Y101.799 E9.31416 ; infill
G1 X73.842 Y101.118 E9.32342 ; infill
G1 X109.386 Y136.663 E10.00787 ; infill
G1 X110.067 Y136.663 E10.01714 ; infill
G1 X73.842 Y100.438 E10.71469 ; infill
G1 X73.842 Y99.757 E10.72396 ; infill
G1 X110.748 Y136.663 E11.43461 ; infill
G1 X111.277 Y136.512 E11.44211 ; infill
G1 X73.842 Y99.077 E12.16296 ; infill
G1 X73.842 Y98.396 E12.17222 ; infill
G1 X111.617 Y136.172 E12.89962 ; infill
G1 X111.958 Y135.831 E12.90618 ; infill
G1 X73.842 Y97.716 E13.64012 ; infill
G1 X73.842 Y97.036 E13.64939 ; infill
G1 X112.298 Y135.491 E14.38989 ; infill
G1 X112.638 Y135.151 E14.39644 ; infill
G1 X73.842 Y96.355 E15.14349 ; infill
G1 X73.842 Y95.675 E15.15276 ; infill
G1 X112.978 Y134.811 E15.90636 ; infill
G1 X113.319 Y134.470 E15.91291 ; infill
G1 X73.843 Y94.994 E16.67306 ; infill
G1 X73.843 Y94.314 E16.68232 ; infill
G1 X113.659 Y134.130 E17.44902 ; infill
G1 X113.999 Y133.790 E17.45557 ; infill
G1 X73.843 Y93.633 E18.22882 ; infill
G1 X73.843 Y92.953 E18.23809 ; infill
G1 X114.340 Y133.450 E19.01789 ; infill
G1 X114.680 Y133.109 E19.02444 ; infill
G1 X73.843 Y92.272 E19.81079 ; infill
G1 X73.843 Y91.592 E19.82006 ; infill
G1 X115.020 Y132.769 E20.61295 ; infill
G1 X115.360 Y132.429 E20.61951 ; infill
G1 X73.843 Y90.912 E21.41896 ; infill
G1 X73.843 Y90.231 E21.42822 ; infill
G1 X115.701 Y132.088 E22.23422 ; infill
G1 X116.041 Y131.748 E22.24077 ; infill
G1 X73.844 Y89.551 E23.05332 ; infill
G1 X73.844 Y88.870 E23.06259 ; infill
G1 X116.381 Y131.408 E23.88169 ; infill
G1 X116.722 Y131.068 E23.88824 ; infill
G1 X73.844 Y88.190 E24.71389 ; infill
G1 X73.844 Y87.509 E24.72316 ; infill
G1 X117.062 Y130.727 E25.55535 ; infill
G1 X117.402 Y130.387 E25.56191 ; infill
G1 X73.844 Y86.829 E26.40066 ; infill
G1 X73.844 Y86.149 E26.40992 ; infill
G1 X117.742 Y130.047 E27.25522 ; infill
G1 X118.083 Y129.706 E27.26177 ; infill
G1 X73.844 Y85.468 E28.11362 ; infill
G1 X73.844 Y84.788 E28.12289 ; infill
G1 X118.423 Y129.366 E28.98129 ; infill
G1 X118.763 Y129.026 E28.98784 ; infill
G1 X73.845 Y84.107 E29.85279 ; infill
G1 X73.845 Y83.427 E29.86206 ; infill
G1 X119.104 Y128.686 E30.73356 ; infill
G1 X119.444 Y128.345 E30.74011 ; infill
G1 X73.845 Y82.746 E31.61816 ; infill
G1 X73.845 Y82.066 E31.62742 ; infill
G1 X119.784 Y128.005 E32.51202 ; infill
G1 X120.124 Y127.665 E32.51858 ; infill
G1 X73.845 Y81.385 E33.40973 ; infill
G1 X73.845 Y80.705 E33.41899 ; infill
G1 X120.465 Y127.324 E34.31669 ; infill
G1 X120.805 Y126.984 E34.32324 ; infill
G1 X73.845 Y80.025 E35.22749 ; infill
G1 X73.845 Y79.344 E35.23676 ; infill
G1 X121.145 Y126.644 E36.14756 ; infill
G1 X121.274 Y126.092 E36.15528 ; infill
G1 X73.846 Y78.664 E37.06855 ; infill
G1 X73.846 Y77.983 E37.07781 ; infill
G1 X121.274 Y125.411 E37.99108 ; infill
G1 X121.274 Y124.731 E38.00034 ; infill
G1 X73.846 Y77.303 E38.91361 ; infill
G1 X73.846 Y76.622 E38.92288 ; infill
G1 X121.274 Y124.050 E39.83615 ; infill
G1 X121.274 Y123.370 E39.84541 ; infill
G1 X73.846 Y75.942 E40.75868 ; infill
G1 X73.846 Y75.262 E40.76794 ; infill
G1 X121.274 Y122.689 E41.68121 ; infill
G1 X121.274 Y122.009 E41.69048 ; infill
G1 X73.846 Y74.581 E42.60374 ; infill
G1 X73.846 Y73.901 E42.61301 ; infill
G1 X121.274 Y121.329 E43.52628 ; infill
G1 X121.275 Y120.648 E43.53554 ; infill
G1 X73.989 Y73.362 E44.44607 ; infill
G1 X74.402 Y73.095 E44.45278 ; infill
G1 X121.275 Y119.968 E45.35535 ; infill
G1 X121.275 Y119.287 E45.36461 ; infill
G1 X74.894 Y72.906 E46.25772 ; infill
G1 X75.385 Y72.717 E46.26489 ; infill
G1 X121.275 Y118.607 E47.14854 ; infill
G1 X121.275 Y117.926 E47.15780 ; infill
G1 X75.877 Y72.528 E48.03199 ; infill
G1 X76.368 Y72.339 E48.03916 ; infill
G1 X121.275 Y117.246 E48.90388 ; infill
G1 X121.275 Y116.566 E48.91315 ; infill
G1 X76.860 Y72.150 E49.76841 ; infill
G1 X77.351 Y71.961 E49.77558 ; infill
G1 X121.275 Y115.885 E50.62137 ; infill
G1 X121.276 Y115.205 E50.63064 ; infill
G1 X77.843 Y71.772 E51.46697 ; infill
G1 X78.334 Y71.583 E51.47414 ; infill
G1 X121.276 Y114.524 E52.30102 ; infill
G1 X121.276 Y113.844 E52.31028 ; infill
G1 X78.826 Y71.394 E53.12769 ; infill
G1 X79.317 Y71.205 E53.13486 ; infill
G1 X121.276 Y113.163 E53.94281 ; infill
G1 X121.276 Y112.483 E53.95207 ; infill
G1 X79.809 Y71.016 E54.75056 ; infill
G1 X80.301 Y70.827 E54.75773 ; infill
G1 X121.276 Y111.802 E55.54675 ; infill
G1 X121.276 Y111.122 E55.55602 ; infill
G1 X80.792 Y70.638 E56.33558 ; infill
G1 X81.284 Y70.449 E56.34275 ; infill
G1 X121.276 Y110.442 E57.11285 ; infill
G1 X121.277 Y109.761 E57.12211 ; infill
G1 X81.775 Y70.260 E57.88275 ; infill
G1 X82.267 Y70.071 E57.88992 ; infill
G1 X121.277 Y109.081 E58.64109 ; infill
G1 X121.277 Y108.400 E58.65036 ; infill
G1 X82.758 Y69.882 E59.39207 ; infill
G1 X83.250 Y69.693 E59.39924 ; infill
G1 X121.277 Y107.720 E60.13149 ; infill
G1 X121.277 Y107.039 E60.14076 ; infill
G1 X83.741 Y69.504 E60.86354 ; infill
G1 X84.233 Y69.315 E60.87071 ; infill
G1 X121.277 Y106.359 E61.58404 ; infill
G1 X121.277 Y105.679 E61.59330 ; infill
G1 X84.724 Y69.126 E62.29716 ; infill
G1 X85.216 Y68.937 E62.30433 ; infill
G1 X121.277 Y104.998 E62.99873 ; infill
G1 X121.278 Y104.318 E63.00800 ; infill
G1 X85.707 Y68.747 E63.69294 ; infill
