; generated by Slic3r 1.2.9 on 2017-07-29 at 22:35:38

; external perimeters extrusion width = 0.35mm
; perimeters extrusion width = 0.52mm
; infill extrusion width = 0.52mm
; solid infill extrusion width = 0.52mm
; top infill extrusion width = 0.52mm

M107 ; disable fan
G28 ; home all axes
G21 ; set units to millimeters
G90 ; use absolute coordinates
M82 ; use absolute distances for extrusion
G92 E0 ; reset extrusion distance
G1 E-0.50000 F420.00000 ; retract
G92 E0 ; reset extrusion distance
G1 Z0.200 F6000.000 ; move to next layer (0)
G1 X75.405 Y95.857 F6000.000 ; move to first skirt point
G1 E0.50000 F420.00000 ; unretract
G1 X81.405 Y91.857 E0.59815 F1800.000 ; skirt
G1 X83.483 Y90.949 E0.62902 ; skirt
G1 X85.000 Y90.769 E0.64981 ; skirt
G1 X115.000 Y90.769 E1.05815 ; skirt
G1 X117.233 Y91.166 E1.08902 ; skirt
G1 X118.595 Y91.857 E1.10981 F1800.000 ; skirt
G1 X124.595 Y95.857 E1.20796 ; skirt
G1 X126.233 Y97.426 E1.23883 ; skirt
G1 X127.230 Y99.464 E1.26971 ; skirt
G1 X127.481 Y101.250 E1.29426 ; skirt
G1 X127.481 Y102.750 E1.31467 ; skirt
G1 X127.084 Y104.983 E1.34555 ; skirt
G1 X125.942 Y106.943 E1.37642 ; skirt
G1 X124.195 Y108.389 E1.40729 ; skirt
G1 X121.000 Y109.231 E1.45226 ; skirt
G1 X79.000 Y109.231 E2.02393 ; skirt
G1 X76.767 Y108.834 E2.05480 ; skirt
G1 X74.807 Y107.692 E2.08567 ; skirt
G1 X73.361 Y105.945 E2.11655 ; skirt
G1 X72.519 Y102.750 E2.16151 ; skirt
G1 X72.519 Y101.250 E2.18193 ; skirt
G1 X72.916 Y99.017 E2.21280 ; skirt
G1 X74.058 Y97.057 E2.24367 ; skirt
G1 X75.366 Y95.892 E2.26751 ; skirt
G1 E1.76751 F420.00000 ; retract
G92 E0 ; reset extrusion distance
G1 X77.348 Y97.800 F6000.000 ; move to first brim point
G1 E0.50000 F420.00000 ; unretract
G1 X77.506 Y97.642 E0.50304 F1800.000 ; brim
G1 X81.110 Y97.642 E0.55211 ; brim
G1 X81.392 Y97.360 E0.55753 ; brim
G1 X81.392 Y95.756 E0.57937 ; brim
G1 X83.506 Y93.642 E0.62005 ; brim
G1 X116.494 Y93.642 E1.06907 ; brim
G1 X118.608 Y95.756 E1.10975 ; brim
G1 X118.608 Y97.360 E1.13159 F1800.000 ; brim
G1 X118.890 Y97.642 E1.13702 ; brim
G1 X122.494 Y97.642 E1.18608 ; brim
G1 X124.608 Y99.756 E1.22676 ; brim
G1 X124.608 Y104.244 E1.28786 ; brim
G1 X122.494 Y106.358 E1.32855 ; brim
G1 X112.006 Y106.358 E1.47131 ; brim
G1 X109.892 Y104.244 E1.51199 ; brim
G1 X109.892 Y102.640 E1.53384 ; brim
G1 X109.610 Y102.358 E1.53926 ; brim
G1 X90.390 Y102.358 E1.80087 ; brim
G1 X90.108 Y102.640 E1.80630 ; brim
G1 X90.108 Y104.244 E1.82814 ; brim
G1 X87.994 Y106.358 E1.86882 ; brim
G1 X77.506 Y106.358 E2.01159 ; brim
G1 X75.392 Y104.244 E2.05227 ; brim
G1 X75.392 Y99.756 E2.11337 ; brim
G1 X77.310 Y97.837 E2.15030 ; brim
G1 X77.688 Y98.140 F6000.000 ; move to first brim point
G1 X77.705 Y98.123 E2.15062 F1800.000 ; brim
G1 X81.591 Y98.123 E2.20352 ; brim
G1 X81.873 Y97.841 E2.20895 ; brim
G1 X81.873 Y95.955 E2.23463 ; brim
G1 X83.705 Y94.123 E2.26988 ; brim
G1 X116.295 Y94.123 E2.71348 ; brim
G1 X118.127 Y95.955 E2.74873 F1800.000 ; brim
G1 X118.127 Y97.841 E2.77441 ; brim
G1 X118.409 Y98.123 E2.77984 ; brim
G1 X122.295 Y98.123 E2.83274 ; brim
G1 X124.127 Y99.955 E2.86799 ; brim
G1 X124.127 Y104.045 E2.92367 ; brim
G1 X122.295 Y105.877 E2.95893 ; brim
G1 X112.205 Y105.877 E3.09627 ; brim
G1 X110.373 Y104.045 E3.13153 ; brim
G1 X110.373 Y102.159 E3.15720 ; brim
G1 X110.091 Y101.877 E3.16263 ; brim
G1 X89.909 Y101.877 E3.43734 ; brim
G1 X89.627 Y102.159 E3.44276 ; brim
G1 X89.627 Y104.045 E3.46844 ; brim
G1 X87.795 Y105.877 E3.50370 ; brim
G1 X77.705 Y105.877 E3.64104 ; brim
G1 X75.873 Y104.045 E3.67630 ; brim
G1 X75.873 Y99.955 E3.73197 ; brim
G1 X77.651 Y98.177 E3.76618 ; brim
G1 X77.904 Y98.604 F6000.000 ; move to first brim point
G1 X82.072 Y98.604 E3.82292 F1800.000 ; brim
G1 X82.354 Y98.322 E3.82834 ; brim
G1 X82.354 Y96.154 E3.85786 ; brim
G1 X83.904 Y94.604 E3.88769 ; brim
G1 X116.096 Y94.604 E4.32586 ; brim
G1 X117.646 Y96.154 E4.35569 ; brim
G1 X117.646 Y98.322 E4.38521 F1800.000 ; brim
G1 X117.928 Y98.604 E4.39063 ; brim
G1 X122.096 Y98.604 E4.44737 ; brim
G1 X123.646 Y100.154 E4.47720 ; brim
G1 X123.646 Y103.846 E4.52745 ; brim
G1 X122.096 Y105.396 E4.55728 ; brim
G1 X112.404 Y105.396 E4.68920 ; brim
G1 X110.854 Y103.846 E4.71903 ; brim
G1 X110.854 Y101.678 E4.74855 ; brim
G1 X110.572 Y101.396 E4.75397 ; brim
G1 X89.428 Y101.396 E5.04178 ; brim
G1 X89.146 Y101.678 E5.04720 ; brim
G1 X89.146 Y103.846 E5.07671 ; brim
G1 X87.596 Y105.396 E5.10655 ; brim
G1 X77.904 Y105.396 E5.23846 ; brim
G1 X76.354 Y103.846 E5.26830 ; brim
G1 X76.354 Y100.154 E5.31855 ; brim
G1 X77.867 Y98.641 E5.34767 ; brim
G1 X78.103 Y99.085 F6000.000 ; move to first brim point
G1 X82.553 Y99.085 E5.40824 F1800.000 ; brim
G1 X82.835 Y98.803 E5.41366 ; brim
G1 X82.835 Y96.353 E5.44701 ; brim
G1 X84.103 Y95.085 E5.47142 ; brim
G1 X115.897 Y95.085 E5.90416 ; brim
G1 X117.165 Y96.353 E5.92857 F1800.000 ; brim
G1 X117.165 Y98.803 E5.96192 ; brim
G1 X117.447 Y99.085 E5.96735 ; brim
G1 X121.897 Y99.085 E6.02792 ; brim
G1 X123.165 Y100.353 E6.05233 ; brim
G1 X123.165 Y103.647 E6.09715 ; brim
G1 X121.897 Y104.915 E6.12156 ; brim
G1 X112.603 Y104.915 E6.24805 ; brim
G1 X111.335 Y103.647 E6.27246 ; brim
G1 X111.335 Y101.197 E6.30581 ; brim
G1 X111.053 Y100.915 E6.31124 ; brim
G1 X88.947 Y100.915 E6.61214 ; brim
G1 X88.665 Y101.197 E6.61756 ; brim
G1 X88.665 Y103.647 E6.65091 ; brim
G1 X87.397 Y104.915 E6.67532 ; brim
G1 X78.103 Y104.915 E6.80181 ; brim
G1 X76.835 Y103.647 E6.82622 ; brim
G1 X76.835 Y100.353 E6.87105 ; brim
G1 X78.066 Y99.122 E6.89474 ; brim
G1 X78.303 Y99.566 F6000.000 ; move to first brim point
G1 X83.035 Y99.566 E6.95915 F1800.000 ; brim
G1 X83.316 Y99.285 E6.96457 ; brim
G1 X83.316 Y96.553 E7.00176 ; brim
G1 X84.303 Y95.566 E7.02074 ; brim
G1 X115.697 Y95.566 E7.44806 ; brim
G1 X116.684 Y96.553 E7.46704 ; brim
G1 X116.684 Y99.285 E7.50423 F1800.000 ; brim
G1 X116.965 Y99.566 E7.50965 ; brim
G1 X121.697 Y99.566 E7.57406 ; brim
G1 X122.684 Y100.553 E7.59305 ; brim
G1 X122.684 Y103.447 E7.63245 ; brim
G1 X121.697 Y104.434 E7.65143 ; brim
G1 X112.803 Y104.434 E7.77250 ; brim
G1 X111.816 Y103.447 E7.79149 ; brim
G1 X111.816 Y100.715 E7.82867 ; brim
G1 X111.535 Y100.434 E7.83409 ; brim
G1 X88.465 Y100.434 E8.14809 ; brim
G1 X88.184 Y100.715 E8.15351 ; brim
G1 X88.184 Y103.447 E8.19070 ; brim
G1 X87.197 Y104.434 E8.20968 ; brim
G1 X78.303 Y104.434 E8.33075 ; brim
G1 X77.316 Y103.447 E8.34974 ; brim
G1 X77.316 Y100.553 E8.38914 ; brim
G1 X78.265 Y99.603 E8.40741 ; brim
G1 X78.502 Y100.047 F6000.000 ; move to first brim point
G1 X83.516 Y100.047 E8.47565 F1800.000 ; brim
G1 X83.797 Y99.766 E8.48108 ; brim
G1 X83.797 Y96.752 E8.52210 ; brim
G1 X84.502 Y96.047 E8.53566 ; brim
G1 X115.498 Y96.047 E8.95755 ; brim
G1 X116.203 Y96.752 E8.97111 F1800.000 ; brim
G1 X116.203 Y99.766 E9.01213 ; brim
G1 X116.484 Y100.047 E9.01755 ; brim
G1 X121.498 Y100.047 E9.08580 ; brim
G1 X122.203 Y100.752 E9.09936 ; brim
G1 X122.203 Y103.248 E9.13334 ; brim
G1 X121.498 Y103.953 E9.14690 ; brim
G1 X113.002 Y103.953 E9.26254 ; brim
G1 X112.297 Y103.248 E9.27610 ; brim
G1 X112.297 Y100.234 E9.31712 ; brim
G1 X112.016 Y99.953 E9.32255 ; brim
G1 X87.984 Y99.953 E9.64964 ; brim
G1 X87.703 Y100.234 E9.65506 ; brim
G1 X87.703 Y103.248 E9.69608 ; brim
G1 X86.998 Y103.953 E9.70964 ; brim
G1 X78.502 Y103.953 E9.82528 ; brim
G1 X77.797 Y103.248 E9.83885 ; brim
G1 X77.797 Y100.752 E9.87282 ; brim
G1 X78.465 Y100.084 E9.88567 ; brim
G1 X78.701 Y100.528 F6000.000 ; move to first brim point
G1 X83.997 Y100.528 E9.95775 F1800.000 ; brim
G1 X84.278 Y100.247 E9.96317 ; brim
G1 X84.278 Y96.951 E10.00803 ; brim
G1 X84.701 Y96.528 E10.01616 ; brim
G1 X115.299 Y96.528 E10.43263 ; brim
G1 X115.722 Y96.951 E10.44077 ; brim
G1 X115.722 Y100.247 E10.48562 F1800.000 ; brim
G1 X116.003 Y100.528 E10.49105 ; brim
G1 X121.299 Y100.528 E10.56313 ; brim
G1 X121.722 Y100.951 E10.57126 ; brim
G1 X121.722 Y103.049 E10.59982 ; brim
G1 X121.299 Y103.472 E10.60795 ; brim
G1 X113.201 Y103.472 E10.71817 ; brim
G1 X112.778 Y103.049 E10.72631 ; brim
G1 X112.778 Y99.753 E10.77116 ; brim
G1 X112.497 Y99.472 E10.77659 ; brim
G1 X87.503 Y99.472 E11.11677 ; brim
G1 X87.222 Y99.753 E11.12220 ; brim
G1 X87.222 Y103.049 E11.16705 ; brim
G1 X86.799 Y103.472 E11.17519 ; brim
G1 X78.701 Y103.472 E11.28541 ; brim
G1 X78.278 Y103.049 E11.29355 ; brim
G1 X78.278 Y100.951 E11.32210 ; brim
G1 X78.664 Y100.566 E11.32952 ; brim
G1 X78.900 Y101.009 F6000.000 ; move to first brim point
G1 X84.478 Y101.009 E11.40544 F1800.000 ; brim
G1 X84.759 Y100.728 E11.41086 ; brim
G1 X84.759 Y97.150 E11.45955 ; brim
G1 X84.900 Y97.009 E11.46226 ; brim
G1 X115.100 Y97.009 E11.87331 ; brim
G1 X115.241 Y97.150 E11.87602 ; brim
G1 X115.241 Y100.728 E11.92471 ; brim
G1 X115.522 Y101.009 E11.93014 ; brim
G1 X121.100 Y101.009 E12.00605 ; brim
G1 X121.241 Y101.150 E12.00876 ; brim
G1 X121.241 Y102.850 E12.03189 ; brim
G1 X121.100 Y102.991 E12.03460 ; brim
G1 X113.400 Y102.991 E12.13940 ; brim
G1 X113.259 Y102.850 E12.14211 ; brim
G1 X113.259 Y99.272 E12.19080 ; brim
G1 X112.978 Y98.991 E12.19623 ; brim
G1 X87.022 Y98.991 E12.54951 ; brim
G1 X86.741 Y99.272 E12.55493 ; brim
G1 X86.741 Y102.850 E12.60362 ; brim
G1 X86.600 Y102.991 E12.60633 ; brim
G1 X78.900 Y102.991 E12.71113 ; brim
G1 X78.759 Y102.850 E12.71384 ; brim
G1 X78.759 Y101.150 E12.73697 ; brim
G1 X78.863 Y101.047 E12.73897 ; brim
G1 E12.23897 F420.00000 ; retract
G92 E0 ; reset extrusion distance
G1 X114.825 Y101.425 F6000.000 ; move to first perimeter point
G1 E0.50000 F420.00000 ; unretract
G1 X120.825 Y101.425 E0.55213 F1050.000 ; perimeter
G1 X120.825 Y102.575 E0.56212 ; perimeter
G1 X113.675 Y102.575 E0.62425 ; perimeter
G1 X113.675 Y98.575 E0.65900 ; perimeter
G1 X86.325 Y98.575 E0.89663 ; perimeter
G1 X86.325 Y102.575 E0.93139 ; perimeter
G1 X79.175 Y102.575 E0.99351 ; perimeter
G1 X79.175 Y101.425 E1.00350 ; perimeter
G1 X85.175 Y101.425 E1.05563 ; perimeter
G1 X85.175 Y97.425 E1.09039 ; perimeter
G1 X114.825 Y97.425 E1.34801 ; perimeter
G1 X114.825 Y101.372 E1.38230 ; perimeter
G1 X114.825 Y101.775 F6000.000 ; move inwards before travel
G1 X114.431 Y101.819 F6000.000 ; move to first perimeter point
G1 X120.431 Y101.819 E1.46397 F2100.000 ; perimeter
G1 X120.431 Y102.181 E1.46890 ; perimeter
G1 X114.069 Y102.181 E1.55549 ; perimeter
G1 X114.069 Y98.181 E1.60993 ; perimeter
G1 X85.931 Y98.181 E1.99292 ; perimeter
G1 X85.931 Y102.181 E2.04737 ; perimeter
G1 X79.569 Y102.181 E2.13396 ; perimeter
G1 X79.569 Y101.819 E2.13888 ; perimeter
G1 X85.569 Y101.819 E2.22055 ; perimeter
G1 X85.569 Y97.819 E2.27500 ; perimeter
G1 X114.431 Y97.819 E2.66784 ; perimeter
G1 X114.431 Y101.767 E2.72157 ; perimeter
G1 E2.22157 F420.00000 ; retract
G92 E0 ; reset extrusion distance
G1 Z0.400 F6000.000 ; move to next layer (1)
G1 X114.431 Y101.819 F6000.000 ; move to first perimeter point
G1 E0.50000 F420.00000 ; unretract
G1 X120.431 Y101.819 E0.58167 F1205.960 ; perimeter
G1 X120.431 Y102.181 E0.58659 ; perimeter
G1 X114.069 Y102.181 E0.67318 ; perimeter
G1 X114.069 Y98.181 E0.72763 ; perimeter
G1 X85.931 Y98.181 E1.11062 ; perimeter
G1 X85.931 Y102.181 E1.16506 ; perimeter
G1 X79.569 Y102.181 E1.25166 ; perimeter
G1 X79.569 Y101.819 E1.25658 ; perimeter
G1 X85.569 Y101.819 E1.33825 ; perimeter
G1 X85.569 Y97.819 E1.39269 ; perimeter
G1 X114.431 Y97.819 E1.78553 ; perimeter
G1 X114.431 Y101.767 E1.83926 ; perimeter
G1 X114.825 Y101.425 F6000.000 ; move to first perimeter point
G1 X120.825 Y101.425 E1.89140 F602.980 ; perimeter
G1 X120.825 Y102.575 E1.90139 ; perimeter
G1 X113.675 Y102.575 E1.96351 ; perimeter
G1 X113.675 Y98.575 E1.99827 ; perimeter
G1 X86.325 Y98.575 E2.23590 ; perimeter
G1 X86.325 Y102.575 E2.27065 ; perimeter
G1 X79.175 Y102.575 E2.33278 ; perimeter
G1 X79.175 Y101.425 E2.34277 ; perimeter
G1 X85.175 Y101.425 E2.39490 ; perimeter
G1 X85.175 Y97.425 E2.42965 ; perimeter
G1 X114.825 Y97.425 E2.68727 ; perimeter
G1 X114.825 Y101.372 E2.72157 ; perimeter
G1 X114.825 Y101.775 F6000.000 ; move inwards before travel
G1 E2.22157 F420.00000 ; retract
G92 E0 ; reset extrusion distance
G1 Z0.600 F6000.000 ; move to next layer (2)
G1 X114.431 Y101.819 F6000.000 ; move to first perimeter point
G1 E0.50000 F420.00000 ; unretract
G1 X120.431 Y101.819 E0.58167 F1205.960 ; perimeter
G1 X120.431 Y102.181 E0.58659 ; perimeter
G1 X114.069 Y102.181 E0.67318 ; perimeter
G1 X114.069 Y98.181 E0.72763 ; perimeter
G1 X85.931 Y98.181 E1.11062 ; perimeter
G1 X85.931 Y102.181 E1.16506 ; perimeter
G1 X79.569 Y102.181 E1.25166 ; perimeter
G1 X79.569 Y101.819 E1.25658 ; perimeter
G1 X85.569 Y101.819 E1.33825 ; perimeter
G1 X85.569 Y97.819 E1.39269 ; perimeter
G1 X114.431 Y97.819 E1.78553 ; perimeter
G1 X114.431 Y101.767 E1.83926 ; perimeter
G1 X114.825 Y101.425 F6000.000 ; move to first perimeter point
G1 X120.825 Y101.425 E1.89140 F602.980 ; perimeter
G1 X120.825 Y102.575 E1.90139 ; perimeter
G1 X113.675 Y102.575 E1.96351 ; perimeter
G1 X113.675 Y98.575 E1.99827 ; perimeter
G1 X86.325 Y98.575 E2.23590 ; perimeter
G1 X86.325 Y102.575 E2.27065 ; perimeter
G1 X79.175 Y102.575 E2.33278 ; perimeter
G1 X79.175 Y101.425 E2.34277 ; perimeter
G1 X85.175 Y101.425 E2.39490 ; perimeter
G1 X85.175 Y97.425 E2.42965 ; perimeter
G1 X114.825 Y97.425 E2.68727 ; perimeter
G1 X114.825 Y101.372 E2.72157 ; perimeter
G1 X114.825 Y101.775 F6000.000 ; move inwards before travel
G1 E2.22157 F420.00000 ; retract
G92 E0 ; reset extrusion distance
G1 Z0.800 F6000.000 ; move to next layer (3)
G1 X114.431 Y101.819 F6000.000 ; move to first perimeter point
G1 E0.50000 F420.00000 ; unretract
G1 X120.431 Y101.819 E0.58167 F1205.960 ; perimeter
G1 X120.431 Y102.181 E0.58659 ; perimeter
G1 X114.069 Y102.181 E0.67318 ; perimeter
G1 X114.069 Y98.181 E0.72763 ; perimeter
G1 X85.931 Y98.181 E1.11062 ; perimeter
G1 X85.931 Y102.181 E1.16506 ; perimeter
G1 X79.569 Y102.181 E1.25166 ; perimeter
G1 X79.569 Y101.819 E1.25658 ; perimeter
G1 X85.569 Y101.819 E1.33825 ; perimeter
G1 X85.569 Y97.819 E1.39269 ; perimeter
G1 X114.431 Y97.819 E1.78553 ; perimeter
G1 X114.431 Y101.767 E1.83926 ; perimeter
G1 X114.825 Y101.425 F6000.000 ; move to first perimeter point
G1 X120.825 Y101.425 E1.89140 F602.980 ; perimeter
G1 X120.825 Y102.575 E1.90139 ; perimeter
G1 X113.675 Y102.575 E1.96351 ; perimeter
G1 X113.675 Y98.575 E1.99827 ; perimeter
G1 X86.325 Y98.575 E2.23590 ; perimeter
G1 X86.325 Y102.575 E2.27065 ; perimeter
G1 X79.175 Y102.575 E2.33278 ; perimeter
G1 X79.175 Y101.425 E2.34277 ; perimeter
G1 X85.175 Y101.425 E2.39490 ; perimeter
G1 X85.175 Y97.425 E2.42965 ; perimeter
G1 X114.825 Y97.425 E2.68727 ; perimeter
G1 X114.825 Y101.372 E2.72157 ; perimeter
G1 X114.825 Y101.775 F6000.000 ; move inwards before travel
G1 E2.22157 F420.00000 ; retract
G92 E0 ; reset extrusion distance
G1 Z1.000 F6000.000 ; move to next layer (4)
G1 X114.431 Y101.819 F6000.000 ; move to first perimeter point
G1 E0.50000 F420.00000 ; unretract
G1 X120.431 Y101.819 E0.58167 F1205.960 ; perimeter
G1 X120.431 Y102.181 E0.58659 ; perimeter
G1 X114.069 Y102.181 E0.67318 ; perimeter
G1 X114.069 Y98.181 E0.72763 ; perimeter
G1 X85.931 Y98.181 E1.11062 ; perimeter
G1 X85.931 Y102.181 E1.16506 ; perimeter
G1 X79.569 Y102.181 E1.25166 ; perimeter
G1 X79.569 Y101.819 E1.25658 ; perimeter
G1 X85.569 Y101.819 E1.33825 ; perimeter
G1 X85.569 Y97.819 E1.39269 ; perimeter
G1 X114.431 Y97.819 E1.78553 ; perimeter
G1 X114.431 Y101.767 E1.83926 ; perimeter
G1 X114.825 Y101.425 F6000.000 ; move to first perimeter point
G1 X120.825 Y101.425 E1.89140 F602.980 ; perimeter
G1 X120.825 Y102.575 E1.90139 ; perimeter
G1 X113.675 Y102.575 E1.96351 ; perimeter
G1 X113.675 Y98.575 E1.99827 ; perimeter
G1 X86.325 Y98.575 E2.23590 ; perimeter
G1 X86.325 Y102.575 E2.27065 ; perimeter
G1 X79.175 Y102.575 E2.33278 ; perimeter
G1 X79.175 Y101.425 E2.34277 ; perimeter
G1 X85.175 Y101.425 E2.39490 ; perimeter
G1 X85.175 Y97.425 E2.42965 ; perimeter
G1 X114.825 Y97.425 E2.68727 ; perimeter
G1 X114.825 Y101.372 E2.72157 ; perimeter
G1 X114.825 Y101.775 F6000.000 ; move inwards before travel
G1 E2.22157 F420.00000 ; retract
