; generated by Slic3r 1.2.9 on 2017-06-04 at 21:30:10

; external perimeters extrusion width = 0.35mm
; perimeters extrusion width = 0.52mm
; infill extrusion width = 0.52mm
; solid infill extrusion width = 0.52mm
; top infill extrusion width = 0.52mm

M107 ; disable fan
G28 ; home all axes
G21 ; set units to millimeters
G90 ; use absolute coordinates
M82 ; use absolute distances for extrusion
G92 E0 ; reset extrusion distance
G1 E-0.30000 F420.00000 ; retract
G92 E0 ; reset extrusion distance
G1 Z0.200 F6000.000 ; move to next layer (0)
G1 X65.688 Y73.067 F6000.000 ; move to first skirt point
G1 E0.30000 F420.00000 ; unretract
G1 X68.406 Y71.173 E0.34509 F1800.000 ; skirt
G1 X81.666 Y66.328 E0.53725 ; skirt
G1 X83.890 Y65.934 E0.56799 ; skirt
G1 X116.110 Y65.934 E1.00654 ; skirt
G1 X118.334 Y66.328 E1.03729 ; skirt
G1 X131.594 Y71.173 E1.22944 F1800.000 ; skirt
G1 X133.556 Y72.312 E1.26031 ; skirt
G1 X135.004 Y74.057 E1.29119 ; skirt
G1 X135.851 Y77.260 E1.33628 ; skirt
G1 X135.851 Y127.585 E2.02126 ; skirt
G1 X135.454 Y129.818 E2.05213 ; skirt
G1 X134.312 Y131.778 E2.08300 ; skirt
G1 X132.565 Y133.224 E2.11388 ; skirt
G1 X129.370 Y134.066 E2.15884 ; skirt
G1 X70.630 Y134.066 E2.95836 ; skirt
G1 X68.397 Y133.669 E2.98923 ; skirt
G1 X66.437 Y132.527 E3.02010 ; skirt
G1 X64.991 Y130.779 E3.05098 ; skirt
G1 X64.149 Y127.585 E3.09594 ; skirt
G1 X64.149 Y77.260 E3.78092 ; skirt
G1 X64.546 Y75.027 E3.81180 ; skirt
G1 X65.662 Y73.112 E3.84195 ; skirt
G1 E3.54195 F420.00000 ; retract
G92 E0 ; reset extrusion distance
G1 X128.320 Y126.535 F6000.000 ; move to first perimeter point
G1 E0.30000 F420.00000 ; unretract
G1 X102.880 Y126.535 E0.64626 F2100.000 ; perimeter
G1 X102.880 Y113.705 E0.82089 ; perimeter
G1 X103.080 Y113.641 E0.82375 ; perimeter
G1 X103.366 Y114.039 E0.83043 ; perimeter
G1 X103.857 Y114.593 E0.84051 ; perimeter
G1 X104.395 Y115.086 E0.85043 ; perimeter
G1 X104.358 Y115.380 E0.85447 ; perimeter
G1 X104.354 Y115.925 E0.86188 ; perimeter
G1 X104.415 Y116.469 E0.86934 ; perimeter
G1 X104.540 Y117.003 E0.87680 ; perimeter
G1 X104.726 Y117.515 E0.88420 ; perimeter
G1 X104.967 Y117.994 E0.89151 ; perimeter
G1 X105.256 Y118.435 E0.89868 ; perimeter
G1 X105.593 Y118.839 E0.90585 ; perimeter
G1 X105.981 Y119.210 E0.91315 ; perimeter
G1 X106.416 Y119.537 E0.92056 ; perimeter
G1 X106.890 Y119.812 E0.92802 ; perimeter
G1 X107.394 Y120.029 E0.93548 ; perimeter
G1 X107.915 Y120.184 E0.94289 ; perimeter
G1 X108.444 Y120.276 E0.95019 ; perimeter
G1 X108.970 Y120.306 E0.95736 ; perimeter
G1 X109.496 Y120.276 E0.96453 ; perimeter
G1 X110.025 Y120.184 E0.97184 ; perimeter
G1 X110.546 Y120.029 E0.97925 ; perimeter
G1 X111.050 Y119.812 E0.98671 ; perimeter
G1 X111.524 Y119.537 E0.99417 ; perimeter
G1 X111.959 Y119.210 E1.00157 ; perimeter
G1 X112.347 Y118.839 E1.00888 ; perimeter
G1 X112.684 Y118.435 E1.01605 ; perimeter
G1 X112.973 Y117.994 E1.02322 ; perimeter
G1 X113.214 Y117.515 E1.03052 ; perimeter
G1 X113.400 Y117.003 E1.03793 ; perimeter
G1 X113.525 Y116.469 E1.04539 ; perimeter
G1 X113.586 Y115.925 E1.05285 ; perimeter
G1 X113.582 Y115.380 E1.06026 ; perimeter
G1 X113.544 Y115.079 E1.06439 ; perimeter
G1 X113.983 Y114.692 E1.07235 ; perimeter
G1 X114.553 Y114.064 E1.08390 ; perimeter
G1 X114.840 Y113.683 E1.09039 ; perimeter
G1 X115.292 Y112.950 E1.10211 ; perimeter
G1 X115.504 Y112.519 E1.10865 ; perimeter
G1 X115.816 Y111.702 E1.12055 ; perimeter
G1 X116.026 Y110.847 E1.13254 ; perimeter
G1 X116.129 Y109.990 E1.14429 ; perimeter
G1 X116.138 Y105.850 E1.20064 ; perimeter
G1 X117.100 Y105.850 E1.21374 ; perimeter
G1 X117.100 Y116.644 E1.36066 ; perimeter
G1 X117.120 Y117.082 E1.36663 ; perimeter
G1 X117.185 Y117.554 E1.37312 ; perimeter
G1 X117.297 Y118.033 E1.37980 ; perimeter
G1 X117.459 Y118.509 E1.38666 ; perimeter
G1 X117.672 Y118.977 E1.39365 ; perimeter
G1 X117.935 Y119.428 E1.40076 ; perimeter
G1 X118.246 Y119.855 E1.40795 ; perimeter
G1 X118.601 Y120.249 E1.41517 ; perimeter
G1 X118.995 Y120.604 E1.42239 ; perimeter
G1 X119.422 Y120.915 E1.42957 ; perimeter
G1 X119.873 Y121.178 E1.43668 ; perimeter
G1 X120.341 Y121.391 E1.44367 ; perimeter
G1 X120.817 Y121.553 E1.45053 ; perimeter
G1 X121.296 Y121.665 E1.45721 ; perimeter
G1 X121.768 Y121.730 E1.46371 ; perimeter
G1 X122.230 Y121.751 E1.47000 ; perimeter
G1 X122.692 Y121.730 E1.47629 ; perimeter
G1 X123.164 Y121.665 E1.48278 ; perimeter
G1 X123.643 Y121.553 E1.48947 ; perimeter
G1 X124.119 Y121.391 E1.49633 ; perimeter
G1 X124.587 Y121.178 E1.50332 ; perimeter
G1 X125.038 Y120.915 E1.51043 ; perimeter
G1 X125.465 Y120.604 E1.51761 ; perimeter
G1 X125.859 Y120.249 E1.52483 ; perimeter
G1 X126.214 Y119.855 E1.53205 ; perimeter
G1 X126.525 Y119.428 E1.53924 ; perimeter
G1 X126.788 Y118.977 E1.54634 ; perimeter
G1 X127.001 Y118.509 E1.55334 ; perimeter
G1 X127.163 Y118.033 E1.56019 ; perimeter
G1 X127.275 Y117.554 E1.56688 ; perimeter
G1 X127.340 Y117.082 E1.57337 ; perimeter
G1 X127.360 Y116.644 E1.57934 ; perimeter
G1 X127.360 Y105.850 E1.72626 ; perimeter
G1 X128.320 Y105.850 E1.73933 ; perimeter
G1 X128.320 Y126.482 E2.02016 ; perimeter
G1 X128.801 Y127.016 F6000.000 ; move to first perimeter point
G1 X102.399 Y127.016 E2.37952 F2100.000 ; perimeter
G1 X102.399 Y111.752 E2.58727 ; perimeter
G1 X102.643 Y111.715 E2.59064 ; perimeter
G1 X102.709 Y111.922 E2.59360 ; perimeter
G1 X102.990 Y112.563 E2.60312 ; perimeter
G1 X103.336 Y113.172 E2.61265 ; perimeter
G1 X103.742 Y113.739 E2.62215 ; perimeter
G1 X104.201 Y114.256 E2.63155 ; perimeter
G1 X104.702 Y114.716 E2.64082 ; perimeter
G1 X104.907 Y114.868 E2.64429 ; perimeter
G1 X104.839 Y115.412 E2.65174 ; perimeter
G1 X104.836 Y115.900 E2.65838 ; perimeter
G1 X104.890 Y116.387 E2.66506 ; perimeter
G1 X105.002 Y116.866 E2.67175 ; perimeter
G1 X105.169 Y117.324 E2.67838 ; perimeter
G1 X105.384 Y117.753 E2.68493 ; perimeter
G1 X105.643 Y118.148 E2.69135 ; perimeter
G1 X105.945 Y118.510 E2.69776 ; perimeter
G1 X106.293 Y118.842 E2.70431 ; perimeter
G1 X106.683 Y119.135 E2.71094 ; perimeter
G1 X107.107 Y119.381 E2.71763 ; perimeter
G1 X107.558 Y119.576 E2.72431 ; perimeter
G1 X108.025 Y119.715 E2.73095 ; perimeter
G1 X108.499 Y119.797 E2.73749 ; perimeter
G1 X108.970 Y119.824 E2.74391 ; perimeter
G1 X109.441 Y119.797 E2.75033 ; perimeter
G1 X109.915 Y119.715 E2.75688 ; perimeter
G1 X110.382 Y119.576 E2.76351 ; perimeter
G1 X110.833 Y119.381 E2.77020 ; perimeter
G1 X111.257 Y119.135 E2.77688 ; perimeter
G1 X111.647 Y118.842 E2.78352 ; perimeter
G1 X111.995 Y118.510 E2.79006 ; perimeter
G1 X112.297 Y118.148 E2.79648 ; perimeter
G1 X112.556 Y117.754 E2.80290 ; perimeter
G1 X112.771 Y117.324 E2.80944 ; perimeter
G1 X112.938 Y116.866 E2.81608 ; perimeter
G1 X113.050 Y116.388 E2.82276 ; perimeter
G1 X113.104 Y115.900 E2.82944 ; perimeter
G1 X113.101 Y115.412 E2.83608 ; perimeter
G1 X113.033 Y114.864 E2.84359 ; perimeter
G1 X113.330 Y114.638 E2.84867 ; perimeter
G1 X113.641 Y114.353 E2.85443 ; perimeter
G1 X114.182 Y113.757 E2.86537 ; perimeter
G1 X114.442 Y113.412 E2.87126 ; perimeter
G1 X114.870 Y112.717 E2.88237 ; perimeter
G1 X115.063 Y112.327 E2.88829 ; perimeter
G1 X115.356 Y111.559 E2.89948 ; perimeter
G1 X115.552 Y110.761 E2.91066 ; perimeter
G1 X115.648 Y109.961 E2.92163 ; perimeter
G1 X115.658 Y105.369 E2.98414 ; perimeter
G1 X117.581 Y105.369 E3.01031 ; perimeter
G1 X117.581 Y116.633 E3.16363 ; perimeter
G1 X117.599 Y117.038 E3.16915 ; perimeter
G1 X117.658 Y117.466 E3.17504 ; perimeter
G1 X117.760 Y117.900 E3.18110 ; perimeter
G1 X117.907 Y118.332 E3.18731 ; perimeter
G1 X118.100 Y118.756 E3.19365 ; perimeter
G1 X118.338 Y119.164 E3.20009 ; perimeter
G1 X118.620 Y119.551 E3.20660 ; perimeter
G1 X118.942 Y119.908 E3.21314 ; perimeter
G1 X119.299 Y120.230 E3.21969 ; perimeter
G1 X119.685 Y120.512 E3.22620 ; perimeter
G1 X120.094 Y120.750 E3.23264 ; perimeter
G1 X120.518 Y120.943 E3.23898 ; perimeter
G1 X120.950 Y121.090 E3.24519 ; perimeter
G1 X121.384 Y121.192 E3.25125 ; perimeter
G1 X121.812 Y121.251 E3.25713 ; perimeter
G1 X122.230 Y121.270 E3.26283 ; perimeter
G1 X122.648 Y121.251 E3.26853 ; perimeter
G1 X123.076 Y121.192 E3.27441 ; perimeter
G1 X123.510 Y121.090 E3.28047 ; perimeter
G1 X123.942 Y120.943 E3.28668 ; perimeter
G1 X124.366 Y120.750 E3.29302 ; perimeter
G1 X124.775 Y120.512 E3.29946 ; perimeter
G1 X125.161 Y120.230 E3.30597 ; perimeter
G1 X125.518 Y119.908 E3.31252 ; perimeter
G1 X125.840 Y119.551 E3.31906 ; perimeter
G1 X126.122 Y119.164 E3.32557 ; perimeter
G1 X126.360 Y118.756 E3.33201 ; perimeter
G1 X126.553 Y118.332 E3.33835 ; perimeter
G1 X126.700 Y117.900 E3.34456 ; perimeter
G1 X126.802 Y117.466 E3.35062 ; perimeter
G1 X126.861 Y117.038 E3.35650 ; perimeter
G1 X126.879 Y116.633 E3.36203 ; perimeter
G1 X126.879 Y105.369 E3.51535 ; perimeter
G1 X128.801 Y105.369 E3.54151 ; perimeter
G1 X128.801 Y126.963 E3.83543 ; perimeter
G1 X129.195 Y127.410 F6000.000 ; move to first perimeter point
G1 X102.005 Y127.410 E4.07168 F1050.000 ; perimeter
G1 X102.005 Y110.675 E4.21708 ; perimeter
G1 X102.780 Y110.675 E4.22381 ; perimeter
G1 X102.880 Y111.160 E4.22811 ; perimeter
G1 X103.079 Y111.783 E4.23379 ; perimeter
G1 X103.343 Y112.386 E4.23951 ; perimeter
G1 X103.669 Y112.959 E4.24524 ; perimeter
G1 X104.051 Y113.493 E4.25094 ; perimeter
G1 X104.482 Y113.979 E4.25659 ; perimeter
G1 X104.954 Y114.412 E4.26216 ; perimeter
G1 X105.358 Y114.714 E4.26654 ; perimeter
G1 X105.287 Y115.006 E4.26915 ; perimeter
G1 X105.233 Y115.438 E4.27293 ; perimeter
G1 X105.230 Y115.879 E4.27676 ; perimeter
G1 X105.279 Y116.320 E4.28062 ; perimeter
G1 X105.380 Y116.753 E4.28448 ; perimeter
G1 X105.531 Y117.168 E4.28832 ; perimeter
G1 X105.726 Y117.556 E4.29210 ; perimeter
G1 X105.960 Y117.913 E4.29580 ; perimeter
G1 X106.233 Y118.241 E4.29951 ; perimeter
G1 X106.548 Y118.541 E4.30329 ; perimeter
G1 X106.901 Y118.806 E4.30712 ; perimeter
G1 X107.285 Y119.029 E4.31098 ; perimeter
G1 X107.693 Y119.205 E4.31484 ; perimeter
G1 X108.116 Y119.331 E4.31867 ; perimeter
G1 X108.544 Y119.405 E4.32245 ; perimeter
G1 X108.970 Y119.429 E4.32616 ; perimeter
G1 X109.396 Y119.405 E4.32986 ; perimeter
G1 X109.824 Y119.331 E4.33364 ; perimeter
G1 X110.247 Y119.205 E4.33748 ; perimeter
G1 X110.655 Y119.029 E4.34134 ; perimeter
G1 X111.039 Y118.806 E4.34520 ; perimeter
G1 X111.392 Y118.541 E4.34903 ; perimeter
G1 X111.707 Y118.241 E4.35281 ; perimeter
G1 X111.980 Y117.913 E4.35651 ; perimeter
G1 X112.214 Y117.556 E4.36022 ; perimeter
G1 X112.409 Y117.168 E4.36400 ; perimeter
G1 X112.560 Y116.753 E4.36783 ; perimeter
G1 X112.661 Y116.320 E4.37169 ; perimeter
G1 X112.710 Y115.879 E4.37555 ; perimeter
G1 X112.707 Y115.438 E4.37939 ; perimeter
G1 X112.653 Y115.006 E4.38317 ; perimeter
G1 X112.582 Y114.713 E4.38579 ; perimeter
G1 X113.077 Y114.335 E4.39120 ; perimeter
G1 X113.362 Y114.074 E4.39456 ; perimeter
G1 X113.878 Y113.506 E4.40123 ; perimeter
G1 X114.117 Y113.189 E4.40467 ; perimeter
G1 X114.525 Y112.526 E4.41144 ; perimeter
G1 X114.701 Y112.169 E4.41490 ; perimeter
G1 X114.979 Y111.441 E4.42167 ; perimeter
G1 X115.164 Y110.690 E4.42839 ; perimeter
G1 X115.254 Y109.937 E4.43498 ; perimeter
G1 X115.265 Y104.974 E4.47809 ; perimeter
G1 X117.975 Y104.974 E4.50164 ; perimeter
G1 X117.975 Y116.624 E4.60286 ; perimeter
G1 X117.992 Y117.002 E4.60615 ; perimeter
G1 X118.046 Y117.394 E4.60959 ; perimeter
G1 X118.139 Y117.791 E4.61313 ; perimeter
G1 X118.274 Y118.186 E4.61676 ; perimeter
G1 X118.450 Y118.574 E4.62046 ; perimeter
G1 X118.668 Y118.948 E4.62423 ; perimeter
G1 X118.926 Y119.302 E4.62803 ; perimeter
G1 X119.221 Y119.629 E4.63185 ; perimeter
G1 X119.548 Y119.924 E4.63568 ; perimeter
G1 X119.902 Y120.182 E4.63948 ; perimeter
G1 X120.276 Y120.400 E4.64324 ; perimeter
G1 X120.664 Y120.576 E4.64695 ; perimeter
G1 X121.059 Y120.711 E4.65058 ; perimeter
G1 X121.456 Y120.804 E4.65411 ; perimeter
G1 X121.848 Y120.858 E4.65755 ; perimeter
G1 X122.230 Y120.875 E4.66088 ; perimeter
G1 X122.612 Y120.858 E4.66420 ; perimeter
G1 X123.004 Y120.804 E4.66764 ; perimeter
G1 X123.401 Y120.711 E4.67118 ; perimeter
G1 X123.796 Y120.576 E4.67481 ; perimeter
G1 X124.184 Y120.400 E4.67852 ; perimeter
G1 X124.558 Y120.182 E4.68228 ; perimeter
G1 X124.912 Y119.924 E4.68608 ; perimeter
G1 X125.239 Y119.629 E4.68990 ; perimeter
G1 X125.534 Y119.302 E4.69373 ; perimeter
G1 X125.792 Y118.948 E4.69753 ; perimeter
G1 X126.010 Y118.574 E4.70129 ; perimeter
G1 X126.186 Y118.186 E4.70500 ; perimeter
G1 X126.321 Y117.791 E4.70863 ; perimeter
G1 X126.414 Y117.394 E4.71217 ; perimeter
G1 X126.468 Y117.002 E4.71560 ; perimeter
G1 X126.485 Y116.624 E4.71890 ; perimeter
G1 X126.485 Y104.974 E4.82011 ; perimeter
G1 X129.195 Y104.974 E4.84366 ; perimeter
G1 X129.195 Y127.357 E5.03813 ; perimeter
G1 X128.892 Y127.235 F6000.000 ; move inwards before travel
G1 E4.73813 F420.00000 ; retract
G92 E0 ; reset extrusion distance
G1 X126.310 Y105.196 F6000.000 ; move to first perimeter point
G1 E0.30000 F420.00000 ; unretract
G1 X118.150 Y105.196 E0.41107 F1050.000 ; perimeter
G1 X116.619 Y106.090 F6000.000 ; move to first infill point
G1 X116.615 Y110.005 E0.52240 F600.000 ; infill
G1 X116.540 Y111.264 E0.55824 ; infill
G1 E0.25824 F420.00000 ; retract
G92 E0 ; reset extrusion distance
G1 X127.840 Y106.090 F6000.000 ; move to first infill point
G1 E0.30000 F420.00000 ; unretract
G1 X127.840 Y116.649 E0.60026 F600.000 ; infill
G1 X127.829 Y117.138 E0.61416 ; infill
G1 X127.749 Y118.031 E0.63967 ; infill
G1 X128.033 Y118.584 F6000.000 ; move to first infill point
G1 X127.786 Y118.337 E0.64447 F2700.000 ; infill
G1 X127.274 Y118.512 E0.65190 ; infill
G1 X128.033 Y119.271 E0.66665 ; infill
G1 X128.033 Y119.958 E0.67610 ; infill
G1 X127.062 Y118.987 E0.69496 ; infill
G1 X126.815 Y119.426 E0.70189 ; infill
G1 X128.033 Y120.644 E0.72557 ; infill
G1 X128.033 Y121.331 E0.73501 ; infill
G1 X126.534 Y119.833 E0.76414 ; infill
G1 X126.224 Y120.209 E0.77085 ; infill
G1 X128.033 Y122.018 E0.80601 ; infill
G1 X128.033 Y122.705 E0.81546 ; infill
G1 X125.883 Y120.556 E0.85724 ; infill
G1 X125.514 Y120.873 E0.86393 ; infill
G1 X128.033 Y123.392 E0.91290 ; infill
G1 X128.033 Y124.079 E0.92234 ; infill
G1 X125.113 Y121.160 E0.97909 ; infill
G1 X124.680 Y121.413 E0.98599 ; infill
G1 X128.033 Y124.766 E1.05117 ; infill
G1 X128.033 Y125.453 E1.06061 ; infill
G1 X124.209 Y121.629 E1.13494 ; infill
G1 X123.700 Y121.807 E1.14235 ; infill
G1 X128.033 Y126.140 E1.22656 ; infill
G1 X127.454 Y126.248 E1.23465 ; infill
G1 X123.149 Y121.943 E1.31833 ; infill
G1 X122.539 Y122.020 E1.32678 ; infill
G1 X126.767 Y126.248 E1.40896 ; infill
G1 X126.080 Y126.248 E1.41840 ; infill
G1 X121.858 Y122.026 E1.50045 ; infill
G1 X121.082 Y121.937 E1.51120 ; infill
G1 X125.393 Y126.248 E1.59499 ; infill
G1 X124.706 Y126.248 E1.60444 ; infill
G1 X120.116 Y121.658 E1.69365 ; infill
G1 E1.39365 F420.00000 ; retract
G92 E0 ; reset extrusion distance
G1 X117.192 Y118.734 F6000.000 ; move to first infill point
G1 E0.30000 F420.00000 ; unretract
G1 X113.870 Y115.411 E0.36457 F2700.000 ; infill
G1 X114.079 Y114.934 E0.37174 ; infill
G1 X116.913 Y117.768 E0.42683 ; infill
G1 X116.824 Y116.992 E0.43757 ; infill
G1 X114.414 Y114.582 E0.48441 ; infill
G1 X114.741 Y114.222 E0.49110 ; infill
G1 X116.813 Y116.294 E0.53137 ; infill
G1 X116.813 Y115.607 E0.54081 ; infill
G1 X115.037 Y113.831 E0.57533 ; infill
G1 X115.301 Y113.408 E0.58219 ; infill
G1 X116.813 Y114.920 E0.61157 ; infill
G1 X116.813 Y114.233 E0.62101 ; infill
G1 X115.559 Y112.979 E0.64539 ; infill
G1 X115.781 Y112.514 E0.65247 ; infill
G1 X116.813 Y113.546 E0.67253 ; infill
G1 X116.813 Y112.859 E0.68197 ; infill
G1 X115.971 Y112.017 E0.69834 ; infill
G1 X116.176 Y111.535 E0.70553 ; infill
G1 X116.813 Y112.172 E0.71791 ; infill
G1 E0.41791 F420.00000 ; retract
G92 E0 ; reset extrusion distance
G1 X113.847 Y116.075 F6000.000 ; move to first infill point
G1 E0.30000 F420.00000 ; unretract
G1 X124.019 Y126.248 E0.49772 F2700.000 ; infill
G1 X123.332 Y126.248 E0.50716 ; infill
G1 X113.752 Y116.667 E0.69337 ; infill
G1 X113.601 Y117.204 E0.70103 ; infill
