; generated by Slic3r 1.2.9 on 2017-06-30 at 11:32:59

; external perimeters extrusion width = 0.35mm
; perimeters extrusion width = 0.52mm
; infill extrusion width = 0.52mm
; solid infill extrusion width = 0.52mm
; top infill extrusion width = 0.52mm

M107 ; disable fan
G28 ; home all axes
G21 ; set units to millimeters
G90 ; use absolute coordinates
M82 ; use absolute distances for extrusion
G92 E0 ; reset extrusion distance
G1 E-0.50000 F420.00000 ; retract
G92 E0 ; reset extrusion distance
G1 Z0.200 F6000.000 ; move to next layer (0)
G1 X81.558 Y85.307 F6000.000 ; move to first skirt point
G1 E0.50000 F420.00000 ; unretract
G1 X83.305 Y83.861 E0.53087 F1800.000 ; skirt
G1 X86.500 Y83.019 E0.57584 ; skirt
G1 X94.000 Y83.019 E0.67792 ; skirt
G1 X96.233 Y83.416 E0.70880 ; skirt
G1 X97.664 Y84.154 E0.73071 F1800.000 ; skirt
G1 X114.942 Y95.997 E1.01582 ; skirt
G1 X115.390 Y96.333 E1.02344 ; skirt
G1 X116.147 Y96.955 E1.03678 ; skirt
G1 X117.045 Y97.853 E1.05407 ; skirt
G1 X117.667 Y98.610 E1.06741 ; skirt
G1 X118.373 Y99.667 E1.08470 ; skirt
G1 X118.835 Y100.531 E1.09805 ; skirt
G1 X119.321 Y101.705 E1.11534 ; skirt
G1 X119.606 Y102.643 E1.12868 ; skirt
G1 X119.854 Y103.889 E1.14597 ; skirt
G1 X119.950 Y104.865 E1.15931 ; skirt
G1 X119.950 Y106.135 E1.17661 ; skirt
G1 X119.854 Y107.111 E1.18995 ; skirt
G1 X119.606 Y108.357 E1.20724 ; skirt
G1 X119.321 Y109.295 E1.22058 ; skirt
G1 X118.835 Y110.469 E1.23788 ; skirt
G1 X118.373 Y111.333 E1.25122 ; skirt
G1 X117.667 Y112.390 E1.26852 ; skirt
G1 X117.045 Y113.147 E1.28186 ; skirt
G1 X116.147 Y114.045 E1.29914 ; skirt
G1 X115.390 Y114.667 E1.31248 ; skirt
G1 X114.333 Y115.373 E1.32977 ; skirt
G1 X113.469 Y115.835 E1.34312 ; skirt
G1 X112.295 Y116.321 E1.36042 ; skirt
G1 X111.357 Y116.606 E1.37376 ; skirt
G1 X110.111 Y116.854 E1.39105 ; skirt
G1 X109.135 Y116.950 E1.40439 ; skirt
G1 X107.865 Y116.950 E1.42168 ; skirt
G1 X106.889 Y116.854 E1.43503 ; skirt
G1 X105.643 Y116.606 E1.45232 ; skirt
G1 X104.705 Y116.321 E1.46566 ; skirt
G1 X103.557 Y115.849 E1.48255 ; skirt
G1 X83.471 Y105.230 E1.79181 ; skirt
G1 X81.682 Y103.835 E1.82268 ; skirt
G1 X80.483 Y101.909 E1.85356 ; skirt
G1 X80.019 Y99.500 E1.88695 ; skirt
G1 X80.019 Y89.500 E2.02306 ; skirt
G1 X80.416 Y87.267 E2.05394 ; skirt
G1 X81.532 Y85.352 E2.08410 ; skirt
G1 E1.58410 F420.00000 ; retract
G92 E0 ; reset extrusion distance
G1 X89.331 Y98.331 F6000.000 ; move to first perimeter point
G1 E0.50000 F420.00000 ; unretract
G1 X89.153 Y98.478 E0.50200 F1500.000 ; perimeter
G1 X88.950 Y98.586 E0.50401 ; perimeter
G1 X88.729 Y98.653 E0.50601 ; perimeter
G1 X88.500 Y98.676 E0.50801 ; perimeter
G1 X88.271 Y98.653 E0.51001 ; perimeter
G1 X88.050 Y98.586 E0.51202 ; perimeter
G1 X87.847 Y98.478 E0.51402 ; perimeter
G1 X87.669 Y98.331 E0.51602 ; perimeter
G1 X87.522 Y98.153 E0.51802 ; perimeter
G1 X87.414 Y97.950 E0.52003 ; perimeter
G1 X87.347 Y97.729 E0.52203 ; perimeter
G1 X87.324 Y97.500 E0.52403 ; perimeter
G1 X87.347 Y97.271 E0.52604 ; perimeter
G1 X87.414 Y97.050 E0.52804 ; perimeter
G1 X87.522 Y96.847 E0.53004 ; perimeter
G1 X87.669 Y96.669 E0.53204 ; perimeter
G1 X87.847 Y96.522 E0.53405 ; perimeter
G1 X88.050 Y96.414 E0.53605 ; perimeter
G1 X88.271 Y96.347 E0.53805 ; perimeter
G1 X88.493 Y96.325 E0.53999 F1500.000 ; perimeter
G1 X88.729 Y96.347 E0.54205 ; perimeter
G1 X88.950 Y96.414 E0.54406 ; perimeter
G1 X89.153 Y96.522 E0.54606 ; perimeter
G1 X89.331 Y96.669 E0.54807 ; perimeter
G1 X89.478 Y96.847 E0.55007 ; perimeter
G1 X89.586 Y97.050 E0.55207 ; perimeter
G1 X89.653 Y97.271 E0.55407 ; perimeter
G1 X89.676 Y97.500 E0.55608 ; perimeter
G1 X89.653 Y97.729 E0.55808 ; perimeter
G1 X89.586 Y97.950 E0.56008 ; perimeter
G1 X89.478 Y98.153 E0.56208 ; perimeter
G1 X89.365 Y98.291 E0.56363 ; perimeter
G1 X89.384 Y98.556 F6000.000 ; move inwards before travel
G1 X87.778 Y98.931 F6000.000 ; move to first perimeter point
G1 X87.069 Y98.931 E0.57328 F1500.000 ; perimeter
G1 X87.069 Y98.222 E0.58293 ; perimeter
G1 X87.389 Y98.611 E0.58978 ; perimeter
G1 X87.737 Y98.898 E0.59592 ; perimeter
G1 E0.09592 F420.00000 ; retract
G92 E0 ; reset extrusion distance
G1 X87.069 Y90.778 F6000.000 ; move to first perimeter point
G1 E0.50000 F420.00000 ; unretract
G1 X87.069 Y90.069 E0.50965 F1500.000 ; perimeter
G1 X87.778 Y90.069 E0.51929 ; perimeter
G1 X87.389 Y90.389 E0.52615 ; perimeter
G1 X87.102 Y90.737 E0.53229 ; perimeter
G1 X87.450 Y90.982 F6000.000 ; move to first perimeter point
G1 X87.522 Y90.847 E0.53362 F1500.000 ; perimeter
G1 X87.669 Y90.669 E0.53562 ; perimeter
G1 X87.847 Y90.522 E0.53762 ; perimeter
G1 X88.050 Y90.414 E0.53963 ; perimeter
G1 X88.271 Y90.347 E0.54163 ; perimeter
G1 X88.493 Y90.325 E0.54357 F1500.000 ; perimeter
G1 X88.729 Y90.347 E0.54563 ; perimeter
G1 X88.950 Y90.414 E0.54764 ; perimeter
G1 X89.153 Y90.522 E0.54964 ; perimeter
G1 X89.331 Y90.669 E0.55164 ; perimeter
G1 X89.478 Y90.847 E0.55364 ; perimeter
G1 X89.586 Y91.050 E0.55565 ; perimeter
G1 X89.653 Y91.271 E0.55765 ; perimeter
G1 X89.676 Y91.500 E0.55965 ; perimeter
G1 X89.653 Y91.729 E0.56166 ; perimeter
G1 X89.586 Y91.950 E0.56366 ; perimeter
G1 X89.478 Y92.153 E0.56566 ; perimeter
G1 X89.331 Y92.331 E0.56766 ; perimeter
G1 X89.153 Y92.478 E0.56967 ; perimeter
G1 X88.950 Y92.586 E0.57167 ; perimeter
G1 X88.729 Y92.653 E0.57367 ; perimeter
G1 X88.500 Y92.676 E0.57568 ; perimeter
G1 X88.271 Y92.653 E0.57768 ; perimeter
G1 X88.050 Y92.586 E0.57968 ; perimeter
G1 X87.847 Y92.478 E0.58168 ; perimeter
G1 X87.669 Y92.331 E0.58369 ; perimeter
G1 X87.522 Y92.153 E0.58569 ; perimeter
G1 X87.414 Y91.950 E0.58769 ; perimeter
G1 X87.347 Y91.729 E0.58969 ; perimeter
G1 X87.324 Y91.500 E0.59170 ; perimeter
G1 X87.347 Y91.271 E0.59370 ; perimeter
G1 X87.425 Y91.028 E0.59592 ; perimeter
G1 X87.363 Y90.856 F6000.000 ; move inwards before travel
G1 E0.09592 F420.00000 ; retract
G92 E0 ; reset extrusion distance
G1 X105.597 Y103.560 F6000.000 ; move to first perimeter point
G1 E0.50000 F420.00000 ; unretract
G1 X106.031 Y103.031 E0.50932 F1500.000 ; perimeter
G1 X106.560 Y102.597 E0.51864 ; perimeter
G1 X107.164 Y102.274 E0.52795 ; perimeter
G1 X107.819 Y102.075 E0.53727 ; perimeter
G1 X108.500 Y102.008 E0.54659 F1500.000 ; perimeter
G1 X109.181 Y102.075 E0.55590 ; perimeter
G1 X109.836 Y102.274 E0.56522 ; perimeter
G1 X110.440 Y102.597 E0.57454 ; perimeter
G1 X110.969 Y103.031 E0.58385 ; perimeter
G1 X111.403 Y103.560 E0.59317 ; perimeter
G1 X111.726 Y104.164 E0.60249 ; perimeter
G1 X111.925 Y104.819 E0.61180 ; perimeter
G1 X111.992 Y105.500 E0.62112 ; perimeter
G1 X111.925 Y106.181 E0.63044 ; perimeter
G1 X111.726 Y106.836 E0.63976 ; perimeter
G1 X111.403 Y107.440 E0.64907 ; perimeter
G1 X110.969 Y107.969 E0.65839 ; perimeter
G1 X110.440 Y108.403 E0.66771 ; perimeter
G1 X109.836 Y108.726 E0.67702 ; perimeter
G1 X109.181 Y108.925 E0.68634 ; perimeter
G1 X108.500 Y108.992 E0.69566 ; perimeter
G1 X107.819 Y108.925 E0.70498 ; perimeter
G1 X107.164 Y108.726 E0.71429 ; perimeter
G1 X106.560 Y108.403 E0.72361 ; perimeter
G1 X106.031 Y107.969 E0.73293 ; perimeter
G1 X105.597 Y107.440 E0.74224 ; perimeter
G1 X105.274 Y106.836 E0.75156 ; perimeter
G1 X105.075 Y106.181 E0.76088 ; perimeter
G1 X105.008 Y105.500 E0.77020 ; perimeter
G1 X105.075 Y104.819 E0.77951 ; perimeter
G1 X105.274 Y104.164 E0.78883 ; perimeter
G1 X105.572 Y103.606 E0.79743 ; perimeter
G1 X105.926 Y103.780 F6000.000 ; move to first perimeter point
G1 X106.311 Y103.311 E0.80270 F1500.000 ; perimeter
G1 X106.780 Y102.926 E0.80798 ; perimeter
G1 X107.315 Y102.640 E0.81325 ; perimeter
G1 X107.896 Y102.464 E0.81852 ; perimeter
G1 X108.500 Y102.404 E0.82380 F1500.000 ; perimeter
G1 X109.104 Y102.464 E0.82907 ; perimeter
G1 X109.685 Y102.640 E0.83434 ; perimeter
G1 X110.220 Y102.926 E0.83962 ; perimeter
G1 X110.689 Y103.311 E0.84489 ; perimeter
G1 X111.074 Y103.780 E0.85016 ; perimeter
G1 X111.360 Y104.315 E0.85543 ; perimeter
G1 X111.536 Y104.896 E0.86071 ; perimeter
G1 X111.596 Y105.500 E0.86598 ; perimeter
G1 X111.536 Y106.104 E0.87125 ; perimeter
G1 X111.360 Y106.685 E0.87653 ; perimeter
G1 X111.074 Y107.220 E0.88180 ; perimeter
G1 X110.689 Y107.689 E0.88707 ; perimeter
G1 X110.220 Y108.074 E0.89235 ; perimeter
G1 X109.685 Y108.360 E0.89762 ; perimeter
G1 X109.104 Y108.536 E0.90289 ; perimeter
G1 X108.500 Y108.596 E0.90817 ; perimeter
G1 X107.896 Y108.536 E0.91344 ; perimeter
G1 X107.315 Y108.360 E0.91871 ; perimeter
G1 X106.780 Y108.074 E0.92398 ; perimeter
G1 X106.311 Y107.689 E0.92926 ; perimeter
G1 X105.926 Y107.220 E0.93453 ; perimeter
G1 X105.640 Y106.685 E0.93980 ; perimeter
G1 X105.464 Y106.104 E0.94508 ; perimeter
G1 X105.404 Y105.500 E0.95035 ; perimeter
G1 X105.464 Y104.896 E0.95562 ; perimeter
G1 X105.640 Y104.315 E0.96090 ; perimeter
G1 X105.901 Y103.826 E0.96571 ; perimeter
G1 X105.781 Y103.461 F6000.000 ; move inwards before travel
G1 E0.46571 F420.00000 ; retract
G92 E0 ; reset extrusion distance
G1 X105.133 Y107.594 F6000.000 ; move to first perimeter point
G1 E0.50000 F420.00000 ; unretract
G1 X104.956 Y107.744 E0.50317 F2100.000 ; perimeter
G1 X92.857 Y98.450 E0.71083 ; perimeter
G1 X90.349 Y98.450 E0.74496 ; perimeter
G1 X90.516 Y97.901 E0.75277 ; perimeter
G1 X90.555 Y97.500 E0.75825 ; perimeter
G1 X90.516 Y97.099 E0.76374 ; perimeter
G1 X90.399 Y96.714 E0.76922 ; perimeter
G1 X90.209 Y96.358 E0.77470 ; perimeter
G1 X89.953 Y96.047 E0.78019 ; perimeter
G1 X89.642 Y95.791 E0.78567 ; perimeter
G1 X89.287 Y95.601 E0.79116 ; perimeter
G1 X88.898 Y95.483 E0.79669 ; perimeter
G1 X88.490 Y95.446 E0.80226 ; perimeter
G1 X88.099 Y95.484 E0.80761 ; perimeter
G1 X87.550 Y95.651 E0.81541 ; perimeter
G1 X87.550 Y93.349 E0.84674 ; perimeter
G1 X88.099 Y93.516 E0.85455 ; perimeter
G1 X88.500 Y93.555 E0.86003 ; perimeter
G1 X88.901 Y93.516 E0.86552 ; perimeter
G1 X89.286 Y93.399 E0.87100 ; perimeter
G1 X89.642 Y93.209 E0.87648 ; perimeter
G1 X89.953 Y92.953 E0.88197 ; perimeter
G1 X90.209 Y92.642 E0.88745 ; perimeter
G1 X90.399 Y92.286 E0.89294 ; perimeter
G1 X90.516 Y91.901 E0.89842 ; perimeter
G1 X90.555 Y91.500 E0.90390 ; perimeter
G1 X90.516 Y91.099 E0.90939 ; perimeter
G1 X90.349 Y90.550 E0.91719 ; perimeter
G1 X93.675 Y90.550 E0.96246 ; perimeter
G1 X109.543 Y101.427 E1.22431 ; perimeter
G1 X109.436 Y101.650 E1.22768 ; perimeter
G1 X109.276 Y101.601 E1.22996 ; perimeter
G1 X108.500 Y101.525 E1.24057 ; perimeter
G1 X107.724 Y101.601 E1.25117 ; perimeter
G1 X106.979 Y101.827 E1.26178 ; perimeter
G1 X106.292 Y102.195 E1.27239 ; perimeter
G1 X105.689 Y102.689 E1.28299 ; perimeter
G1 X105.195 Y103.292 E1.29360 ; perimeter
G1 X104.827 Y103.979 E1.30421 ; perimeter
G1 X104.601 Y104.724 E1.31481 ; perimeter
G1 X104.525 Y105.500 E1.32542 ; perimeter
G1 X104.601 Y106.276 E1.33603 ; perimeter
G1 X104.827 Y107.021 E1.34663 ; perimeter
G1 X105.109 Y107.547 E1.35475 ; perimeter
G1 E0.85475 F420.00000 ; retract
G92 E0 ; reset extrusion distance
G1 X89.222 Y98.931 F6000.000 ; move to first perimeter point
G1 E0.50000 F420.00000 ; unretract
G1 X89.611 Y98.611 E0.50685 F2100.000 ; perimeter
G1 X89.807 Y98.373 E0.51105 ; perimeter
G1 X89.952 Y98.101 E0.51524 ; perimeter
G1 X90.042 Y97.807 E0.51944 ; perimeter
G1 X90.072 Y97.500 E0.52363 ; perimeter
G1 X90.042 Y97.193 E0.52782 ; perimeter
G1 X89.952 Y96.898 E0.53202 ; perimeter
G1 X89.807 Y96.627 E0.53621 ; perimeter
G1 X89.611 Y96.389 E0.54041 ; perimeter
G1 X89.373 Y96.193 E0.54460 ; perimeter
G1 X89.102 Y96.048 E0.54879 ; perimeter
G1 X88.805 Y95.958 E0.55301 ; perimeter
G1 X88.492 Y95.929 E0.55729 ; perimeter
G1 X88.193 Y95.958 E0.56138 ; perimeter
G1 X87.898 Y96.048 E0.56557 ; perimeter
G1 X87.627 Y96.193 E0.56976 ; perimeter
G1 X87.389 Y96.389 E0.57396 ; perimeter
G1 X87.069 Y96.778 E0.58081 ; perimeter
G1 X87.069 Y92.222 E0.64282 ; perimeter
G1 X87.389 Y92.611 E0.64967 ; perimeter
G1 X87.627 Y92.807 E0.65387 ; perimeter
G1 X87.898 Y92.952 E0.65806 ; perimeter
G1 X88.193 Y93.042 E0.66226 ; perimeter
G1 X88.500 Y93.072 E0.66645 ; perimeter
G1 X88.807 Y93.042 E0.67064 ; perimeter
G1 X89.102 Y92.952 E0.67484 ; perimeter
G1 X89.373 Y92.807 E0.67903 ; perimeter
G1 X89.611 Y92.611 E0.68323 ; perimeter
G1 X89.807 Y92.373 E0.68742 ; perimeter
G1 X89.952 Y92.101 E0.69161 ; perimeter
G1 X90.042 Y91.807 E0.69581 ; perimeter
G1 X90.072 Y91.500 E0.70000 ; perimeter
G1 X90.042 Y91.193 E0.70420 ; perimeter
G1 X89.952 Y90.898 E0.70839 ; perimeter
G1 X89.807 Y90.627 E0.71258 ; perimeter
G1 X89.611 Y90.389 E0.71678 ; perimeter
G1 X89.222 Y90.069 E0.72363 ; perimeter
G1 X93.824 Y90.069 E0.78627 ; perimeter
G1 X110.936 Y101.798 E1.06864 ; perimeter
G1 X111.631 Y102.369 E1.08089 ; perimeter
G1 X112.182 Y103.040 E1.09270 ; perimeter
G1 X112.591 Y103.805 E1.10452 ; perimeter
G1 X112.843 Y104.636 E1.11633 ; perimeter
G1 X112.928 Y105.500 E1.12815 ; perimeter
G1 X112.843 Y106.364 E1.13996 ; perimeter
G1 X112.591 Y107.195 E1.15178 ; perimeter
G1 X112.182 Y107.960 E1.16359 ; perimeter
G1 X111.632 Y108.630 E1.17538 ; perimeter
G1 X110.933 Y109.196 E1.18764 ; perimeter
G1 X110.195 Y109.591 E1.19903 ; perimeter
G1 X109.364 Y109.843 E1.21085 ; perimeter
G1 X108.500 Y109.928 E1.22266 ; perimeter
G1 X107.636 Y109.843 E1.23448 ; perimeter
G1 X106.805 Y109.591 E1.24629 ; perimeter
G1 X106.032 Y109.177 E1.25824 ; perimeter
G1 X92.693 Y98.931 E1.48717 ; perimeter
G1 X89.275 Y98.931 E1.53370 ; perimeter
G1 E1.03370 F420.00000 ; retract
G92 E0 ; reset extrusion distance
G1 X86.675 Y99.325 F6000.000 ; move to first perimeter point
G1 E0.50000 F420.00000 ; unretract
G1 X86.675 Y89.675 E0.58384 F1050.000 ; perimeter
G1 X93.946 Y89.675 E0.64702 ; perimeter
G1 X111.173 Y101.483 E0.82848 ; perimeter
G1 X111.911 Y102.089 E0.83678 ; perimeter
G1 X112.511 Y102.820 E0.84500 ; perimeter
G1 X112.957 Y103.654 E0.85321 ; perimeter
G1 X113.231 Y104.559 E0.86143 ; perimeter
G1 X113.324 Y105.500 E0.86965 ; perimeter
G1 X113.231 Y106.441 E0.87786 ; perimeter
G1 X112.957 Y107.346 E0.88608 ; perimeter
G1 X112.511 Y108.180 E0.89430 ; perimeter
G1 X111.912 Y108.911 E0.90251 ; perimeter
G1 X111.152 Y109.526 E0.91100 ; perimeter
G1 X110.346 Y109.957 E0.91894 ; perimeter
G1 X109.441 Y110.231 E0.92716 ; perimeter
G1 X108.500 Y110.324 E0.93538 ; perimeter
G1 X107.559 Y110.231 E0.94359 ; perimeter
G1 X106.654 Y109.957 E0.95181 ; perimeter
G1 X105.817 Y109.510 E0.96005 ; perimeter
G1 X92.559 Y99.325 E1.10531 ; perimeter
G1 X86.727 Y99.325 E1.15598 ; perimeter
G1 X86.850 Y99.022 F6000.000 ; move inwards before travel
G1 E0.65598 F420.00000 ; retract
G92 E0 ; reset extrusion distance
G1 X88.077 Y95.218 F6000.000 ; move to first infill point
G1 E0.50000 F420.00000 ; unretract
G1 X87.837 Y94.977 E0.50466 F2700.000 ; infill
G1 X87.837 Y94.292 E0.51406 ; infill
G1 X88.713 Y95.168 E0.53106 ; infill
G1 X89.613 Y95.382 E0.54373 ; infill
G1 X88.039 Y93.809 E0.57425 ; infill
G1 X88.727 Y93.811 E0.58369 ; infill
G1 X93.079 Y98.163 E0.66810 ; infill
G1 E0.16810 F420.00000 ; retract
G92 E0 ; reset extrusion distance
G1 X91.023 Y98.163 F6000.000 ; move to first infill point
G1 E0.50000 F420.00000 ; unretract
G1 X90.782 Y97.923 E0.50466 F2700.000 ; infill
G1 X90.833 Y97.288 E0.51339 ; infill
G1 X91.708 Y98.163 E0.53036 ; infill
G1 X92.394 Y98.163 E0.53976 ; infill
G1 X90.618 Y96.387 E0.57420 ; infill
G1 E0.07420 F420.00000 ; retract
G92 E0 ; reset extrusion distance
G1 X93.293 Y90.837 F6000.000 ; move to first infill point
G1 E0.50000 F420.00000 ; unretract
G1 X105.270 Y102.813 E0.73229 F2700.000 ; infill
G1 X104.963 Y103.192 E0.73897 ; infill
G1 X92.608 Y90.837 E0.97862 ; infill
G1 X91.922 Y90.837 E0.98802 ; infill
G1 X104.725 Y103.639 E1.23632 ; infill
G1 X104.513 Y104.113 E1.24344 ; infill
G1 X91.237 Y90.837 E1.50095 ; infill
G1 X90.815 Y91.100 E1.50777 ; infill
G1 X104.354 Y104.639 E1.77037 ; infill
G1 X104.271 Y105.242 E1.77872 ; infill
G1 X90.807 Y91.778 E2.03988 ; infill
G1 X90.662 Y92.319 E2.04756 ; infill
G1 X104.268 Y105.924 E2.31145 ; infill
G1 X104.411 Y106.753 E2.32298 ; infill
G1 X90.424 Y92.766 E2.59426 ; infill
G1 X90.112 Y93.140 E2.60093 ; infill
G1 X101.912 Y104.939 E2.82979 ; infill
