; generated by Slic3r 1.2.9 on 2017-06-04 at 21:31:47

; external perimeters extrusion width = 0.35mm
; perimeters extrusion width = 0.52mm
; infill extrusion width = 0.52mm
; solid infill extrusion width = 0.52mm
; top infill extrusion width = 0.52mm

M107 ; disable fan
G28 ; home all axes
G21 ; set units to millimeters
G90 ; use absolute coordinates
M82 ; use absolute distances for extrusion
G92 E0 ; reset extrusion distance
G1 E-0.30000 F420.00000 ; retract
G92 E0 ; reset extrusion distance
G1 Z0.200 F6000.000 ; move to next layer (0)
G1 X65.477 Y73.337 F6000.000 ; move to first skirt point
G1 E0.30000 F420.00000 ; unretract
G1 X65.640 Y73.205 E0.30286 F1800.000 ; skirt
G1 X66.745 Y72.481 E0.32084 ; skirt
G1 X66.929 Y72.385 E0.32366 ; skirt
G1 X68.119 Y71.912 E0.34109 ; skirt
G1 X68.309 Y71.857 E0.34378 ; skirt
G1 X69.507 Y71.632 E0.36038 ; skirt
G1 X70.285 Y71.588 E0.37098 ; skirt
G1 X129.715 Y71.588 E1.17989 ; skirt
G1 X130.307 Y71.615 E1.18796 ; skirt
G1 X130.493 Y71.632 E1.19049 F1800.000 ; skirt
G1 X131.690 Y71.857 E1.20707 ; skirt
G1 X131.881 Y71.912 E1.20978 ; skirt
G1 X133.069 Y72.384 E1.22718 ; skirt
G1 X133.255 Y72.480 E1.23003 ; skirt
G1 X134.358 Y73.203 E1.24798 ; skirt
G1 X134.522 Y73.337 E1.25087 ; skirt
G1 X135.467 Y74.281 E1.26904 ; skirt
G1 X135.599 Y74.444 E1.27190 ; skirt
G1 X136.323 Y75.549 E1.28988 ; skirt
G1 X136.418 Y75.732 E1.29268 ; skirt
G1 X136.892 Y76.923 E1.31013 ; skirt
G1 X137.068 Y77.607 E1.31975 ; skirt
G1 X140.585 Y94.843 E1.55918 ; skirt
G1 X140.716 Y96.142 E1.57695 ; skirt
G1 X140.706 Y114.792 E1.83080 ; skirt
G1 X140.680 Y115.375 E1.83874 ; skirt
G1 X140.552 Y116.528 E1.85453 ; skirt
G1 X139.916 Y118.452 E1.88212 ; skirt
G1 X139.741 Y118.792 E1.88732 ; skirt
G1 X138.143 Y120.789 E1.92213 ; skirt
G1 X137.060 Y121.559 E1.94022 ; skirt
G1 X133.810 Y122.432 E1.98602 ; skirt
G1 X66.190 Y122.432 E2.90640 ; skirt
G1 X62.941 Y121.559 E2.95219 ; skirt
G1 X61.978 Y120.890 E2.96816 ; skirt
G1 X61.857 Y120.789 E2.97030 ; skirt
G1 X60.259 Y118.792 E3.00511 ; skirt
G1 X60.084 Y118.452 E3.01031 ; skirt
G1 X59.448 Y116.528 E3.03789 ; skirt
G1 X59.375 Y115.978 E3.04545 ; skirt
G1 X59.320 Y115.375 E3.05369 ; skirt
G1 X59.294 Y114.792 E3.06163 ; skirt
G1 X59.284 Y96.142 E3.31548 ; skirt
G1 X59.415 Y94.843 E3.33325 ; skirt
G1 X62.932 Y77.607 E3.57268 ; skirt
G1 X63.053 Y77.112 E3.57963 ; skirt
G1 X63.108 Y76.922 E3.58231 ; skirt
G1 X63.582 Y75.733 E3.59974 ; skirt
G1 X63.676 Y75.550 E3.60254 ; skirt
G1 X64.401 Y74.444 E3.62054 ; skirt
G1 X64.534 Y74.281 E3.62340 ; skirt
G1 X65.440 Y73.374 E3.64085 ; skirt
G1 E3.34085 F420.00000 ; retract
G92 E0 ; reset extrusion distance
G1 X81.652 Y100.921 F6000.000 ; move to first perimeter point
G1 E0.30000 F420.00000 ; unretract
G1 X79.502 Y100.921 E0.32926 F1500.000 ; perimeter
G1 X79.502 Y95.812 E0.39879 ; perimeter
G1 X77.704 Y95.812 E0.42326 ; perimeter
G1 X77.704 Y93.820 E0.45038 ; perimeter
G1 X81.652 Y93.820 E0.50412 ; perimeter
G1 X81.652 Y100.868 E0.60005 ; perimeter
G1 X81.258 Y100.527 F6000.000 ; move to first perimeter point
G1 X79.896 Y100.527 E0.61189 F1500.000 ; perimeter
G1 X79.896 Y95.418 E0.65627 ; perimeter
G1 X78.098 Y95.418 E0.67189 ; perimeter
G1 X78.098 Y94.214 E0.68235 ; perimeter
G1 X81.258 Y94.214 E0.70981 ; perimeter
G1 X81.258 Y100.474 E0.76420 ; perimeter
G1 X81.258 Y100.877 F6000.000 ; move inwards before travel
G1 E0.46420 F420.00000 ; retract
G92 E0 ; reset extrusion distance
G1 X77.223 Y96.294 F6000.000 ; move to first perimeter point
G1 E0.30000 F420.00000 ; unretract
G1 X79.021 Y96.294 E0.32447 F2100.000 ; perimeter
G1 X79.021 Y101.499 E0.39532 ; perimeter
G1 X70.237 Y101.499 E0.51487 ; perimeter
G1 X69.719 Y101.546 E0.52195 ; perimeter
G1 X69.144 Y101.712 E0.53010 ; perimeter
G1 X68.614 Y101.986 E0.53821 ; perimeter
G1 X68.314 Y102.205 E0.54327 ; perimeter
G1 X67.882 Y102.637 E0.55159 ; perimeter
G1 X67.550 Y103.144 E0.55983 ; perimeter
G1 X67.400 Y103.473 E0.56476 ; perimeter
G1 X67.242 Y104.023 E0.57254 ; perimeter
G1 X67.195 Y104.541 E0.57962 ; perimeter
G1 X67.195 Y114.900 E0.72062 ; perimeter
G1 X66.841 Y114.900 E0.72543 ; perimeter
G1 X66.825 Y114.736 E0.72768 ; perimeter
G1 X66.816 Y96.787 E0.97198 ; perimeter
G1 X70.315 Y95.038 E1.02523 ; perimeter
G1 X70.315 Y93.399 E1.04753 ; perimeter
G1 X77.223 Y93.399 E1.14156 ; perimeter
G1 X77.223 Y96.241 E1.18024 ; perimeter
G1 E0.88024 F420.00000 ; retract
G92 E0 ; reset extrusion distance
G1 X82.133 Y93.399 F6000.000 ; move to first perimeter point
G1 E0.30000 F420.00000 ; unretract
G1 X94.735 Y93.399 E0.47153 F2100.000 ; perimeter
G1 X94.735 Y94.738 E0.48976 ; perimeter
G1 X96.261 Y96.778 E0.52443 ; perimeter
G1 X96.261 Y101.499 E0.58868 ; perimeter
G1 X82.133 Y101.499 E0.78099 ; perimeter
G1 X82.133 Y93.451 E0.89052 ; perimeter
G1 E0.59052 F420.00000 ; retract
G92 E0 ; reset extrusion distance
G1 X88.615 Y79.589 F6000.000 ; move to first perimeter point
G1 E0.30000 F420.00000 ; unretract
G1 X75.415 Y79.589 E0.47966 F1500.000 ; perimeter
G1 X75.415 Y79.119 E0.48606 ; perimeter
G1 X88.615 Y79.119 E0.66572 ; perimeter
G1 X88.615 Y79.536 E0.67140 ; perimeter
G1 X89.096 Y79.540 F6000.000 ; move to first perimeter point
G1 X89.096 Y80.070 E0.67862 F2100.000 ; perimeter
G1 X74.934 Y80.070 E0.87138 ; perimeter
G1 X74.934 Y79.540 E0.87859 ; perimeter
G1 X70.736 Y79.540 E0.93574 ; perimeter
G1 X70.736 Y92.918 E1.11783 ; perimeter
G1 X95.216 Y92.918 E1.45103 ; perimeter
G1 X95.216 Y94.578 E1.47363 ; perimeter
G1 X96.742 Y96.618 E1.50830 ; perimeter
G1 X96.742 Y101.980 E1.58128 ; perimeter
G1 X70.259 Y101.980 E1.94175 ; perimeter
G1 X69.808 Y102.021 E1.94791 ; perimeter
G1 X69.323 Y102.161 E1.95479 ; perimeter
G1 X68.868 Y102.396 E1.96175 ; perimeter
G1 X68.628 Y102.571 E1.96580 ; perimeter
G1 X68.257 Y102.942 E1.97293 ; perimeter
G1 X67.973 Y103.376 E1.98000 ; perimeter
G1 X67.853 Y103.640 E1.98395 ; perimeter
G1 X67.717 Y104.112 E1.99063 ; perimeter
G1 X67.676 Y104.563 E1.99679 ; perimeter
G1 X67.676 Y115.380 E2.14402 ; perimeter
G1 X66.406 Y115.382 E2.16131 ; perimeter
G1 X66.344 Y114.760 E2.16981 ; perimeter
G1 X66.335 Y96.490 E2.41848 ; perimeter
G1 X69.834 Y94.740 E2.47174 ; perimeter
G1 X69.834 Y79.115 E2.68442 ; perimeter
G1 X69.844 Y79.009 E2.68587 ; perimeter
G1 X69.910 Y78.844 E2.68828 ; perimeter
G1 X69.968 Y78.772 E2.68955 ; perimeter
G1 X70.121 Y78.672 E2.69204 ; perimeter
G1 X70.311 Y78.638 E2.69466 ; perimeter
G1 X94.739 Y78.638 E3.02716 ; perimeter
G1 X94.930 Y78.672 E3.02979 ; perimeter
G1 X95.082 Y78.772 E3.03227 ; perimeter
G1 X95.182 Y78.925 E3.03476 ; perimeter
G1 X95.216 Y79.115 E3.03739 ; perimeter
G1 X95.216 Y79.540 E3.04317 ; perimeter
G1 X89.148 Y79.540 E3.12576 ; perimeter
G1 X89.490 Y79.934 F6000.000 ; move to first perimeter point
G1 X89.490 Y80.464 E3.13037 F1050.000 ; perimeter
G1 X74.540 Y80.464 E3.26026 ; perimeter
G1 X74.540 Y79.934 E3.26487 ; perimeter
G1 X71.130 Y79.934 E3.29449 ; perimeter
G1 X71.130 Y92.524 E3.40388 ; perimeter
G1 X95.610 Y92.524 E3.61658 ; perimeter
G1 X95.610 Y94.447 E3.63329 ; perimeter
G1 X97.136 Y96.487 E3.65542 ; perimeter
G1 X97.137 Y102.374 E3.70657 ; perimeter
G1 X70.277 Y102.374 E3.93994 ; perimeter
G1 X69.881 Y102.410 E3.94340 ; perimeter
G1 X69.469 Y102.529 E3.94712 ; perimeter
G1 X69.076 Y102.732 E3.95097 ; perimeter
G1 X68.885 Y102.872 E3.95302 ; perimeter
G1 X68.565 Y103.192 E3.95696 ; perimeter
G1 X68.319 Y103.567 E3.96085 ; perimeter
G1 X68.224 Y103.777 E3.96286 ; perimeter
G1 X68.106 Y104.185 E3.96655 ; perimeter
G1 X68.070 Y104.581 E3.97000 ; perimeter
G1 X68.070 Y115.773 E4.06725 ; perimeter
G1 X66.238 Y115.776 E4.08317 ; perimeter
G1 X66.159 Y115.710 E4.08406 ; perimeter
G1 X66.015 Y115.431 E4.08679 ; perimeter
G1 X65.950 Y114.780 E4.09247 ; perimeter
G1 X65.940 Y96.247 E4.25350 ; perimeter
G1 X69.440 Y94.497 E4.28750 ; perimeter
G1 X69.440 Y79.097 E4.42130 ; perimeter
G1 X69.455 Y78.936 E4.42271 ; perimeter
G1 X69.500 Y78.778 E4.42413 ; perimeter
G1 X69.578 Y78.627 E4.42561 ; perimeter
G1 X69.688 Y78.492 E4.42712 ; perimeter
G1 X69.823 Y78.382 E4.42864 ; perimeter
G1 X69.975 Y78.304 E4.43012 ; perimeter
G1 X70.132 Y78.259 E4.43154 ; perimeter
G1 X70.293 Y78.244 E4.43294 ; perimeter
G1 X94.757 Y78.244 E4.64550 ; perimeter
G1 X94.917 Y78.258 E4.64689 ; perimeter
G1 X95.076 Y78.304 E4.64833 ; perimeter
G1 X95.227 Y78.382 E4.64981 ; perimeter
G1 X95.362 Y78.492 E4.65132 ; perimeter
G1 X95.472 Y78.627 E4.65284 ; perimeter
G1 X95.550 Y78.778 E4.65432 ; perimeter
G1 X95.596 Y78.936 E4.65574 ; perimeter
G1 X95.610 Y79.934 E4.66441 ; perimeter
G1 X89.542 Y79.934 E4.71713 ; perimeter
G1 X89.140 Y79.934 F6000.000 ; move inwards before travel
G1 X88.855 Y79.089 F6000.000 ; move to first infill point
G1 X94.719 Y79.089 E4.88386 F600.000 ; infill
G1 X94.975 Y79.121 E4.89122 ; infill
G1 E4.59122 F420.00000 ; retract
G92 E0 ; reset extrusion distance
G1 X92.842 Y93.686 F6000.000 ; move to first infill point
G1 E0.30000 F420.00000 ; unretract
G1 X95.404 Y96.248 E0.34936 F2700.000 ; infill
G1 X95.974 Y97.498 F6000.000 ; move to first infill point
G1 X92.161 Y93.686 E0.42282 F2700.000 ; infill
G1 X91.480 Y93.686 E0.43209 ; infill
G1 X95.974 Y98.179 E0.51867 ; infill
G1 X95.974 Y98.860 E0.52795 ; infill
G1 X90.799 Y93.686 E0.62765 ; infill
G1 X90.119 Y93.686 E0.63692 ; infill
G1 X95.974 Y99.541 E0.74974 ; infill
G1 X95.974 Y100.222 E0.75902 ; infill
G1 X89.438 Y93.686 E0.88497 ; infill
G1 X88.757 Y93.686 E0.89424 ; infill
G1 X95.974 Y100.903 E1.03331 ; infill
G1 X95.602 Y101.212 E1.03990 ; infill
G1 X88.076 Y93.686 E1.18490 ; infill
G1 X87.395 Y93.686 E1.19418 ; infill
G1 X94.921 Y101.212 E1.33919 ; infill
G1 X94.240 Y101.212 E1.34846 ; infill
G1 X86.714 Y93.686 E1.49347 ; infill
G1 X86.033 Y93.686 E1.50275 ; infill
G1 X93.559 Y101.212 E1.64775 ; infill
G1 X92.878 Y101.212 E1.65703 ; infill
G1 X85.352 Y93.686 E1.80203 ; infill
G1 X84.671 Y93.686 E1.81131 ; infill
G1 X92.197 Y101.212 E1.95632 ; infill
G1 X91.516 Y101.212 E1.96559 ; infill
G1 X83.990 Y93.686 E2.11060 ; infill
G1 X83.309 Y93.686 E2.11988 ; infill
G1 X90.835 Y101.212 E2.26488 ; infill
G1 X90.154 Y101.212 E2.27416 ; infill
G1 X82.628 Y93.686 E2.41917 ; infill
G1 X82.420 Y94.158 E2.42620 ; infill
G1 X89.473 Y101.212 E2.56210 ; infill
G1 X88.792 Y101.212 E2.57138 ; infill
G1 X82.420 Y94.839 E2.69416 ; infill
G1 X82.420 Y95.520 E2.70344 ; infill
G1 X88.111 Y101.212 E2.81310 ; infill
G1 X87.430 Y101.212 E2.82238 ; infill
G1 X82.420 Y96.201 E2.91892 ; infill
G1 X82.420 Y96.882 E2.92820 ; infill
G1 X86.749 Y101.212 E3.01162 ; infill
G1 X86.068 Y101.212 E3.02090 ; infill
G1 X82.420 Y97.563 E3.09120 ; infill
G1 X82.420 Y98.244 E3.10048 ; infill
G1 X85.387 Y101.212 E3.15766 ; infill
G1 X84.706 Y101.212 E3.16694 ; infill
G1 X82.420 Y98.925 E3.21100 ; infill
G1 X82.420 Y99.606 E3.22028 ; infill
G1 X84.026 Y101.212 E3.25122 ; infill
G1 X83.345 Y101.212 E3.26050 ; infill
G1 X82.420 Y100.287 E3.27832 ; infill
G1 X82.420 Y100.968 E3.28760 ; infill
G1 X82.664 Y101.212 E3.29230 ; infill
G1 E2.99230 F420.00000 ; retract
G92 E0 ; reset extrusion distance
G1 X94.448 Y94.611 F6000.000 ; move to first infill point
G1 E0.30000 F420.00000 ; unretract
G1 X93.523 Y93.686 E0.31782 F2700.000 ; infill
G1 X94.204 Y93.686 E0.32710 ; infill
G1 X94.448 Y93.930 E0.33180 ; infill
G1 E0.03180 F420.00000 ; retract
G92 E0 ; reset extrusion distance
G1 X81.892 Y101.450 F6000.000 ; move to first infill point
G1 E0.30000 F420.00000 ; unretract
G1 X79.261 Y101.450 E0.37482 F600.000 ; infill
G1 E0.07482 F420.00000 ; retract
G92 E0 ; reset extrusion distance
G1 X78.734 Y97.110 F6000.000 ; move to first infill point
G1 E0.30000 F420.00000 ; unretract
G1 X78.204 Y96.580 E0.31037 F2700.000 ; infill
G1 E0.01037 F420.00000 ; retract
G92 E0 ; reset extrusion distance
G1 X76.936 Y93.930 F6000.000 ; move to first infill point
G1 E0.30000 F420.00000 ; unretract
G1 X76.692 Y93.686 E0.30478 F2700.000 ; infill
G1 X76.001 Y93.686 E0.31434 ; infill
G1 X76.936 Y94.621 E0.33264 ; infill
G1 X76.936 Y95.313 E0.34221 ; infill
G1 X75.309 Y93.686 E0.37404 ; infill
G1 X74.618 Y93.686 E0.38360 ; infill
G1 X76.936 Y96.004 E0.42896 ; infill
G1 X76.821 Y96.580 E0.43709 ; infill
G1 X78.734 Y98.493 E0.47451 ; infill
G1 X78.734 Y97.802 E0.48407 ; infill
G1 X77.512 Y96.580 E0.50797 ; infill
G1 X76.936 Y96.696 E0.51610 ; infill
G1 X73.926 Y93.686 E0.57498 ; infill
G1 X73.235 Y93.686 E0.58455 ; infill
G1 X78.734 Y99.185 E0.69212 ; infill
G1 X78.734 Y99.876 E0.70169 ; infill
G1 X72.543 Y93.686 E0.82279 ; infill
G1 X71.852 Y93.686 E0.83236 ; infill
G1 X78.734 Y100.568 E0.96699 ; infill
G1 X78.687 Y101.212 E0.97593 ; infill
G1 X71.161 Y93.686 E1.12316 ; infill
G1 X70.602 Y93.819 E1.13111 ; infill
G1 X77.995 Y101.212 E1.27575 ; infill
G1 X77.304 Y101.212 E1.28531 ; infill
G1 X70.602 Y94.510 E1.41642 ; infill
G1 X70.585 Y95.184 E1.42576 ; infill
G1 X76.612 Y101.212 E1.54367 ; infill
G1 X75.921 Y101.212 E1.55324 ; infill
G1 X70.124 Y95.415 E1.66664 ; infill
G1 X69.663 Y95.645 E1.67377 ; infill
G1 X75.230 Y101.212 E1.78267 ; infill
G1 X74.538 Y101.212 E1.79223 ; infill
G1 X69.202 Y95.876 E1.89662 ; infill
G1 X68.741 Y96.106 E1.90375 ; infill
G1 X73.847 Y101.212 E2.00363 ; infill
G1 X73.155 Y101.212 E2.01320 ; infill
G1 X68.280 Y96.337 E2.10857 ; infill
G1 X67.819 Y96.567 E2.11570 ; infill
G1 X72.464 Y101.212 E2.20656 ; infill
G1 X71.772 Y101.212 E2.21612 ; infill
G1 X67.358 Y96.798 E2.30248 ; infill
G1 X67.103 Y97.234 E2.30947 ; infill
G1 X71.081 Y101.212 E2.38729 ; infill
G1 X70.390 Y101.212 E2.39685 ; infill
G1 X67.103 Y97.926 E2.46115 ; infill
G1 X67.104 Y98.617 E2.47072 ; infill
G1 X69.750 Y101.264 E2.52250 ; infill
G1 X69.213 Y101.418 E2.53023 ; infill
G1 X67.104 Y99.309 E2.57149 ; infill
G1 X67.104 Y100.001 E2.58106 ; infill
G1 X68.741 Y101.637 E2.61308 ; infill
G1 X68.313 Y101.901 E2.62003 ; infill
G1 X67.105 Y100.693 E2.64367 ; infill
G1 X67.105 Y101.384 E2.65324 ; infill
G1 X67.947 Y102.226 E2.66971 ; infill
G1 X67.618 Y102.589 E2.67648 ; infill
G1 X67.105 Y102.076 E2.68650 ; infill
G1 X67.106 Y102.768 E2.69607 ; infill
G1 X67.344 Y103.007 E2.70074 ; infill
G1 E2.40074 F420.00000 ; retract
G92 E0 ; reset extrusion distance
G1 X77.463 Y93.369 F6000.000 ; move to first infill point
G1 E0.30000 F420.00000 ; unretract
G1 X81.892 Y93.369 E0.42594 F600.000 ; infill
G1 E0.12594 F420.00000 ; retract
G92 E0 ; reset extrusion distance
G1 X70.285 Y93.158 F6000.000 ; move to first infill point
G1 E0.30000 F420.00000 ; unretract
G1 X70.285 Y79.299 E0.69411 F600.000 ; infill
G1 X70.316 Y79.137 E0.69881 ; infill
G1 X70.495 Y79.089 E0.70408 ; infill
G1 X75.175 Y79.089 E0.83714 ; infill
G1 E0.53714 F420.00000 ; retract
G92 E0 ; reset extrusion distance
G1 Z0.200 F6000.000 ; move to next layer (1)
G1 X116.109 Y93.820 F6000.000 ; move to first perimeter point
G1 E0.30000 F420.00000 ; unretract
G1 X118.734 Y93.820 E0.33572 F1500.000 ; perimeter
G1 X119.343 Y94.776 E0.35116 ; perimeter
G1 X119.550 Y94.716 E0.35410 ; perimeter
G1 X119.554 Y93.820 E0.36630 ; perimeter
G1 X121.702 Y93.820 E0.39554 ; perimeter
G1 X121.702 Y100.921 E0.49219 ; perimeter
G1 X119.534 Y100.921 E0.52169 ; perimeter
G1 X119.008 Y100.889 E0.52886 ; perimeter
G1 X118.511 Y100.786 E0.53577 ; perimeter
G1 X118.077 Y100.608 E0.54216 ; perimeter
G1 X117.860 Y100.474 E0.54563 ; perimeter
G1 X117.659 Y100.314 E0.54912 ; perimeter
G1 X117.361 Y99.968 E0.55534 ; perimeter
G1 X117.146 Y99.541 E0.56185 ; perimeter
G1 X117.024 Y99.067 E0.56850 ; perimeter
G1 X116.986 Y98.556 E0.57549 ; perimeter
G1 X117.014 Y98.148 E0.58105 ; perimeter
G1 X117.099 Y97.763 E0.58642 ; perimeter
G1 X117.245 Y97.402 E0.59171 ; perimeter
G1 X117.454 Y97.073 E0.59702 ; perimeter
G1 X117.722 Y96.789 E0.60233 ; perimeter
G1 X117.975 Y96.613 E0.60653 ; perimeter
G1 X116.138 Y93.863 E0.65154 ; perimeter
G1 X116.846 Y94.214 F6000.000 ; move to first perimeter point
G1 X118.517 Y94.214 E0.66605 F1500.000 ; perimeter
G1 X119.769 Y96.179 E0.68630 ; perimeter
G1 X119.939 Y96.130 E0.68784 ; perimeter
G1 X119.946 Y94.214 E0.70449 ; perimeter
G1 X121.308 Y94.214 E0.71631 ; perimeter
