; generated by Slic3r 1.2.9 on 2017-08-04 at 22:55:10

; external perimeters extrusion width = 0.35mm
; perimeters extrusion width = 0.52mm
; infill extrusion width = 0.52mm
; solid infill extrusion width = 0.52mm
; top infill extrusion width = 0.52mm

M107 ; disable fan
G28 ; home all axes
G21 ; set units to millimeters
G90 ; use absolute coordinates
M82 ; use absolute distances for extrusion
G92 E0 ; reset extrusion distance
G1 E-0.50000 F420.00000 ; retract
G92 E0 ; reset extrusion distance
G1 Z0.200 F6000.000 ; move to next layer (0)
G1 X80.132 Y80.421 F6000.000 ; move to first skirt point
G1 E0.50000 F420.00000 ; unretract
G1 X80.665 Y79.901 E0.51014 F1800.000 ; skirt
G1 X81.175 Y79.453 E0.51937 ; skirt
G1 X81.760 Y78.992 E0.52951 ; skirt
G1 X82.313 Y78.600 E0.53874 ; skirt
G1 X82.943 Y78.202 E0.54888 ; skirt
G1 X83.534 Y77.870 E0.55811 ; skirt
G1 X84.202 Y77.540 E0.56824 ; skirt
G1 X84.825 Y77.272 E0.57748 ; skirt
G1 X85.524 Y77.014 E0.58762 ; skirt
G1 X86.172 Y76.812 E0.59685 ; skirt
G1 X86.893 Y76.628 E0.60699 ; skirt
G1 X87.559 Y76.496 E0.61622 ; skirt
G1 X88.296 Y76.388 E0.62636 ; skirt
G1 X88.971 Y76.326 E0.63559 ; skirt
G1 X89.974 Y76.291 E0.64925 ; skirt
G1 X110.202 Y76.291 E0.92458 ; skirt
G1 X110.622 Y76.304 E0.93029 ; skirt
G1 X111.365 Y76.353 E0.94043 F1800.000 ; skirt
G1 X112.038 Y76.432 E0.94966 ; skirt
G1 X112.772 Y76.557 E0.95979 ; skirt
G1 X113.434 Y76.707 E0.96903 ; skirt
G1 X114.151 Y76.908 E0.97917 ; skirt
G1 X114.794 Y77.126 E0.98840 ; skirt
G1 X115.485 Y77.401 E0.99853 ; skirt
G1 X116.102 Y77.685 E1.00777 ; skirt
G1 X116.761 Y78.031 E1.01791 ; skirt
G1 X117.344 Y78.378 E1.02714 ; skirt
G1 X117.964 Y78.791 E1.03727 ; skirt
G1 X118.508 Y79.197 E1.04651 ; skirt
G1 X119.081 Y79.672 E1.05665 ; skirt
G1 X119.579 Y80.132 E1.06588 ; skirt
G1 X120.099 Y80.666 E1.07602 ; skirt
G1 X120.547 Y81.175 E1.08525 ; skirt
G1 X121.008 Y81.760 E1.09538 ; skirt
G1 X121.400 Y82.313 E1.10462 ; skirt
G1 X121.798 Y82.943 E1.11475 ; skirt
G1 X122.130 Y83.535 E1.12399 ; skirt
G1 X122.460 Y84.202 E1.13412 ; skirt
G1 X122.728 Y84.825 E1.14336 ; skirt
G1 X122.986 Y85.524 E1.15349 ; skirt
G1 X123.188 Y86.172 E1.16273 ; skirt
G1 X123.372 Y86.893 E1.17286 ; skirt
G1 X123.504 Y87.559 E1.18210 ; skirt
G1 X123.612 Y88.296 E1.19223 ; skirt
G1 X123.674 Y88.971 E1.20147 ; skirt
G1 X123.704 Y89.715 E1.21160 ; skirt
G1 X123.709 Y110.202 E1.49046 ; skirt
G1 X123.696 Y110.622 E1.49617 ; skirt
G1 X123.647 Y111.365 E1.50630 ; skirt
G1 X123.568 Y112.038 E1.51554 ; skirt
G1 X123.443 Y112.773 E1.52567 ; skirt
G1 X123.293 Y113.434 E1.53491 ; skirt
G1 X123.092 Y114.151 E1.54504 ; skirt
G1 X122.874 Y114.794 E1.55427 ; skirt
G1 X122.599 Y115.486 E1.56441 ; skirt
G1 X122.315 Y116.102 E1.57365 ; skirt
G1 X121.969 Y116.761 E1.58378 ; skirt
G1 X121.622 Y117.344 E1.59302 ; skirt
G1 X121.209 Y117.964 E1.60315 ; skirt
G1 X120.804 Y118.508 E1.61238 ; skirt
G1 X120.328 Y119.081 E1.62252 ; skirt
G1 X119.868 Y119.579 E1.63175 ; skirt
G1 X119.335 Y120.099 E1.64189 ; skirt
G1 X118.825 Y120.547 E1.65113 ; skirt
G1 X118.240 Y121.008 E1.66126 ; skirt
G1 X117.687 Y121.400 E1.67049 ; skirt
G1 X117.057 Y121.798 E1.68063 ; skirt
G1 X116.466 Y122.130 E1.68986 ; skirt
G1 X115.798 Y122.460 E1.70000 ; skirt
G1 X115.175 Y122.728 E1.70923 ; skirt
G1 X114.476 Y122.986 E1.71937 ; skirt
G1 X113.828 Y123.188 E1.72861 ; skirt
G1 X113.107 Y123.372 E1.73874 ; skirt
G1 X112.441 Y123.504 E1.74798 ; skirt
G1 X111.704 Y123.612 E1.75811 ; skirt
G1 X111.029 Y123.674 E1.76734 ; skirt
G1 X110.026 Y123.709 E1.78100 ; skirt
G1 X89.798 Y123.709 E2.05633 ; skirt
G1 X88.635 Y123.647 E2.07218 ; skirt
G1 X87.962 Y123.568 E2.08141 ; skirt
G1 X87.228 Y123.443 E2.09155 ; skirt
G1 X86.566 Y123.293 E2.10078 ; skirt
G1 X85.849 Y123.092 E2.11092 ; skirt
G1 X85.206 Y122.874 E2.12015 ; skirt
G1 X84.515 Y122.599 E2.13029 ; skirt
G1 X83.898 Y122.315 E2.13952 ; skirt
G1 X83.239 Y121.969 E2.14966 ; skirt
G1 X82.656 Y121.622 E2.15889 ; skirt
G1 X82.036 Y121.209 E2.16903 ; skirt
G1 X81.492 Y120.803 E2.17826 ; skirt
G1 X80.919 Y120.328 E2.18840 ; skirt
G1 X80.421 Y119.868 E2.19763 ; skirt
G1 X79.901 Y119.334 E2.20777 ; skirt
G1 X79.453 Y118.825 E2.21700 ; skirt
G1 X78.992 Y118.240 E2.22714 ; skirt
G1 X78.600 Y117.687 E2.23637 ; skirt
G1 X78.202 Y117.057 E2.24651 ; skirt
G1 X77.870 Y116.465 E2.25574 ; skirt
G1 X77.540 Y115.798 E2.26588 ; skirt
G1 X77.272 Y115.175 E2.27511 ; skirt
G1 X77.014 Y114.476 E2.28525 ; skirt
G1 X76.812 Y113.828 E2.29448 ; skirt
G1 X76.628 Y113.107 E2.30462 ; skirt
G1 X76.496 Y112.441 E2.31385 ; skirt
G1 X76.388 Y111.704 E2.32399 ; skirt
G1 X76.326 Y111.029 E2.33322 ; skirt
G1 X76.291 Y110.026 E2.34688 ; skirt
G1 X76.291 Y89.798 E2.62221 ; skirt
G1 X76.353 Y88.635 E2.63805 ; skirt
G1 X76.432 Y87.962 E2.64729 ; skirt
G1 X76.557 Y87.228 E2.65742 ; skirt
G1 X76.707 Y86.566 E2.66666 ; skirt
G1 X76.908 Y85.849 E2.67679 ; skirt
G1 X77.126 Y85.206 E2.68602 ; skirt
G1 X77.401 Y84.514 E2.69616 ; skirt
G1 X77.685 Y83.898 E2.70540 ; skirt
G1 X78.031 Y83.239 E2.71553 ; skirt
G1 X78.378 Y82.656 E2.72477 ; skirt
G1 X78.791 Y82.036 E2.73490 ; skirt
G1 X79.196 Y81.492 E2.74413 ; skirt
G1 X79.672 Y80.919 E2.75427 ; skirt
G1 X80.097 Y80.460 E2.76279 ; skirt
G1 E2.26279 F420.00000 ; retract
G92 E0 ; reset extrusion distance
G1 X93.857 Y114.531 F6000.000 ; move to first perimeter point
G1 E0.50000 F420.00000 ; unretract
G1 X93.317 Y114.962 E0.50600 F1500.000 ; perimeter
G1 X92.731 Y115.328 E0.51200 ; perimeter
G1 X92.107 Y115.623 E0.51800 ; perimeter
G1 X91.452 Y115.843 E0.52400 ; perimeter
G1 X90.776 Y115.986 E0.53001 ; perimeter
G1 X90.089 Y116.050 E0.53601 ; perimeter
G1 X89.398 Y116.034 E0.54201 ; perimeter
G1 X88.714 Y115.937 E0.54801 ; perimeter
G1 X88.046 Y115.761 E0.55401 ; perimeter
G1 X87.403 Y115.510 E0.56001 ; perimeter
G1 X86.793 Y115.185 E0.56601 ; perimeter
G1 X86.226 Y114.792 E0.57201 ; perimeter
G1 X85.707 Y114.335 E0.57802 ; perimeter
G1 X85.246 Y113.822 E0.58402 ; perimeter
G1 X84.847 Y113.258 E0.59002 ; perimeter
G1 X84.516 Y112.651 E0.59602 ; perimeter
G1 X84.257 Y112.011 E0.60202 ; perimeter
G1 X84.075 Y111.345 E0.60802 ; perimeter
G1 X83.972 Y110.662 E0.61402 ; perimeter
G1 X83.948 Y109.971 E0.62002 ; perimeter
G1 X84.005 Y109.283 E0.62603 ; perimeter
G1 X84.141 Y108.606 E0.63203 ; perimeter
G1 X84.355 Y107.949 E0.63803 ; perimeter
G1 X84.644 Y107.322 E0.64403 ; perimeter
G1 X85.003 Y106.732 E0.65003 ; perimeter
G1 X85.429 Y106.188 E0.65603 ; perimeter
G1 X85.915 Y105.697 E0.66203 ; perimeter
G1 X86.455 Y105.266 E0.66803 ; perimeter
G1 X87.041 Y104.900 E0.67404 ; perimeter
G1 X87.665 Y104.605 E0.68004 ; perimeter
G1 X88.320 Y104.385 E0.68604 ; perimeter
G1 X88.995 Y104.242 E0.69204 ; perimeter
G1 X89.615 Y104.184 E0.69745 F1500.000 ; perimeter
G1 X90.373 Y104.194 E0.70403 ; perimeter
G1 X91.058 Y104.291 E0.71004 ; perimeter
G1 X91.726 Y104.467 E0.71604 ; perimeter
G1 X92.369 Y104.718 E0.72204 ; perimeter
G1 X92.978 Y105.043 E0.72804 ; perimeter
G1 X93.546 Y105.436 E0.73404 ; perimeter
G1 X94.064 Y105.893 E0.74005 ; perimeter
G1 X94.526 Y106.407 E0.74605 ; perimeter
G1 X94.925 Y106.970 E0.75205 ; perimeter
G1 X95.256 Y107.577 E0.75805 ; perimeter
G1 X95.514 Y108.217 E0.76405 ; perimeter
G1 X95.697 Y108.884 E0.77005 ; perimeter
G1 X95.800 Y109.566 E0.77605 ; perimeter
G1 X95.824 Y110.257 E0.78205 ; perimeter
G1 X95.767 Y110.945 E0.78806 ; perimeter
G1 X95.631 Y111.622 E0.79406 ; perimeter
G1 X95.417 Y112.279 E0.80006 ; perimeter
G1 X95.128 Y112.906 E0.80606 ; perimeter
G1 X94.768 Y113.496 E0.81206 ; perimeter
G1 X94.343 Y114.040 E0.81806 ; perimeter
G1 X93.894 Y114.494 E0.82361 ; perimeter
G1 X93.923 Y114.875 F6000.000 ; move inwards before travel
G1 X94.552 Y115.243 F6000.000 ; move to first perimeter point
G1 X93.895 Y115.778 E0.83097 F1050.000 ; perimeter
G1 X93.282 Y116.166 E0.83727 ; perimeter
G1 X92.561 Y116.514 E0.84423 ; perimeter
G1 X91.948 Y116.740 E0.84990 ; perimeter
G1 X91.244 Y116.919 E0.85621 ; perimeter
G1 X90.526 Y117.024 E0.86252 ; perimeter
G1 X89.800 Y117.053 E0.86883 ; perimeter
G1 X89.075 Y117.006 E0.87514 ; perimeter
G1 X88.359 Y116.883 E0.88145 ; perimeter
G1 X87.660 Y116.687 E0.88776 ; perimeter
G1 X86.985 Y116.418 E0.89407 ; perimeter
G1 X86.342 Y116.080 E0.90038 ; perimeter
G1 X85.738 Y115.677 E0.90670 ; perimeter
G1 X85.179 Y115.213 E0.91301 ; perimeter
G1 X84.672 Y114.693 E0.91932 ; perimeter
G1 X84.222 Y114.123 E0.92563 ; perimeter
G1 X83.834 Y113.509 E0.93194 ; perimeter
G1 X83.512 Y112.858 E0.93825 ; perimeter
G1 X83.260 Y112.177 E0.94456 ; perimeter
G1 X83.081 Y111.473 E0.95087 ; perimeter
G1 X82.976 Y110.754 E0.95718 ; perimeter
G1 X82.947 Y110.028 E0.96350 ; perimeter
G1 X82.994 Y109.303 E0.96981 ; perimeter
G1 X83.117 Y108.587 E0.97612 ; perimeter
G1 X83.313 Y107.888 E0.98243 ; perimeter
G1 X83.582 Y107.213 E0.98874 ; perimeter
G1 X83.920 Y106.570 E0.99505 ; perimeter
G1 X84.323 Y105.966 E1.00136 ; perimeter
G1 X84.787 Y105.407 E1.00767 ; perimeter
G1 X85.307 Y104.900 E1.01398 ; perimeter
G1 X85.877 Y104.450 E1.02029 ; perimeter
G1 X86.491 Y104.062 E1.02661 ; perimeter
G1 X87.142 Y103.740 E1.03292 ; perimeter
G1 X87.823 Y103.488 E1.03923 ; perimeter
G1 X88.527 Y103.309 E1.04554 ; perimeter
G1 X89.245 Y103.204 E1.05184 ; perimeter
G1 X90.045 Y103.180 E1.05880 ; perimeter
G1 X90.697 Y103.222 E1.06447 ; perimeter
G1 X91.413 Y103.345 E1.07078 F1050.000 ; perimeter
G1 X92.112 Y103.541 E1.07709 ; perimeter
G1 X92.787 Y103.810 E1.08340 ; perimeter
G1 X93.430 Y104.148 E1.08971 ; perimeter
G1 X94.034 Y104.551 E1.09602 ; perimeter
G1 X94.593 Y105.015 E1.10233 ; perimeter
G1 X95.100 Y105.535 E1.10865 ; perimeter
G1 X95.550 Y106.105 E1.11496 ; perimeter
G1 X95.938 Y106.719 E1.12127 ; perimeter
G1 X96.260 Y107.370 E1.12758 ; perimeter
G1 X96.512 Y108.052 E1.13389 ; perimeter
G1 X96.691 Y108.755 E1.14020 ; perimeter
G1 X96.796 Y109.474 E1.14651 ; perimeter
G1 X96.825 Y110.200 E1.15282 ; perimeter
G1 X96.778 Y110.925 E1.15913 ; perimeter
G1 X96.655 Y111.641 E1.16545 ; perimeter
G1 X96.459 Y112.340 E1.17176 ; perimeter
G1 X96.190 Y113.015 E1.17807 ; perimeter
G1 X95.852 Y113.658 E1.18438 ; perimeter
G1 X95.449 Y114.262 E1.19069 ; perimeter
G1 X94.985 Y114.821 E1.19700 ; perimeter
G1 X94.589 Y115.207 E1.20180 ; perimeter
G1 X94.221 Y115.129 F6000.000 ; move inwards before travel
G1 X94.202 Y114.889 F6000.000 ; move to first infill point
G1 X93.591 Y115.380 E1.22408 F600.000 ; infill
G1 X92.985 Y115.756 E1.24438 ; infill
G1 X92.365 Y116.053 E1.26393 ; infill
G1 X91.600 Y116.317 E1.28695 ; infill
G1 X90.868 Y116.473 E1.30823 ; infill
G1 X90.088 Y116.546 E1.33049 ; infill
G1 X89.806 Y116.548 E1.33851 ; infill
G1 X89.134 Y116.505 E1.35767 ; infill
G1 X88.599 Y116.420 E1.37306 ; infill
G1 X87.909 Y116.240 E1.39336 ; infill
G1 X87.194 Y115.964 E1.41514 ; infill
G1 X86.520 Y115.601 E1.43693 ; infill
G1 X85.933 Y115.194 E1.45722 ; infill
G1 X85.521 Y114.842 E1.47262 ; infill
G1 X85.051 Y114.360 E1.49177 ; infill
G1 X84.870 Y114.144 E1.49979 ; infill
G1 X84.417 Y113.505 E1.52206 ; infill
G1 X84.060 Y112.847 E1.54334 ; infill
G1 X83.741 Y112.027 E1.56838 ; infill
G1 X83.584 Y111.431 E1.58591 ; infill
G1 X83.476 Y110.725 E1.60620 ; infill
G1 X83.451 Y109.942 E1.62849 ; infill
G1 X83.511 Y109.231 E1.64878 F600.000 ; infill
G1 X83.666 Y108.463 E1.67105 ; infill
G1 X83.900 Y107.753 E1.69233 ; infill
G1 X84.041 Y107.424 E1.70248 ; infill
G1 X84.354 Y106.828 E1.72163 ; infill
G1 X84.727 Y106.267 E1.74078 ; infill
G1 X85.045 Y105.873 E1.75519 ; infill
G1 X85.569 Y105.339 E1.77647 ; infill
G1 X86.166 Y104.858 E1.79826 ; infill
G1 X86.736 Y104.500 E1.81742 ; infill
G1 X87.463 Y104.151 E1.84034 ; infill
G1 X88.172 Y103.911 E1.86162 ; infill
G1 X88.904 Y103.755 E1.88290 ; infill
G1 X89.580 Y103.690 E1.90222 ; infill
G1 X90.430 Y103.702 E1.92638 ; infill
G1 X91.173 Y103.808 E1.94772 ; infill
G1 X91.897 Y103.998 E1.96901 ; infill
G1 X92.578 Y104.264 E1.98980 ; infill
G1 X93.223 Y104.609 E2.01060 ; infill
G1 X93.839 Y105.035 E2.03189 ; infill
G1 X94.401 Y105.528 E2.05317 ; infill
G1 X94.924 Y106.111 E2.07543 ; infill
G1 X95.355 Y106.723 E2.09671 ; infill
G1 X95.712 Y107.381 E2.11799 ; infill
G1 X95.991 Y108.075 E2.13928 ; infill
G1 X96.199 Y108.854 E2.16219 ; infill
G1 X96.298 Y109.520 E2.18136 ; infill
G1 X96.321 Y110.286 E2.20315 ; infill
G1 X96.256 Y111.032 E2.22443 ; infill
G1 X96.163 Y111.530 E2.23883 ; infill
G1 X95.980 Y112.178 E2.25799 ; infill
G1 X95.731 Y112.804 E2.27714 ; infill
G1 X95.573 Y113.124 E2.28729 ; infill
G1 X95.186 Y113.764 E2.30857 ; infill
G1 X94.704 Y114.382 E2.33084 ; infill
G1 X94.240 Y114.852 E2.34964 ; infill
G1 E1.84964 F420.00000 ; retract
G92 E0 ; reset extrusion distance
G1 X93.857 Y94.303 F6000.000 ; move to first perimeter point
G1 E0.50000 F420.00000 ; unretract
G1 X93.317 Y94.734 E0.50600 F1500.000 ; perimeter
G1 X92.731 Y95.100 E0.51200 ; perimeter
G1 X92.107 Y95.395 E0.51800 ; perimeter
G1 X91.452 Y95.615 E0.52400 ; perimeter
G1 X90.776 Y95.758 E0.53001 ; perimeter
G1 X90.089 Y95.822 E0.53601 ; perimeter
G1 X89.398 Y95.805 E0.54201 ; perimeter
G1 X88.714 Y95.709 E0.54801 ; perimeter
G1 X88.046 Y95.533 E0.55401 ; perimeter
G1 X87.403 Y95.282 E0.56001 ; perimeter
G1 X86.793 Y94.957 E0.56601 ; perimeter
G1 X86.226 Y94.564 E0.57201 ; perimeter
G1 X85.707 Y94.107 E0.57802 ; perimeter
G1 X85.246 Y93.593 E0.58402 ; perimeter
G1 X84.847 Y93.030 E0.59002 ; perimeter
G1 X84.516 Y92.423 E0.59602 ; perimeter
G1 X84.257 Y91.783 E0.60202 ; perimeter
G1 X84.075 Y91.116 E0.60802 ; perimeter
G1 X83.972 Y90.434 E0.61402 ; perimeter
G1 X83.948 Y89.743 E0.62002 ; perimeter
G1 X84.005 Y89.055 E0.62603 ; perimeter
G1 X84.141 Y88.378 E0.63203 ; perimeter
G1 X84.355 Y87.721 E0.63803 ; perimeter
G1 X84.644 Y87.094 E0.64403 ; perimeter
G1 X85.003 Y86.504 E0.65003 ; perimeter
G1 X85.429 Y85.960 E0.65603 ; perimeter
G1 X85.915 Y85.469 E0.66203 ; perimeter
G1 X86.455 Y85.038 E0.66803 ; perimeter
G1 X87.041 Y84.672 E0.67404 ; perimeter
G1 X87.665 Y84.377 E0.68004 ; perimeter
G1 X88.320 Y84.157 E0.68604 ; perimeter
G1 X88.995 Y84.014 E0.69204 ; perimeter
G1 X89.615 Y83.956 E0.69745 F1500.000 ; perimeter
G1 X90.373 Y83.966 E0.70403 ; perimeter
G1 X91.058 Y84.063 E0.71004 ; perimeter
G1 X91.726 Y84.239 E0.71604 ; perimeter
G1 X92.369 Y84.490 E0.72204 ; perimeter
G1 X92.978 Y84.815 E0.72804 ; perimeter
G1 X93.546 Y85.208 E0.73404 ; perimeter
G1 X94.064 Y85.665 E0.74005 ; perimeter
G1 X94.526 Y86.178 E0.74605 ; perimeter
G1 X94.925 Y86.742 E0.75205 ; perimeter
G1 X95.256 Y87.349 E0.75805 ; perimeter
G1 X95.514 Y87.989 E0.76405 ; perimeter
G1 X95.697 Y88.655 E0.77005 ; perimeter
G1 X95.800 Y89.338 E0.77605 ; perimeter
G1 X95.824 Y90.029 E0.78205 ; perimeter
G1 X95.767 Y90.717 E0.78806 ; perimeter
G1 X95.631 Y91.394 E0.79406 ; perimeter
G1 X95.417 Y92.051 E0.80006 ; perimeter
G1 X95.128 Y92.678 E0.80606 ; perimeter
G1 X94.768 Y93.268 E0.81206 ; perimeter
G1 X94.343 Y93.812 E0.81806 ; perimeter
G1 X93.894 Y94.266 E0.82361 ; perimeter
G1 X93.923 Y94.647 F6000.000 ; move inwards before travel
G1 X94.552 Y95.015 F6000.000 ; move to first perimeter point
G1 X93.895 Y95.550 E0.83097 F1050.000 ; perimeter
G1 X93.282 Y95.938 E0.83727 ; perimeter
G1 X92.561 Y96.285 E0.84423 ; perimeter
G1 X91.948 Y96.512 E0.84990 ; perimeter
G1 X91.244 Y96.691 E0.85621 ; perimeter
G1 X90.526 Y96.796 E0.86252 ; perimeter
G1 X89.800 Y96.825 E0.86883 ; perimeter
G1 X89.075 Y96.778 E0.87514 ; perimeter
G1 X88.359 Y96.655 E0.88145 ; perimeter
G1 X87.660 Y96.459 E0.88776 ; perimeter
G1 X86.985 Y96.190 E0.89407 ; perimeter
G1 X86.342 Y95.852 E0.90038 ; perimeter
G1 X85.738 Y95.449 E0.90670 ; perimeter
G1 X85.179 Y94.985 E0.91301 ; perimeter
G1 X84.672 Y94.465 E0.91932 ; perimeter
G1 X84.222 Y93.895 E0.92563 ; perimeter
G1 X83.834 Y93.281 E0.93194 ; perimeter
G1 X83.512 Y92.630 E0.93825 ; perimeter
G1 X83.260 Y91.948 E0.94456 ; perimeter
G1 X83.081 Y91.245 E0.95087 ; perimeter
G1 X82.976 Y90.526 E0.95718 ; perimeter
G1 X82.947 Y89.800 E0.96350 ; perimeter
G1 X82.994 Y89.075 E0.96981 ; perimeter
G1 X83.117 Y88.359 E0.97612 ; perimeter
G1 X83.313 Y87.660 E0.98243 ; perimeter
