; generated by Slic3r 1.2.9 on 2017-06-06 at 15:12:14

; external perimeters extrusion width = 0.35mm
; perimeters extrusion width = 0.52mm
; infill extrusion width = 0.52mm
; solid infill extrusion width = 0.52mm
; top infill extrusion width = 0.52mm

M107 ; disable fan
G28 ; home all axes
G21 ; set units to millimeters
G90 ; use absolute coordinates
M82 ; use absolute distances for extrusion
G92 E0 ; reset extrusion distance
G1 E-0.30000 F420.00000 ; retract
G92 E0 ; reset extrusion distance
G1 Z0.200 F6000.000 ; move to next layer (0)
G1 X79.558 Y91.307 F6000.000 ; move to first skirt point
G1 E0.30000 F420.00000 ; unretract
G1 X81.305 Y89.861 E0.33087 F1800.000 ; skirt
G1 X84.500 Y89.019 E0.37584 ; skirt
G1 X115.500 Y89.019 E0.79778 ; skirt
G1 X117.733 Y89.416 E0.82866 ; skirt
G1 X119.693 Y90.558 E0.85953 F1800.000 ; skirt
G1 X121.139 Y92.305 E0.89040 ; skirt
G1 X121.981 Y95.500 E0.93537 ; skirt
G1 X121.981 Y104.500 E1.05787 ; skirt
G1 X121.584 Y106.733 E1.08874 ; skirt
G1 X120.442 Y108.693 E1.11962 ; skirt
G1 X118.695 Y110.139 E1.15049 ; skirt
G1 X115.500 Y110.981 E1.19546 ; skirt
G1 X84.500 Y110.981 E1.61740 ; skirt
G1 X82.267 Y110.584 E1.64827 ; skirt
G1 X80.307 Y109.442 E1.67915 ; skirt
G1 X78.861 Y107.695 E1.71002 ; skirt
G1 X78.019 Y104.500 E1.75499 ; skirt
G1 X78.019 Y95.500 E1.87749 ; skirt
G1 X78.416 Y93.267 E1.90836 ; skirt
G1 X79.532 Y91.352 E1.93852 ; skirt
G1 X80.894 Y92.643 F6000.000 ; move to first brim point
G1 X82.607 Y90.930 E1.97149 F1800.000 ; brim
G1 X99.393 Y90.930 E2.19997 ; brim
G1 X101.801 Y93.338 E2.24632 ; brim
G1 X102.199 Y93.338 E2.25174 F1800.000 ; brim
G1 X104.607 Y90.930 E2.29809 ; brim
G1 X117.393 Y90.930 E2.47212 ; brim
G1 X120.070 Y93.607 E2.52365 ; brim
G1 X120.070 Y106.393 E2.69768 ; brim
G1 X117.393 Y109.070 E2.74921 ; brim
G1 X104.607 Y109.070 E2.92324 ; brim
G1 X102.199 Y106.662 E2.96959 ; brim
G1 X101.801 Y106.662 E2.97501 ; brim
G1 X99.393 Y109.070 E3.02136 ; brim
G1 X82.607 Y109.070 E3.24984 ; brim
G1 X79.930 Y106.393 E3.30137 ; brim
G1 X79.930 Y93.607 E3.47540 ; brim
G1 X80.857 Y92.680 E3.49324 ; brim
G1 X81.234 Y92.983 F6000.000 ; move to first brim point
G1 X82.806 Y91.411 E3.52350 F1800.000 ; brim
G1 X99.194 Y91.411 E3.74655 ; brim
G1 X101.801 Y94.018 E3.79673 F1800.000 ; brim
G1 X102.199 Y94.018 E3.80216 ; brim
G1 X104.806 Y91.411 E3.85234 ; brim
G1 X117.194 Y91.411 E4.02095 ; brim
G1 X119.589 Y93.806 E4.06705 ; brim
G1 X119.589 Y106.194 E4.23566 ; brim
G1 X117.194 Y108.589 E4.28177 ; brim
G1 X104.806 Y108.589 E4.45037 ; brim
G1 X102.199 Y105.982 E4.50056 ; brim
G1 X101.801 Y105.982 E4.50598 ; brim
G1 X99.194 Y108.589 E4.55616 ; brim
G1 X82.806 Y108.589 E4.77922 ; brim
G1 X80.411 Y106.194 E4.82532 ; brim
G1 X80.411 Y93.806 E4.99393 ; brim
G1 X81.197 Y93.020 E5.00906 ; brim
G1 X81.574 Y93.323 F6000.000 ; move to first brim point
G1 X83.006 Y91.892 E5.03661 F1800.000 ; brim
G1 X98.994 Y91.892 E5.25423 ; brim
G1 X101.108 Y94.006 E5.29492 ; brim
G1 X101.108 Y105.994 E5.45810 F1800.000 ; brim
G1 X98.994 Y108.108 E5.49878 ; brim
G1 X83.006 Y108.108 E5.71641 ; brim
G1 X80.892 Y105.994 E5.75709 ; brim
G1 X80.892 Y94.006 E5.92027 ; brim
G1 X81.537 Y93.360 E5.93269 ; brim
G1 X81.914 Y93.664 F6000.000 ; move to first brim point
G1 X83.205 Y92.373 E5.95753 F1800.000 ; brim
G1 X98.795 Y92.373 E6.16973 ; brim
G1 X100.627 Y94.205 E6.20499 F1800.000 ; brim
G1 X100.627 Y105.795 E6.36275 ; brim
G1 X98.795 Y107.627 E6.39800 ; brim
G1 X83.205 Y107.627 E6.61021 ; brim
G1 X81.373 Y105.795 E6.64546 ; brim
G1 X81.373 Y94.205 E6.80322 ; brim
G1 X81.877 Y93.701 E6.81293 ; brim
G1 X82.255 Y94.004 F6000.000 ; move to first brim point
G1 X83.404 Y92.854 E6.83505 F1800.000 ; brim
G1 X98.596 Y92.854 E7.04183 ; brim
G1 X100.146 Y94.404 E7.07167 ; brim
G1 X100.146 Y105.596 E7.22400 F1800.000 ; brim
G1 X98.596 Y107.146 E7.25383 ; brim
G1 X83.404 Y107.146 E7.46061 ; brim
G1 X81.854 Y105.596 E7.49044 ; brim
G1 X81.854 Y94.404 E7.64278 ; brim
G1 X82.217 Y94.041 E7.64977 ; brim
G1 X82.595 Y94.344 F6000.000 ; move to first brim point
G1 X83.603 Y93.335 E7.66919 F1800.000 ; brim
G1 X98.397 Y93.335 E7.87054 ; brim
G1 X99.665 Y94.603 E7.89495 F1800.000 ; brim
G1 X99.665 Y105.397 E8.04186 ; brim
G1 X98.397 Y106.665 E8.06627 ; brim
G1 X83.603 Y106.665 E8.26762 ; brim
G1 X82.335 Y105.397 E8.29203 ; brim
G1 X82.335 Y94.603 E8.43894 ; brim
G1 X82.558 Y94.381 E8.44322 ; brim
G1 X82.935 Y94.684 F6000.000 ; move to first brim point
G1 X83.803 Y93.816 E8.45992 F1800.000 ; brim
G1 X98.197 Y93.816 E8.65585 ; brim
G1 X99.184 Y94.803 E8.67484 ; brim
G1 X99.184 Y105.197 E8.81632 F1800.000 ; brim
G1 X98.197 Y106.184 E8.83531 ; brim
G1 X83.803 Y106.184 E9.03124 ; brim
G1 X82.816 Y105.197 E9.05022 ; brim
G1 X82.816 Y94.803 E9.19171 ; brim
G1 X82.898 Y94.721 E9.19327 ; brim
G1 X83.297 Y95.002 F6000.000 ; move to first brim point
G1 X84.002 Y94.297 E9.20684 F1800.000 ; brim
G1 X97.998 Y94.297 E9.39734 ; brim
G1 X98.703 Y95.002 E9.41090 F1800.000 ; brim
G1 X98.703 Y104.998 E9.54696 ; brim
G1 X97.998 Y105.703 E9.56052 ; brim
G1 X84.002 Y105.703 E9.75103 ; brim
G1 X83.297 Y104.998 E9.76459 ; brim
G1 X83.297 Y95.054 E9.89993 ; brim
G1 X83.778 Y95.201 F6000.000 ; move to first brim point
G1 X84.201 Y94.778 E9.90807 F1800.000 ; brim
G1 X97.799 Y94.778 E10.09315 ; brim
G1 X98.222 Y95.201 E10.10129 ; brim
G1 X98.222 Y104.799 E10.23192 F1800.000 ; brim
G1 X97.799 Y105.222 E10.24006 ; brim
G1 X84.201 Y105.222 E10.42514 ; brim
G1 X83.778 Y104.799 E10.43328 ; brim
G1 X83.778 Y95.254 E10.56320 ; brim
G1 X84.400 Y95.259 F6000.000 ; move to first brim point
G1 X97.600 Y95.259 E10.74286 F1800.000 ; brim
G1 X97.741 Y95.400 E10.74557 ; brim
G1 X97.741 Y104.600 E10.87078 ; brim
G1 X97.600 Y104.741 E10.87349 ; brim
G1 X84.400 Y104.741 E11.05315 ; brim
G1 X84.259 Y104.600 E11.05586 ; brim
G1 X84.259 Y95.400 E11.18107 ; brim
G1 X84.363 Y95.297 E11.18307 ; brim
G1 E10.88307 F420.00000 ; retract
G92 E0 ; reset extrusion distance
G1 X102.892 Y95.259 F6000.000 ; move to first brim point
G1 E0.30000 F420.00000 ; unretract
G1 X102.892 Y94.006 E0.31707 F1800.000 ; brim
G1 X105.006 Y91.892 E0.35775 ; brim
G1 X116.994 Y91.892 E0.52093 ; brim
G1 X119.108 Y94.006 E0.56161 ; brim
G1 X119.108 Y105.994 E0.72480 F1800.000 ; brim
G1 X116.994 Y108.108 E0.76548 ; brim
G1 X105.006 Y108.108 E0.92866 ; brim
G1 X102.892 Y105.994 E0.96934 ; brim
G1 X102.892 Y95.312 E1.11474 ; brim
G1 X103.373 Y95.259 F6000.000 ; move to first brim point
G1 X103.373 Y94.205 E1.12910 F1800.000 ; brim
G1 X105.205 Y92.373 E1.16436 ; brim
G1 X116.795 Y92.373 E1.32211 ; brim
G1 X118.627 Y94.205 E1.35737 F1800.000 ; brim
G1 X118.627 Y105.795 E1.51513 ; brim
G1 X116.795 Y107.627 E1.55039 ; brim
G1 X105.205 Y107.627 E1.70815 ; brim
G1 X103.373 Y105.795 E1.74340 ; brim
G1 X103.373 Y95.312 E1.88609 ; brim
G1 X103.854 Y95.259 F6000.000 ; move to first brim point
G1 X103.854 Y94.404 E1.89774 F1800.000 ; brim
G1 X105.404 Y92.854 E1.92757 ; brim
G1 X116.596 Y92.854 E2.07990 ; brim
G1 X118.146 Y94.404 E2.10974 ; brim
G1 X118.146 Y105.596 E2.26207 F1800.000 ; brim
G1 X116.596 Y107.146 E2.29190 ; brim
G1 X105.404 Y107.146 E2.44424 ; brim
G1 X103.854 Y105.596 E2.47407 ; brim
G1 X103.854 Y95.312 E2.61405 ; brim
G1 X104.335 Y95.259 F6000.000 ; move to first brim point
G1 X104.335 Y94.603 E2.62298 F1800.000 ; brim
G1 X105.603 Y93.335 E2.64739 ; brim
G1 X116.397 Y93.335 E2.79430 ; brim
G1 X117.665 Y94.603 E2.81871 F1800.000 ; brim
G1 X117.665 Y105.397 E2.96561 ; brim
G1 X116.397 Y106.665 E2.99002 ; brim
G1 X105.603 Y106.665 E3.13693 ; brim
G1 X104.335 Y105.397 E3.16134 ; brim
G1 X104.335 Y95.312 E3.29861 ; brim
G1 X104.816 Y95.259 F6000.000 ; move to first brim point
G1 X104.816 Y94.803 E3.30483 F1800.000 ; brim
G1 X105.803 Y93.816 E3.32381 ; brim
G1 X116.197 Y93.816 E3.46530 ; brim
G1 X117.184 Y94.803 E3.48428 ; brim
G1 X117.184 Y105.197 E3.62577 F1800.000 ; brim
G1 X116.197 Y106.184 E3.64475 ; brim
G1 X105.803 Y106.184 E3.78624 ; brim
G1 X104.816 Y105.197 E3.80522 ; brim
G1 X104.816 Y95.312 E3.93977 ; brim
G1 X105.297 Y95.259 F6000.000 ; move to first brim point
G1 X105.297 Y95.002 E3.94328 F1800.000 ; brim
G1 X106.002 Y94.297 E3.95684 ; brim
G1 X115.998 Y94.297 E4.09290 ; brim
G1 X116.703 Y95.002 E4.10646 F1800.000 ; brim
G1 X116.703 Y104.998 E4.24252 ; brim
G1 X115.998 Y105.703 E4.25608 ; brim
G1 X106.002 Y105.703 E4.39214 ; brim
G1 X105.297 Y104.998 E4.40570 ; brim
G1 X105.297 Y95.312 E4.53754 ; brim
G1 X105.778 Y95.259 F6000.000 ; move to first brim point
G1 X105.778 Y95.201 E4.53834 F1800.000 ; brim
G1 X106.201 Y94.778 E4.54647 ; brim
G1 X115.799 Y94.778 E4.67711 ; brim
G1 X116.222 Y95.201 E4.68525 ; brim
G1 X116.222 Y104.799 E4.81588 F1800.000 ; brim
G1 X115.799 Y105.222 E4.82402 ; brim
G1 X106.201 Y105.222 E4.95466 ; brim
G1 X105.778 Y104.799 E4.96279 ; brim
G1 X105.778 Y95.312 E5.09192 ; brim
G1 X106.259 Y95.400 F6000.000 ; move to first brim point
G1 X106.400 Y95.259 E5.09463 F1800.000 ; brim
G1 X115.600 Y95.259 E5.21985 ; brim
G1 X115.741 Y95.400 E5.22256 ; brim
G1 X115.741 Y104.600 E5.34777 ; brim
G1 X115.600 Y104.741 E5.35048 ; brim
G1 X106.400 Y104.741 E5.47569 ; brim
G1 X106.259 Y104.600 E5.47841 ; brim
G1 X106.259 Y95.453 E5.60290 ; brim
G1 E5.30290 F420.00000 ; retract
G92 E0 ; reset extrusion distance
G1 X115.325 Y104.325 F6000.000 ; move to first perimeter point
G1 E0.30000 F420.00000 ; unretract
G1 X106.675 Y104.325 E0.37516 F1500.000 ; perimeter
G1 X106.675 Y95.675 E0.45031 ; perimeter
G1 X115.325 Y95.675 E0.52547 ; perimeter
G1 X115.325 Y104.272 E0.60017 ; perimeter
G1 X115.022 Y104.150 F6000.000 ; move inwards before travel
G1 X114.931 Y103.931 F6000.000 ; move to first perimeter point
G1 X107.069 Y103.931 E0.70718 F1500.000 ; perimeter
G1 X107.069 Y96.069 E0.81419 ; perimeter
G1 X114.931 Y96.069 E0.92119 ; perimeter
G1 X114.931 Y103.878 E1.02749 ; perimeter
G1 E0.72749 F420.00000 ; retract
G92 E0 ; reset extrusion distance
G1 X108.661 Y103.450 F6000.000 ; move to first perimeter point
G1 E0.30000 F420.00000 ; unretract
G1 X107.550 Y103.450 E0.31512 F1500.000 ; perimeter
G1 X107.550 Y102.339 E0.33025 ; perimeter
G1 X107.749 Y102.274 E0.33310 ; perimeter
G1 X107.917 Y102.503 E0.33697 ; perimeter
G1 X108.192 Y102.808 E0.34255 ; perimeter
G1 X108.497 Y103.083 E0.34814 ; perimeter
G1 X108.726 Y103.251 E0.35201 ; perimeter
G1 X108.677 Y103.400 E0.35415 ; perimeter
G1 E0.05415 F420.00000 ; retract
G92 E0 ; reset extrusion distance
G1 X113.274 Y103.251 F6000.000 ; move to first perimeter point
G1 E0.30000 F420.00000 ; unretract
G1 X113.503 Y103.083 E0.30387 F1500.000 ; perimeter
G1 X113.808 Y102.808 E0.30946 ; perimeter
G1 X114.083 Y102.503 E0.31504 ; perimeter
G1 X114.251 Y102.274 E0.31891 ; perimeter
G1 X114.450 Y102.339 E0.32176 ; perimeter
G1 X114.450 Y103.450 E0.33689 ; perimeter
G1 X113.339 Y103.450 E0.35201 ; perimeter
G1 X113.290 Y103.301 E0.35415 ; perimeter
G1 E0.05415 F420.00000 ; retract
G92 E0 ; reset extrusion distance
G1 X114.251 Y97.726 F6000.000 ; move to first perimeter point
G1 E0.30000 F420.00000 ; unretract
G1 X114.083 Y97.497 E0.30387 F1500.000 ; perimeter
G1 X113.808 Y97.192 E0.30946 ; perimeter
G1 X113.503 Y96.917 E0.31504 ; perimeter
G1 X113.274 Y96.749 E0.31891 ; perimeter
G1 X113.339 Y96.550 E0.32176 ; perimeter
G1 X114.450 Y96.550 E0.33689 ; perimeter
G1 X114.450 Y97.661 E0.35201 ; perimeter
G1 X114.301 Y97.710 E0.35415 ; perimeter
G1 E0.05415 F420.00000 ; retract
G92 E0 ; reset extrusion distance
G1 X108.726 Y96.749 F6000.000 ; move to first perimeter point
G1 E0.30000 F420.00000 ; unretract
G1 X108.497 Y96.917 E0.30387 F1500.000 ; perimeter
G1 X108.192 Y97.192 E0.30946 ; perimeter
G1 X107.917 Y97.497 E0.31504 ; perimeter
G1 X107.749 Y97.726 E0.31891 ; perimeter
G1 X107.550 Y97.661 E0.32176 ; perimeter
G1 X107.550 Y96.550 E0.33689 ; perimeter
G1 X108.661 Y96.550 E0.35201 ; perimeter
G1 X108.710 Y96.699 E0.35415 ; perimeter
G1 X109.242 Y97.456 F6000.000 ; move to first perimeter point
G1 X109.578 Y97.251 E0.35757 F1500.000 ; perimeter
G1 X109.861 Y97.122 E0.36026 ; perimeter
G1 X110.148 Y97.024 E0.36290 ; perimeter
G1 X110.440 Y96.956 E0.36551 ; perimeter
G1 X110.982 Y96.905 E0.37024 F1500.000 ; perimeter
G1 X111.278 Y96.917 E0.37281 ; perimeter
G1 X111.563 Y96.957 E0.37531 ; perimeter
G1 X111.852 Y97.024 E0.37789 ; perimeter
G1 X112.139 Y97.122 E0.38053 ; perimeter
G1 X112.422 Y97.251 E0.38322 ; perimeter
G1 X112.694 Y97.409 E0.38596 ; perimeter
G1 X112.951 Y97.597 E0.38873 ; perimeter
G1 X113.189 Y97.811 E0.39151 ; perimeter
G1 X113.403 Y98.049 E0.39429 ; perimeter
G1 X113.591 Y98.306 E0.39705 ; perimeter
G1 X113.749 Y98.578 E0.39979 ; perimeter
G1 X113.878 Y98.861 E0.40249 ; perimeter
G1 X113.976 Y99.148 E0.40513 ; perimeter
G1 X114.044 Y99.441 E0.40773 ; perimeter
G1 X114.096 Y100.000 E0.41262 ; perimeter
G1 X114.044 Y100.559 E0.41750 ; perimeter
G1 X113.976 Y100.852 E0.42011 ; perimeter
G1 X113.878 Y101.139 E0.42275 ; perimeter
G1 X113.749 Y101.422 E0.42544 ; perimeter
G1 X113.591 Y101.694 E0.42818 ; perimeter
G1 X113.403 Y101.951 E0.43094 ; perimeter
G1 X113.189 Y102.189 E0.43372 ; perimeter
G1 X112.951 Y102.403 E0.43651 ; perimeter
G1 X112.694 Y102.591 E0.43927 ; perimeter
G1 X112.422 Y102.749 E0.44201 ; perimeter
G1 X112.139 Y102.878 E0.44470 ; perimeter
G1 X111.852 Y102.976 E0.44734 ; perimeter
G1 X111.559 Y103.044 E0.44995 ; perimeter
G1 X111.000 Y103.096 E0.45483 ; perimeter
G1 X110.441 Y103.044 E0.45972 ; perimeter
G1 X110.148 Y102.976 E0.46232 ; perimeter
G1 X109.861 Y102.878 E0.46496 ; perimeter
G1 X109.578 Y102.749 E0.46766 ; perimeter
G1 X109.306 Y102.591 E0.47040 ; perimeter
G1 X109.049 Y102.403 E0.47316 ; perimeter
G1 X108.811 Y102.189 E0.47594 ; perimeter
G1 X108.597 Y101.951 E0.47872 ; perimeter
G1 X108.409 Y101.694 E0.48149 ; perimeter
G1 X108.251 Y101.422 E0.48423 ; perimeter
G1 X108.122 Y101.139 E0.48692 ; perimeter
G1 X108.024 Y100.852 E0.48956 ; perimeter
G1 X107.956 Y100.559 E0.49217 ; perimeter
G1 X107.904 Y100.000 E0.49705 ; perimeter
G1 X107.956 Y99.441 E0.50193 ; perimeter
G1 X108.024 Y99.148 E0.50454 ; perimeter
G1 X108.122 Y98.861 E0.50718 ; perimeter
G1 X108.251 Y98.578 E0.50988 ; perimeter
G1 X108.409 Y98.306 E0.51261 ; perimeter
G1 X108.597 Y98.049 E0.51538 ; perimeter
G1 X108.811 Y97.811 E0.51816 ; perimeter
G1 X109.200 Y97.487 E0.52256 ; perimeter
G1 X109.217 Y97.107 F6000.000 ; move inwards before travel
G1 X109.010 Y97.138 F6000.000 ; move to first perimeter point
G1 X109.397 Y96.900 E0.52874 F1500.000 ; perimeter
G1 X109.715 Y96.755 E0.53350 ; perimeter
G1 X110.039 Y96.645 E0.53816 ; perimeter
G1 X110.377 Y96.566 E0.54288 ; perimeter
G1 X110.972 Y96.510 E0.55101 F1500.000 ; perimeter
G1 X111.313 Y96.524 E0.55566 ; perimeter
G1 X111.635 Y96.569 E0.56009 ; perimeter
G1 X111.961 Y96.645 E0.56463 ; perimeter
G1 X112.285 Y96.755 E0.56930 ; perimeter
G1 X112.603 Y96.900 E0.57405 ; perimeter
G1 X112.910 Y97.079 E0.57889 ; perimeter
G1 X113.200 Y97.291 E0.58377 ; perimeter
G1 X113.468 Y97.532 E0.58868 ; perimeter
G1 X113.709 Y97.800 E0.59360 ; perimeter
G1 X113.921 Y98.090 E0.59848 ; perimeter
G1 X114.100 Y98.397 E0.60332 ; perimeter
G1 X114.245 Y98.715 E0.60807 ; perimeter
G1 X114.355 Y99.039 E0.61274 ; perimeter
G1 X114.434 Y99.377 E0.61746 ; perimeter
G1 X114.491 Y100.000 E0.62597 ; perimeter
G1 X114.434 Y100.623 E0.63448 ; perimeter
G1 X114.355 Y100.961 E0.63921 ; perimeter
G1 X114.245 Y101.285 E0.64387 ; perimeter
G1 X114.100 Y101.603 E0.64863 ; perimeter
G1 X113.921 Y101.910 E0.65346 ; perimeter
G1 X113.709 Y102.200 E0.65835 ; perimeter
G1 X113.468 Y102.468 E0.66326 ; perimeter
G1 X113.200 Y102.709 E0.66817 ; perimeter
G1 X112.910 Y102.921 E0.67305 ; perimeter
G1 X112.603 Y103.100 E0.67789 ; perimeter
G1 X112.285 Y103.245 E0.68265 ; perimeter
G1 X111.961 Y103.355 E0.68731 ; perimeter
G1 X111.623 Y103.434 E0.69203 ; perimeter
G1 X111.000 Y103.491 E0.70054 ; perimeter
G1 X110.377 Y103.434 E0.70906 ; perimeter
G1 X110.039 Y103.355 E0.71378 ; perimeter
G1 X109.715 Y103.245 E0.71844 ; perimeter
G1 X109.397 Y103.100 E0.72320 ; perimeter
G1 X109.090 Y102.921 E0.72803 ; perimeter
