; generated by Slic3r 1.2.9 on 2017-06-30 at 14:30:09

; external perimeters extrusion width = 0.35mm
; perimeters extrusion width = 0.52mm
; infill extrusion width = 0.52mm
; solid infill extrusion width = 0.52mm
; top infill extrusion width = 0.52mm

M107 ; disable fan
G28 ; home all axes
G21 ; set units to millimeters
G90 ; use absolute coordinates
M82 ; use absolute distances for extrusion
G92 E0 ; reset extrusion distance
G1 E-0.50000 F420.00000 ; retract
G92 E0 ; reset extrusion distance
G1 Z0.200 F6000.000 ; move to next layer (0)
G1 X88.151 Y88.150 F6000.000 ; move to first skirt point
G1 E0.50000 F420.00000 ; unretract
G1 X88.621 Y87.712 E0.50874 F1426.037 ; skirt
G1 X88.934 Y87.453 E0.51428 ; skirt
G1 X89.387 Y87.117 E0.52195 ; skirt
G1 X89.861 Y86.811 E0.52964 ; skirt
G1 X90.493 Y86.463 E0.53945 ; skirt
G1 X90.862 Y86.290 E0.54500 ; skirt
G1 X91.384 Y86.078 E0.55266 ; skirt
G1 X91.919 Y85.899 E0.56035 ; skirt
G1 X92.471 Y85.752 E0.56813 ; skirt
G1 X93.173 Y85.618 E0.57785 ; skirt
G1 X93.733 Y85.553 E0.58552 ; skirt
G1 X94.500 Y85.519 E0.59597 ; skirt
G1 X105.702 Y85.522 E0.74845 ; skirt
G1 X106.423 Y85.567 E0.75828 F1426.037 ; skirt
G1 X106.834 Y85.620 E0.76392 ; skirt
G1 X107.382 Y85.719 E0.77149 ; skirt
G1 X108.081 Y85.899 E0.78132 ; skirt
G1 X108.468 Y86.024 E0.78686 ; skirt
G1 X108.994 Y86.227 E0.79453 ; skirt
G1 X109.647 Y86.535 E0.80435 ; skirt
G1 X110.139 Y86.811 E0.81203 ; skirt
G1 X110.483 Y87.029 E0.81758 ; skirt
G1 X111.066 Y87.453 E0.82739 ; skirt
G1 X111.497 Y87.816 E0.83506 ; skirt
G1 X111.794 Y88.095 E0.84061 ; skirt
G1 X112.288 Y88.621 E0.85043 ; skirt
G1 X112.547 Y88.934 E0.85597 ; skirt
G1 X112.883 Y89.387 E0.86364 ; skirt
G1 X113.269 Y89.997 E0.87346 ; skirt
G1 X113.537 Y90.493 E0.88114 ; skirt
G1 X113.710 Y90.862 E0.88668 ; skirt
G1 X113.976 Y91.532 E0.89649 ; skirt
G1 X114.145 Y92.070 E0.90417 ; skirt
G1 X114.246 Y92.464 E0.90971 ; skirt
G1 X114.382 Y93.173 E0.91953 ; skirt
G1 X114.447 Y93.733 E0.92721 ; skirt
G1 X114.473 Y94.140 E0.93275 ; skirt
G1 X114.473 Y105.860 E1.09228 ; skirt
G1 X114.433 Y106.423 E1.09997 ; skirt
G1 X114.382 Y106.827 E1.10551 ; skirt
G1 X114.281 Y107.382 E1.11319 ; skirt
G1 X114.145 Y107.930 E1.12087 ; skirt
G1 X113.922 Y108.616 E1.13068 ; skirt
G1 X113.710 Y109.139 E1.13836 ; skirt
G1 X113.465 Y109.647 E1.14604 ; skirt
G1 X113.189 Y110.139 E1.15371 ; skirt
G1 X112.883 Y110.613 E1.16140 ; skirt
G1 X112.547 Y111.066 E1.16907 ; skirt
G1 X112.288 Y111.379 E1.17461 ; skirt
G1 X111.905 Y111.794 E1.18229 ; skirt
G1 X111.497 Y112.184 E1.18997 ; skirt
G1 X111.066 Y112.547 E1.19765 ; skirt
G1 X110.613 Y112.883 E1.20533 ; skirt
G1 X110.139 Y113.189 E1.21301 ; skirt
G1 X109.647 Y113.465 E1.22069 ; skirt
G1 X109.139 Y113.710 E1.22836 ; skirt
G1 X108.616 Y113.922 E1.23604 ; skirt
G1 X108.081 Y114.101 E1.24372 ; skirt
G1 X107.528 Y114.248 E1.25150 ; skirt
G1 X106.827 Y114.382 E1.26122 ; skirt
G1 X106.267 Y114.447 E1.26889 ; skirt
G1 X105.500 Y114.481 E1.27934 ; skirt
G1 X94.500 Y114.481 E1.42907 ; skirt
G1 X93.577 Y114.433 E1.44165 ; skirt
G1 X93.173 Y114.382 E1.44719 ; skirt
G1 X92.618 Y114.281 E1.45487 ; skirt
G1 X91.919 Y114.101 E1.46469 ; skirt
G1 X91.384 Y113.922 E1.47236 ; skirt
G1 X91.006 Y113.773 E1.47790 ; skirt
G1 X90.353 Y113.465 E1.48772 ; skirt
G1 X89.861 Y113.189 E1.49540 ; skirt
G1 X89.517 Y112.971 E1.50094 ; skirt
G1 X88.934 Y112.547 E1.51076 ; skirt
G1 X88.503 Y112.184 E1.51843 ; skirt
G1 X88.206 Y111.905 E1.52398 ; skirt
G1 X87.712 Y111.380 E1.53379 ; skirt
G1 X87.453 Y111.066 E1.53933 ; skirt
G1 X87.117 Y110.613 E1.54701 ; skirt
G1 X86.811 Y110.139 E1.55469 ; skirt
G1 X86.535 Y109.647 E1.56237 ; skirt
G1 X86.290 Y109.138 E1.57005 ; skirt
G1 X86.078 Y108.616 E1.57773 ; skirt
G1 X85.899 Y108.081 E1.58540 ; skirt
G1 X85.754 Y107.536 E1.59308 ; skirt
G1 X85.643 Y106.982 E1.60076 ; skirt
G1 X85.567 Y106.423 E1.60844 ; skirt
G1 X85.519 Y105.500 E1.62102 ; skirt
G1 X85.527 Y94.139 E1.77566 ; skirt
G1 X85.567 Y93.585 E1.78323 ; skirt
G1 X85.618 Y93.173 E1.78888 ; skirt
G1 X85.754 Y92.464 E1.79870 ; skirt
G1 X85.899 Y91.919 E1.80637 ; skirt
G1 X86.024 Y91.532 E1.81191 ; skirt
G1 X86.290 Y90.862 E1.82172 ; skirt
G1 X86.463 Y90.493 E1.82727 ; skirt
G1 X86.731 Y89.997 E1.83494 ; skirt
G1 X87.117 Y89.387 E1.84477 ; skirt
G1 X87.453 Y88.934 E1.85244 ; skirt
G1 X87.712 Y88.621 E1.85798 ; skirt
G1 X88.114 Y88.187 E1.86602 ; skirt
G1 E1.36602 F420.00000 ; retract
G92 E0 ; reset extrusion distance
G1 X106.512 Y95.574 F6000.000 ; move to first perimeter point
G1 E0.50000 F420.00000 ; unretract
G1 X106.291 Y95.746 E0.50244 F1188.364 ; perimeter
G1 X106.048 Y95.870 E0.50480 ; perimeter
G1 X105.879 Y95.930 E0.50636 ; perimeter
G1 X105.502 Y95.976 E0.50966 ; perimeter
G1 X105.223 Y95.950 E0.51210 ; perimeter
G1 X104.957 Y95.872 E0.51451 ; perimeter
G1 X104.707 Y95.745 E0.51695 ; perimeter
G1 X104.426 Y95.512 E0.52011 ; perimeter
G1 X104.254 Y95.291 E0.52255 ; perimeter
G1 X104.128 Y95.043 E0.52496 ; perimeter
G1 X104.050 Y94.777 E0.52738 ; perimeter
G1 X104.024 Y94.498 E0.52981 ; perimeter
G1 X104.070 Y94.121 E0.53311 ; perimeter
G1 X104.130 Y93.952 E0.53467 ; perimeter
G1 X104.254 Y93.709 E0.53704 ; perimeter
G1 X104.424 Y93.490 E0.53945 ; perimeter
G1 X104.633 Y93.306 E0.54186 ; perimeter
G1 X104.870 Y93.166 E0.54426 ; perimeter
G1 X105.119 Y93.070 E0.54657 ; perimeter
G1 X105.493 Y93.024 E0.54985 F1188.364 ; perimeter
G1 X105.776 Y93.050 E0.55232 ; perimeter
G1 X106.043 Y93.128 E0.55474 ; perimeter
G1 X106.291 Y93.254 E0.55715 ; perimeter
G1 X106.512 Y93.426 E0.55959 ; perimeter
G1 X106.745 Y93.707 E0.56276 ; perimeter
G1 X106.872 Y93.957 E0.56519 ; perimeter
G1 X106.950 Y94.223 E0.56761 ; perimeter
G1 X106.976 Y94.502 E0.57004 ; perimeter
G1 X106.930 Y94.879 E0.57334 ; perimeter
G1 X106.870 Y95.048 E0.57490 ; perimeter
G1 X106.745 Y95.293 E0.57729 ; perimeter
G1 X106.546 Y95.534 E0.58000 ; perimeter
G1 X106.571 Y95.849 F6000.000 ; move inwards before travel
G1 X107.067 Y96.203 F6000.000 ; move to first perimeter point
G1 X106.866 Y96.380 E0.58233 F1188.364 ; perimeter
G1 X106.480 Y96.607 E0.58622 ; perimeter
G1 X106.218 Y96.711 E0.58866 ; perimeter
G1 X105.938 Y96.783 E0.59118 ; perimeter
G1 X105.500 Y96.824 E0.59500 ; perimeter
G1 X105.064 Y96.783 E0.59880 ; perimeter
G1 X104.644 Y96.661 E0.60260 ; perimeter
G1 X104.255 Y96.462 E0.60640 ; perimeter
G1 X103.909 Y96.194 E0.61021 ; perimeter
G1 X103.620 Y95.866 E0.61401 ; perimeter
G1 X103.397 Y95.490 E0.61781 ; perimeter
G1 X103.248 Y95.075 E0.62163 ; perimeter
G1 X103.194 Y94.791 E0.62414 ; perimeter
G1 X103.176 Y94.503 E0.62666 ; perimeter
G1 X103.217 Y94.062 E0.63051 ; perimeter
G1 X103.289 Y93.782 E0.63302 ; perimeter
G1 X103.393 Y93.520 E0.63546 ; perimeter
G1 X103.620 Y93.134 E0.63936 ; perimeter
G1 X103.909 Y92.806 E0.64316 ; perimeter
G1 X104.255 Y92.538 E0.64696 ; perimeter
G1 X104.644 Y92.339 E0.65076 ; perimeter
G1 X105.064 Y92.217 E0.65456 ; perimeter
G1 X105.510 Y92.176 E0.65845 ; perimeter
G1 X105.791 Y92.194 E0.66090 ; perimeter
G1 X106.075 Y92.248 E0.66341 F1188.364 ; perimeter
G1 X106.490 Y92.397 E0.66723 ; perimeter
G1 X106.866 Y92.620 E0.67103 ; perimeter
G1 X107.194 Y92.909 E0.67484 ; perimeter
G1 X107.462 Y93.255 E0.67864 ; perimeter
G1 X107.661 Y93.644 E0.68244 ; perimeter
G1 X107.783 Y94.064 E0.68624 ; perimeter
G1 X107.824 Y94.500 E0.69004 ; perimeter
G1 X107.783 Y94.936 E0.69384 ; perimeter
G1 X107.661 Y95.356 E0.69764 ; perimeter
G1 X107.462 Y95.745 E0.70144 ; perimeter
G1 X107.194 Y96.091 E0.70524 ; perimeter
G1 X107.106 Y96.168 E0.70626 ; perimeter
G1 X106.813 Y96.118 F6000.000 ; move inwards before travel
G1 X106.786 Y95.892 F6000.000 ; move to first infill point
G1 X106.533 Y96.089 E0.71539 F600.000 ; infill
G1 X106.293 Y96.223 E0.72322 ; infill
G1 X105.952 Y96.345 E0.73351 ; infill
G1 X105.500 Y96.400 E0.74646 ; infill
G1 X105.144 Y96.366 E0.75662 ; infill
G1 X104.801 Y96.266 E0.76679 ; infill
G1 X104.482 Y96.104 E0.77696 ; infill
G1 X104.203 Y95.882 E0.78711 ; infill
G1 X103.911 Y95.533 E0.80003 ; infill
G1 X103.784 Y95.307 E0.80740 ; infill
G1 X103.660 Y94.963 E0.81782 ; infill
G1 X103.618 Y94.738 E0.82432 ; infill
G1 X103.603 Y94.468 E0.83200 ; infill
G1 X103.667 Y93.999 E0.84546 F600.000 ; infill
G1 X103.748 Y93.771 E0.85235 ; infill
G1 X103.889 Y93.502 E0.86098 ; infill
G1 X104.133 Y93.187 E0.87231 ; infill
G1 X104.484 Y92.899 E0.88523 ; infill
G1 X104.704 Y92.780 E0.89234 ; infill
G1 X104.991 Y92.672 E0.90107 ; infill
G1 X105.463 Y92.603 E0.91463 ; infill
G1 X105.834 Y92.632 E0.92520 ; infill
G1 X106.217 Y92.745 E0.93657 ; infill
G1 X106.615 Y92.966 E0.94950 ; infill
G1 X106.882 Y93.203 E0.95964 ; infill
G1 X107.111 Y93.496 E0.97023 ; infill
G1 X107.266 Y93.801 E0.97996 ; infill
G1 X107.366 Y94.144 E0.99013 ; infill
G1 X107.400 Y94.500 E1.00029 ; infill
G1 X107.330 Y95.000 E1.01464 ; infill
G1 X107.264 Y95.203 E1.02073 ; infill
G1 X107.104 Y95.518 E1.03076 ; infill
G1 X106.825 Y95.856 E1.04323 ; infill
G1 E0.54323 F420.00000 ; retract
G92 E0 ; reset extrusion distance
G1 X95.512 Y95.574 F6000.000 ; move to first perimeter point
G1 E0.50000 F420.00000 ; unretract
G1 X95.291 Y95.746 E0.50244 F1188.364 ; perimeter
G1 X95.048 Y95.870 E0.50480 ; perimeter
G1 X94.879 Y95.930 E0.50636 ; perimeter
G1 X94.502 Y95.976 E0.50966 ; perimeter
G1 X94.223 Y95.950 E0.51210 ; perimeter
G1 X93.957 Y95.872 E0.51451 ; perimeter
G1 X93.707 Y95.745 E0.51695 ; perimeter
G1 X93.426 Y95.512 E0.52011 ; perimeter
G1 X93.254 Y95.291 E0.52255 ; perimeter
G1 X93.128 Y95.043 E0.52496 ; perimeter
G1 X93.050 Y94.777 E0.52738 ; perimeter
G1 X93.024 Y94.498 E0.52981 ; perimeter
G1 X93.070 Y94.121 E0.53311 ; perimeter
G1 X93.130 Y93.952 E0.53467 ; perimeter
G1 X93.254 Y93.709 E0.53704 ; perimeter
G1 X93.424 Y93.490 E0.53945 ; perimeter
G1 X93.633 Y93.306 E0.54186 ; perimeter
G1 X93.870 Y93.166 E0.54426 ; perimeter
G1 X94.119 Y93.070 E0.54657 ; perimeter
G1 X94.493 Y93.024 E0.54985 F1188.364 ; perimeter
G1 X94.776 Y93.050 E0.55232 ; perimeter
G1 X95.043 Y93.128 E0.55474 ; perimeter
G1 X95.291 Y93.254 E0.55715 ; perimeter
G1 X95.512 Y93.426 E0.55959 ; perimeter
G1 X95.745 Y93.707 E0.56276 ; perimeter
G1 X95.872 Y93.957 E0.56519 ; perimeter
G1 X95.950 Y94.223 E0.56761 ; perimeter
G1 X95.976 Y94.502 E0.57004 ; perimeter
G1 X95.930 Y94.879 E0.57334 ; perimeter
G1 X95.870 Y95.048 E0.57490 ; perimeter
G1 X95.745 Y95.293 E0.57729 ; perimeter
G1 X95.546 Y95.534 E0.58000 ; perimeter
G1 X95.571 Y95.849 F6000.000 ; move inwards before travel
G1 X96.067 Y96.203 F6000.000 ; move to first perimeter point
G1 X95.866 Y96.380 E0.58233 F1188.364 ; perimeter
G1 X95.480 Y96.607 E0.58622 ; perimeter
G1 X95.218 Y96.711 E0.58866 ; perimeter
G1 X94.938 Y96.783 E0.59118 ; perimeter
G1 X94.500 Y96.824 E0.59500 ; perimeter
G1 X94.064 Y96.783 E0.59880 ; perimeter
G1 X93.644 Y96.661 E0.60260 ; perimeter
G1 X93.255 Y96.462 E0.60640 ; perimeter
G1 X92.909 Y96.194 E0.61021 ; perimeter
G1 X92.620 Y95.866 E0.61401 ; perimeter
G1 X92.397 Y95.490 E0.61781 ; perimeter
G1 X92.248 Y95.075 E0.62163 ; perimeter
G1 X92.194 Y94.791 E0.62414 ; perimeter
G1 X92.176 Y94.503 E0.62666 ; perimeter
G1 X92.217 Y94.062 E0.63051 ; perimeter
G1 X92.289 Y93.782 E0.63302 ; perimeter
G1 X92.393 Y93.520 E0.63546 ; perimeter
G1 X92.620 Y93.134 E0.63936 ; perimeter
G1 X92.909 Y92.806 E0.64316 ; perimeter
G1 X93.255 Y92.538 E0.64696 ; perimeter
G1 X93.644 Y92.339 E0.65076 ; perimeter
G1 X94.064 Y92.217 E0.65456 ; perimeter
G1 X94.510 Y92.176 E0.65845 ; perimeter
G1 X94.791 Y92.194 E0.66090 ; perimeter
G1 X95.075 Y92.248 E0.66341 F1188.364 ; perimeter
G1 X95.490 Y92.397 E0.66723 ; perimeter
G1 X95.866 Y92.620 E0.67103 ; perimeter
G1 X96.194 Y92.909 E0.67484 ; perimeter
G1 X96.462 Y93.255 E0.67864 ; perimeter
G1 X96.661 Y93.644 E0.68244 ; perimeter
G1 X96.783 Y94.064 E0.68624 ; perimeter
G1 X96.824 Y94.500 E0.69004 ; perimeter
G1 X96.783 Y94.936 E0.69384 ; perimeter
G1 X96.661 Y95.356 E0.69764 ; perimeter
G1 X96.462 Y95.745 E0.70144 ; perimeter
G1 X96.194 Y96.091 E0.70524 ; perimeter
G1 X96.106 Y96.168 E0.70626 ; perimeter
G1 X95.813 Y96.118 F6000.000 ; move inwards before travel
G1 X95.786 Y95.892 F6000.000 ; move to first infill point
G1 X95.533 Y96.089 E0.71539 F600.000 ; infill
G1 X95.293 Y96.223 E0.72322 ; infill
G1 X94.952 Y96.345 E0.73351 ; infill
G1 X94.500 Y96.400 E0.74646 ; infill
G1 X94.144 Y96.366 E0.75662 ; infill
G1 X93.801 Y96.266 E0.76679 ; infill
G1 X93.482 Y96.104 E0.77696 ; infill
G1 X93.203 Y95.882 E0.78711 ; infill
G1 X92.911 Y95.533 E0.80003 ; infill
G1 X92.784 Y95.307 E0.80740 ; infill
G1 X92.660 Y94.963 E0.81782 ; infill
G1 X92.618 Y94.738 E0.82432 ; infill
G1 X92.603 Y94.468 E0.83200 ; infill
G1 X92.667 Y93.999 E0.84546 F600.000 ; infill
G1 X92.748 Y93.771 E0.85235 ; infill
G1 X92.889 Y93.502 E0.86098 ; infill
G1 X93.133 Y93.187 E0.87231 ; infill
G1 X93.484 Y92.899 E0.88523 ; infill
G1 X93.704 Y92.780 E0.89234 ; infill
G1 X93.991 Y92.672 E0.90107 ; infill
G1 X94.463 Y92.603 E0.91463 ; infill
G1 X94.834 Y92.632 E0.92520 ; infill
G1 X95.217 Y92.745 E0.93657 ; infill
G1 X95.615 Y92.966 E0.94950 ; infill
G1 X95.882 Y93.203 E0.95964 ; infill
G1 X96.111 Y93.496 E0.97023 ; infill
G1 X96.266 Y93.801 E0.97996 ; infill
G1 X96.366 Y94.144 E0.99013 ; infill
G1 X96.400 Y94.500 E1.00029 ; infill
G1 X96.330 Y95.000 E1.01464 ; infill
G1 X96.264 Y95.203 E1.02073 ; infill
G1 X96.104 Y95.518 E1.03076 ; infill
G1 X95.825 Y95.856 E1.04323 ; infill
G1 E0.54323 F420.00000 ; retract
G92 E0 ; reset extrusion distance
G1 X95.512 Y106.574 F6000.000 ; move to first perimeter point
G1 E0.50000 F420.00000 ; unretract
G1 X95.291 Y106.746 E0.50244 F1188.364 ; perimeter
G1 X95.048 Y106.870 E0.50480 ; perimeter
G1 X94.879 Y106.930 E0.50636 ; perimeter
G1 X94.502 Y106.976 E0.50966 ; perimeter
G1 X94.223 Y106.950 E0.51210 ; perimeter
G1 X93.957 Y106.872 E0.51451 ; perimeter
G1 X93.707 Y106.745 E0.51695 ; perimeter
G1 X93.426 Y106.512 E0.52011 ; perimeter
G1 X93.254 Y106.291 E0.52255 ; perimeter
G1 X93.128 Y106.043 E0.52496 ; perimeter
G1 X93.050 Y105.777 E0.52738 ; perimeter
G1 X93.024 Y105.498 E0.52981 ; perimeter
G1 X93.070 Y105.121 E0.53311 ; perimeter
G1 X93.130 Y104.952 E0.53467 ; perimeter
G1 X93.254 Y104.709 E0.53704 ; perimeter
G1 X93.424 Y104.490 E0.53945 ; perimeter
G1 X93.633 Y104.306 E0.54186 ; perimeter
G1 X93.870 Y104.166 E0.54426 ; perimeter
G1 X94.119 Y104.070 E0.54657 ; perimeter
G1 X94.493 Y104.024 E0.54985 F1188.364 ; perimeter
G1 X94.776 Y104.050 E0.55232 ; perimeter
G1 X95.043 Y104.128 E0.55474 ; perimeter
G1 X95.291 Y104.254 E0.55715 ; perimeter
G1 X95.512 Y104.426 E0.55959 ; perimeter
G1 X95.745 Y104.707 E0.56276 ; perimeter
G1 X95.872 Y104.957 E0.56519 ; perimeter
G1 X95.950 Y105.223 E0.56761 ; perimeter
G1 X95.976 Y105.502 E0.57004 ; perimeter
G1 X95.930 Y105.879 E0.57334 ; perimeter
G1 X95.870 Y106.048 E0.57490 ; perimeter
G1 X95.745 Y106.293 E0.57729 ; perimeter
G1 X95.546 Y106.534 E0.58000 ; perimeter
G1 X95.571 Y106.849 F6000.000 ; move inwards before travel
G1 X96.067 Y107.203 F6000.000 ; move to first perimeter point
G1 X95.866 Y107.380 E0.58233 F1188.364 ; perimeter
G1 X95.480 Y107.607 E0.58622 ; perimeter
G1 X95.218 Y107.711 E0.58866 ; perimeter
G1 X94.938 Y107.783 E0.59118 ; perimeter
G1 X94.500 Y107.824 E0.59500 ; perimeter
G1 X94.064 Y107.783 E0.59880 ; perimeter
G1 X93.644 Y107.661 E0.60260 ; perimeter
G1 X93.255 Y107.462 E0.60640 ; perimeter
G1 X92.909 Y107.194 E0.61021 ; perimeter
G1 X92.620 Y106.866 E0.61401 ; perimeter
G1 X92.397 Y106.490 E0.61781 ; perimeter
G1 X92.248 Y106.075 E0.62163 ; perimeter
G1 X92.194 Y105.791 E0.62414 ; perimeter
G1 X92.176 Y105.503 E0.62666 ; perimeter
G1 X92.217 Y105.062 E0.63051 ; perimeter
G1 X92.289 Y104.782 E0.63302 ; perimeter
G1 X92.393 Y104.520 E0.63546 ; perimeter
G1 X92.620 Y104.134 E0.63936 ; perimeter
G1 X92.909 Y103.806 E0.64316 ; perimeter
G1 X93.255 Y103.538 E0.64696 ; perimeter
G1 X93.644 Y103.339 E0.65076 ; perimeter
G1 X94.064 Y103.217 E0.65456 ; perimeter
G1 X94.510 Y103.176 E0.65845 ; perimeter
G1 X94.791 Y103.194 E0.66090 ; perimeter
G1 X95.075 Y103.248 E0.66341 F1188.364 ; perimeter
