; generated by Slic3r 1.2.9 on 2017-06-09 at 18:11:34

; external perimeters extrusion width = 0.35mm
; perimeters extrusion width = 0.52mm
; infill extrusion width = 0.52mm
; solid infill extrusion width = 0.52mm
; top infill extrusion width = 0.52mm

M107 ; disable fan
G28 ; home all axes
G21 ; set units to millimeters
G90 ; use absolute coordinates
M82 ; use absolute distances for extrusion
G92 E0 ; reset extrusion distance
G1 E-0.50000 F420.00000 ; retract
G92 E0 ; reset extrusion distance
G1 Z0.200 F6000.000 ; move to next layer (0)
G1 X84.557 Y86.906 F6000.000 ; move to first skirt point
G1 E0.50000 F420.00000 ; unretract
G1 X92.532 Y79.157 E0.65135 F1800.000 ; skirt
G1 X92.891 Y78.858 E0.65770 ; skirt
G1 X93.263 Y78.585 E0.66399 ; skirt
G1 X93.664 Y78.328 E0.67046 ; skirt
G1 X94.075 Y78.099 E0.67687 ; skirt
G1 X94.554 Y77.874 E0.68407 ; skirt
G1 X94.994 Y77.702 E0.69050 ; skirt
G1 X95.386 Y77.574 E0.69611 ; skirt
G1 X95.899 Y77.443 E0.70333 ; skirt
G1 X96.302 Y77.366 E0.70891 ; skirt
G1 X96.766 Y77.305 E0.71528 ; skirt
G1 X97.500 Y77.269 E0.72528 ; skirt
G1 X102.697 Y77.272 E0.79602 ; skirt
G1 X103.172 Y77.300 E0.80250 F1800.000 ; skirt
G1 X103.698 Y77.366 E0.80972 ; skirt
G1 X104.101 Y77.443 E0.81529 ; skirt
G1 X104.554 Y77.557 E0.82166 ; skirt
G1 X105.065 Y77.723 E0.82897 ; skirt
G1 X105.446 Y77.874 E0.83455 ; skirt
G1 X105.867 Y78.070 E0.84086 ; skirt
G1 X106.336 Y78.328 E0.84816 ; skirt
G1 X106.730 Y78.580 E0.85452 ; skirt
G1 X107.060 Y78.820 E0.86007 ; skirt
G1 X107.468 Y79.157 E0.86727 ; skirt
G1 X126.308 Y97.479 E1.22497 ; skirt
G1 X126.643 Y97.839 E1.23166 ; skirt
G1 X126.938 Y98.200 E1.23802 ; skirt
G1 X127.205 Y98.572 E1.24424 ; skirt
G1 X127.454 Y98.968 E1.25061 ; skirt
G1 X127.689 Y99.400 E1.25731 ; skirt
G1 X127.876 Y99.804 E1.26336 ; skirt
G1 X128.048 Y100.243 E1.26978 ; skirt
G1 X128.176 Y100.636 E1.27541 ; skirt
G1 X128.294 Y101.087 E1.28176 ; skirt
G1 X128.384 Y101.551 E1.28819 ; skirt
G1 X128.444 Y102.016 E1.29457 ; skirt
G1 X128.476 Y102.481 E1.30091 ; skirt
G1 X128.481 Y105.330 E1.33969 ; skirt
G1 X128.450 Y106.001 E1.34884 ; skirt
G1 X128.384 Y106.529 E1.35607 ; skirt
G1 X128.291 Y107.004 E1.36267 ; skirt
G1 X128.176 Y107.444 E1.36886 ; skirt
G1 X128.048 Y107.836 E1.37447 ; skirt
G1 X127.876 Y108.276 E1.38090 ; skirt
G1 X127.680 Y108.697 E1.38721 ; skirt
G1 X127.454 Y109.112 E1.39365 ; skirt
G1 X127.157 Y109.578 E1.40118 ; skirt
G1 X126.692 Y110.184 E1.41158 ; skirt
G1 X118.092 Y120.219 E1.59145 ; skirt
G1 X117.812 Y120.517 E1.59703 ; skirt
G1 X117.473 Y120.839 E1.60339 ; skirt
G1 X117.062 Y121.179 E1.61064 ; skirt
G1 X116.734 Y121.417 E1.61616 ; skirt
G1 X116.345 Y121.667 E1.62246 ; skirt
G1 X115.921 Y121.902 E1.62905 ; skirt
G1 X115.509 Y122.099 E1.63527 ; skirt
G1 X115.073 Y122.274 E1.64166 ; skirt
G1 X114.555 Y122.443 E1.64907 ; skirt
G1 X114.101 Y122.557 E1.65545 ; skirt
G1 X113.635 Y122.644 E1.66190 ; skirt
G1 X113.172 Y122.700 E1.66825 ; skirt
G1 X112.706 Y122.728 E1.67460 ; skirt
G1 X87.231 Y122.726 E2.02135 ; skirt
G1 X86.765 Y122.694 E2.02770 ; skirt
G1 X86.302 Y122.634 E2.03406 ; skirt
G1 X85.901 Y122.558 E2.03961 ; skirt
G1 X85.445 Y122.443 E2.04602 ; skirt
G1 X84.935 Y122.277 E2.05332 ; skirt
G1 X84.559 Y122.128 E2.05881 ; skirt
G1 X84.135 Y121.931 E2.06519 ; skirt
G1 X83.660 Y121.670 E2.07256 ; skirt
G1 X83.272 Y121.421 E2.07884 ; skirt
G1 X82.943 Y121.182 E2.08438 ; skirt
G1 X82.531 Y120.842 E2.09165 ; skirt
G1 X82.188 Y120.517 E2.09807 ; skirt
G1 X81.908 Y120.219 E2.10364 ; skirt
G1 X73.308 Y110.184 E2.28352 ; skirt
G1 X72.830 Y109.560 E2.29422 ; skirt
G1 X72.546 Y109.112 E2.30144 ; skirt
G1 X72.348 Y108.752 E2.30703 ; skirt
G1 X72.149 Y108.334 E2.31334 ; skirt
G1 X71.952 Y107.836 E2.32063 ; skirt
G1 X71.824 Y107.445 E2.32623 ; skirt
G1 X71.706 Y106.992 E2.33260 ; skirt
G1 X71.603 Y106.446 E2.34015 ; skirt
G1 X71.549 Y105.999 E2.34629 ; skirt
G1 X71.519 Y105.330 E2.35540 ; skirt
G1 X71.519 Y102.750 E2.39052 ; skirt
G1 X71.550 Y102.079 E2.39967 ; skirt
G1 X71.616 Y101.552 E2.40689 ; skirt
G1 X71.706 Y101.087 E2.41333 ; skirt
G1 X71.824 Y100.636 E2.41969 ; skirt
G1 X71.952 Y100.244 E2.42530 ; skirt
G1 X72.124 Y99.804 E2.43173 ; skirt
G1 X72.352 Y99.321 E2.43900 ; skirt
G1 X72.578 Y98.914 E2.44534 ; skirt
G1 X72.835 Y98.513 E2.45181 ; skirt
G1 X73.365 Y97.830 E2.46359 ; skirt
G1 X73.796 Y97.376 E2.47210 ; skirt
G1 X84.519 Y86.942 E2.67575 ; skirt
G1 E2.17575 F420.00000 ; retract
G92 E0 ; reset extrusion distance
G1 X81.909 Y104.496 F6000.000 ; move to first perimeter point
G1 E0.50000 F420.00000 ; unretract
G1 X81.746 Y104.659 E0.50200 F1500.000 ; perimeter
G1 X81.554 Y104.787 E0.50401 ; perimeter
G1 X81.341 Y104.875 E0.50601 ; perimeter
G1 X81.115 Y104.920 E0.50801 ; perimeter
G1 X80.885 Y104.920 E0.51001 ; perimeter
G1 X80.659 Y104.875 E0.51202 ; perimeter
G1 X80.446 Y104.787 E0.51402 ; perimeter
G1 X80.254 Y104.659 E0.51602 ; perimeter
G1 X80.091 Y104.496 E0.51803 ; perimeter
G1 X79.963 Y104.304 E0.52003 ; perimeter
G1 X79.875 Y104.091 E0.52203 ; perimeter
G1 X79.830 Y103.865 E0.52403 ; perimeter
G1 X79.830 Y103.635 E0.52604 ; perimeter
G1 X79.875 Y103.409 E0.52804 ; perimeter
G1 X79.963 Y103.196 E0.53004 ; perimeter
G1 X80.091 Y103.004 E0.53204 ; perimeter
G1 X80.254 Y102.841 E0.53405 ; perimeter
G1 X80.446 Y102.713 E0.53605 ; perimeter
G1 X80.659 Y102.625 E0.53805 ; perimeter
G1 X80.885 Y102.580 E0.54006 F1500.000 ; perimeter
G1 X81.115 Y102.580 E0.54206 ; perimeter
G1 X81.341 Y102.625 E0.54406 ; perimeter
G1 X81.554 Y102.713 E0.54606 ; perimeter
G1 X81.746 Y102.841 E0.54807 ; perimeter
G1 X81.909 Y103.004 E0.55007 ; perimeter
G1 X82.037 Y103.196 E0.55207 ; perimeter
G1 X82.125 Y103.409 E0.55407 ; perimeter
G1 X82.170 Y103.635 E0.55608 ; perimeter
G1 X82.170 Y103.865 E0.55808 ; perimeter
G1 X82.125 Y104.091 E0.56008 ; perimeter
G1 X82.037 Y104.304 E0.56209 ; perimeter
G1 X81.938 Y104.452 E0.56363 ; perimeter
G1 X81.983 Y104.714 F6000.000 ; move inwards before travel
G1 E0.06363 F420.00000 ; retract
G92 E0 ; reset extrusion distance
G1 X88.078 Y107.331 F6000.000 ; move to first perimeter point
G1 E0.50000 F420.00000 ; unretract
G1 X88.229 Y107.076 E0.50403 F2100.000 ; perimeter
G1 X88.424 Y106.854 E0.50805 ; perimeter
G1 X88.658 Y106.673 E0.51208 ; perimeter
G1 X88.921 Y106.539 E0.51610 ; perimeter
G1 X89.205 Y106.456 E0.52013 ; perimeter
G1 X89.473 Y106.431 E0.52379 ; perimeter
G1 X110.545 Y106.431 E0.81060 F2100.000 ; perimeter
G1 X110.987 Y106.501 E0.81669 ; perimeter
G1 X111.418 Y106.721 E0.82328 ; perimeter
G1 X111.719 Y107.003 E0.82890 ; perimeter
G1 X111.961 Y107.412 E0.83536 ; perimeter
G1 X112.061 Y107.802 E0.84085 ; perimeter
G1 X112.069 Y113.544 E0.91900 ; perimeter
G1 X111.999 Y113.987 E0.92510 ; perimeter
G1 X111.775 Y114.426 E0.93182 ; perimeter
G1 X111.426 Y114.775 E0.93853 ; perimeter
G1 X110.987 Y114.999 E0.94524 ; perimeter
G1 X110.545 Y115.069 E0.95133 ; perimeter
G1 X89.455 Y115.069 E1.23839 ; perimeter
G1 X89.013 Y114.999 E1.24448 ; perimeter
G1 X88.582 Y114.779 E1.25107 ; perimeter
G1 X88.281 Y114.497 E1.25669 ; perimeter
G1 X88.039 Y114.088 E1.26315 ; perimeter
G1 X87.939 Y113.697 E1.26864 ; perimeter
G1 X87.933 Y107.893 E1.34765 ; perimeter
G1 X87.978 Y107.609 E1.35155 ; perimeter
G1 X88.060 Y107.380 E1.35487 ; perimeter
G1 X88.436 Y107.499 F6000.000 ; move to first perimeter point
G1 X88.549 Y107.309 E1.35679 F1050.000 ; perimeter
G1 X88.695 Y107.143 E1.35871 ; perimeter
G1 X88.870 Y107.007 E1.36064 ; perimeter
G1 X89.067 Y106.907 E1.36256 ; perimeter
G1 X89.280 Y106.845 E1.36448 ; perimeter
G1 X89.492 Y106.825 E1.36633 ; perimeter
G1 X110.514 Y106.825 E1.54898 F1050.000 ; perimeter
G1 X110.864 Y106.880 E1.55206 ; perimeter
G1 X111.189 Y107.046 E1.55524 ; perimeter
G1 X111.408 Y107.252 E1.55785 ; perimeter
G1 X111.593 Y107.564 E1.56100 ; perimeter
G1 X111.667 Y107.852 E1.56359 ; perimeter
G1 X111.675 Y113.514 E1.61277 ; perimeter
G1 X111.620 Y113.864 E1.61585 ; perimeter
G1 X111.452 Y114.192 E1.61905 ; perimeter
G1 X111.192 Y114.452 E1.62225 ; perimeter
G1 X110.864 Y114.620 E1.62545 ; perimeter
G1 X110.514 Y114.675 E1.62853 ; perimeter
G1 X89.486 Y114.675 E1.81123 ; perimeter
G1 X89.136 Y114.620 E1.81431 ; perimeter
G1 X88.811 Y114.454 E1.81749 ; perimeter
G1 X88.592 Y114.248 E1.82010 ; perimeter
G1 X88.407 Y113.936 E1.82325 ; perimeter
G1 X88.333 Y113.648 E1.82583 ; perimeter
G1 X88.327 Y107.924 E1.87557 ; perimeter
G1 X88.361 Y107.708 E1.87747 ; perimeter
G1 X88.418 Y107.549 E1.87893 ; perimeter
G1 X88.316 Y107.314 F6000.000 ; move inwards before travel
G1 E1.37893 F420.00000 ; retract
G92 E0 ; reset extrusion distance
G1 X87.552 Y114.627 F6000.000 ; move to first perimeter point
G1 E0.50000 F420.00000 ; unretract
G1 X87.764 Y114.569 E0.50300 F1500.000 ; perimeter
G1 X87.902 Y114.801 E0.50667 ; perimeter
G1 X88.327 Y115.200 E0.51461 ; perimeter
G1 X87.552 Y115.200 E0.52515 ; perimeter
G1 X87.552 Y114.679 E0.53224 ; perimeter
G1 E0.03224 F420.00000 ; retract
G92 E0 ; reset extrusion distance
G1 X79.562 Y105.280 F6000.000 ; move to first perimeter point
G1 E0.50000 F420.00000 ; unretract
G1 X79.058 Y105.280 E0.50687 F1500.000 ; perimeter
G1 X79.056 Y104.892 E0.51215 ; perimeter
G1 X79.261 Y104.830 E0.51507 ; perimeter
G1 X79.533 Y105.236 E0.52173 ; perimeter
G1 E0.02173 F420.00000 ; retract
G92 E0 ; reset extrusion distance
G1 X87.550 Y105.280 F6000.000 ; move to first perimeter point
G1 E0.50000 F420.00000 ; unretract
G1 X82.438 Y105.280 E0.56958 F2100.000 ; perimeter
G1 X82.813 Y104.719 E0.57877 ; perimeter
G1 X82.967 Y104.347 E0.58425 ; perimeter
G1 X83.045 Y103.952 E0.58973 ; perimeter
G1 X83.045 Y103.548 E0.59522 ; perimeter
G1 X82.967 Y103.153 E0.60070 ; perimeter
G1 X82.820 Y102.800 E0.60591 ; perimeter
G1 X97.550 Y102.800 E0.80640 ; perimeter
G1 X97.550 Y101.201 E0.82816 ; perimeter
G1 X97.910 Y101.499 E0.83452 ; perimeter
G1 X98.471 Y101.742 E0.84284 ; perimeter
G1 X99.189 Y101.832 E0.85268 ; perimeter
G1 X98.696 Y102.161 E0.86074 ; perimeter
G1 X98.411 Y102.446 E0.86623 ; perimeter
G1 X98.187 Y102.781 E0.87171 ; perimeter
G1 X98.033 Y103.153 E0.87720 ; perimeter
G1 X97.955 Y103.549 E0.88268 ; perimeter
G1 X97.955 Y103.951 E0.88816 ; perimeter
G1 X98.033 Y104.347 E0.89365 ; perimeter
G1 X98.187 Y104.719 E0.89913 ; perimeter
G1 X98.411 Y105.054 E0.90461 ; perimeter
G1 X98.696 Y105.339 E0.91010 ; perimeter
G1 X99.031 Y105.563 E0.91558 ; perimeter
G1 X99.405 Y105.718 E0.92110 ; perimeter
G1 X99.359 Y105.950 E0.92432 ; perimeter
G1 X89.450 Y105.950 E1.05919 ; perimeter
G1 X89.115 Y105.982 E1.06378 ; perimeter
G1 X88.744 Y106.090 E1.06904 ; perimeter
G1 X88.399 Y106.265 E1.07430 ; perimeter
G1 X88.093 Y106.502 E1.07957 ; perimeter
G1 X87.838 Y106.792 E1.08483 ; perimeter
G1 X87.763 Y106.919 E1.08684 ; perimeter
G1 X87.550 Y106.861 E1.08983 ; perimeter
G1 X87.550 Y105.332 E1.11064 ; perimeter
G1 E0.61064 F420.00000 ; retract
G92 E0 ; reset extrusion distance
G1 X98.436 Y103.904 F6000.000 ; move to first perimeter point
G1 E0.50000 F420.00000 ; unretract
G1 X98.436 Y103.596 E0.50419 F1500.000 ; perimeter
G1 X98.496 Y103.294 E0.50839 ; perimeter
G1 X98.614 Y103.009 E0.51258 ; perimeter
G1 X98.785 Y102.753 E0.51678 ; perimeter
G1 X99.003 Y102.535 E0.52097 ; perimeter
G1 X99.259 Y102.364 E0.52516 ; perimeter
G1 X99.544 Y102.246 E0.52936 ; perimeter
G1 X99.846 Y102.186 E0.53355 F1500.000 ; perimeter
G1 X100.154 Y102.186 E0.53775 ; perimeter
G1 X100.456 Y102.246 E0.54194 ; perimeter
G1 X100.741 Y102.364 E0.54613 ; perimeter
G1 X100.997 Y102.535 E0.55033 ; perimeter
G1 X101.215 Y102.753 E0.55452 ; perimeter
G1 X101.386 Y103.009 E0.55872 ; perimeter
G1 X101.504 Y103.294 E0.56291 ; perimeter
G1 X101.564 Y103.596 E0.56710 ; perimeter
G1 X101.564 Y103.904 E0.57130 ; perimeter
G1 X101.504 Y104.206 E0.57549 ; perimeter
G1 X101.386 Y104.491 E0.57969 ; perimeter
G1 X101.215 Y104.747 E0.58388 ; perimeter
G1 X100.997 Y104.965 E0.58807 ; perimeter
G1 X100.741 Y105.136 E0.59227 ; perimeter
G1 X100.456 Y105.254 E0.59646 ; perimeter
G1 X100.154 Y105.314 E0.60066 ; perimeter
G1 X99.846 Y105.314 E0.60485 ; perimeter
G1 X99.544 Y105.254 E0.60904 ; perimeter
G1 X99.259 Y105.136 E0.61324 ; perimeter
G1 X99.003 Y104.965 E0.61743 ; perimeter
G1 X98.785 Y104.747 E0.62163 ; perimeter
G1 X98.614 Y104.491 E0.62582 ; perimeter
G1 X98.496 Y104.206 E0.63001 ; perimeter
G1 X98.446 Y103.956 E0.63349 ; perimeter
G1 X98.830 Y103.865 F6000.000 ; move to first perimeter point
G1 X98.830 Y103.635 E0.63550 F1500.000 ; perimeter
G1 X98.875 Y103.409 E0.63750 ; perimeter
G1 X98.963 Y103.196 E0.63950 ; perimeter
G1 X99.091 Y103.004 E0.64150 ; perimeter
G1 X99.254 Y102.841 E0.64351 ; perimeter
G1 X99.446 Y102.713 E0.64551 ; perimeter
G1 X99.659 Y102.625 E0.64751 ; perimeter
G1 X99.885 Y102.580 E0.64952 F1500.000 ; perimeter
G1 X100.115 Y102.580 E0.65152 ; perimeter
G1 X100.341 Y102.625 E0.65352 ; perimeter
G1 X100.554 Y102.713 E0.65552 ; perimeter
G1 X100.746 Y102.841 E0.65753 ; perimeter
G1 X100.909 Y103.004 E0.65953 ; perimeter
G1 X101.037 Y103.196 E0.66153 ; perimeter
G1 X101.125 Y103.409 E0.66353 ; perimeter
G1 X101.170 Y103.635 E0.66554 ; perimeter
G1 X101.170 Y103.865 E0.66754 ; perimeter
G1 X101.125 Y104.091 E0.66954 ; perimeter
G1 X101.037 Y104.304 E0.67155 ; perimeter
G1 X100.909 Y104.496 E0.67355 ; perimeter
G1 X100.746 Y104.659 E0.67555 ; perimeter
G1 X100.554 Y104.787 E0.67755 ; perimeter
G1 X100.341 Y104.875 E0.67956 ; perimeter
G1 X100.115 Y104.920 E0.68156 ; perimeter
G1 X99.885 Y104.920 E0.68356 ; perimeter
G1 X99.659 Y104.875 E0.68557 ; perimeter
G1 X99.446 Y104.787 E0.68757 ; perimeter
G1 X99.254 Y104.659 E0.68957 ; perimeter
G1 X99.091 Y104.496 E0.69157 ; perimeter
G1 X98.963 Y104.304 E0.69358 ; perimeter
G1 X98.875 Y104.091 E0.69558 ; perimeter
G1 X98.840 Y103.917 E0.69713 ; perimeter
G1 X98.623 Y103.763 F6000.000 ; move inwards before travel
G1 E0.19713 F420.00000 ; retract
G92 E0 ; reset extrusion distance
G1 X102.450 Y102.800 F6000.000 ; move to first perimeter point
G1 E0.50000 F420.00000 ; unretract
G1 X117.180 Y102.800 E0.70049 F2100.000 ; perimeter
G1 X117.033 Y103.153 E0.70569 ; perimeter
G1 X116.955 Y103.548 E0.71117 ; perimeter
G1 X116.955 Y103.952 E0.71666 ; perimeter
G1 X117.033 Y104.347 E0.72214 ; perimeter
G1 X117.187 Y104.719 E0.72763 ; perimeter
G1 X117.562 Y105.279 E0.73679 ; perimeter
G1 X112.450 Y105.280 E0.80637 ; perimeter
G1 X112.450 Y106.876 E0.82809 ; perimeter
G1 X112.237 Y106.934 E0.83109 ; perimeter
G1 X112.098 Y106.699 E0.83481 ; perimeter
G1 X111.698 Y106.323 E0.84229 ; perimeter
G1 X111.138 Y106.038 E0.85084 ; perimeter
G1 X110.583 Y105.950 E0.85849 ; perimeter
G1 X100.641 Y105.950 E0.99381 ; perimeter
G1 X100.595 Y105.718 E0.99704 ; perimeter
G1 X100.969 Y105.563 E1.00255 ; perimeter
G1 X101.304 Y105.339 E1.00803 ; perimeter
G1 X101.589 Y105.054 E1.01352 ; perimeter
G1 X101.813 Y104.719 E1.01900 ; perimeter
G1 X101.967 Y104.347 E1.02448 ; perimeter
G1 X102.045 Y103.951 E1.02997 ; perimeter
G1 X102.045 Y103.549 E1.03545 ; perimeter
G1 X101.967 Y103.153 E1.04094 ; perimeter
G1 X101.813 Y102.781 E1.04642 ; perimeter
G1 X101.589 Y102.446 E1.05190 ; perimeter
G1 X101.304 Y102.161 E1.05739 ; perimeter
G1 X100.799 Y101.824 E1.06566 ; perimeter
G1 X101.418 Y101.765 E1.07413 ; perimeter
G1 X101.994 Y101.558 E1.08245 ; perimeter
G1 X102.450 Y101.204 E1.09031 ; perimeter
G1 X102.450 Y102.748 E1.11131 ; perimeter
G1 E0.61131 F420.00000 ; retract
G92 E0 ; reset extrusion distance
G1 X102.448 Y89.295 F6000.000 ; move to first perimeter point
G1 E0.50000 F420.00000 ; unretract
G1 X102.007 Y88.952 E0.50760 F1500.000 ; perimeter
G1 X101.512 Y88.756 E0.51485 ; perimeter
G1 X101.066 Y88.700 E0.52097 ; perimeter
G1 X100.641 Y88.700 E0.52676 ; perimeter
G1 X100.594 Y88.468 E0.52998 ; perimeter
G1 X100.969 Y88.313 E0.53550 ; perimeter
G1 X101.304 Y88.089 E0.54098 ; perimeter
G1 X101.589 Y87.804 E0.54646 ; perimeter
G1 X101.813 Y87.469 E0.55195 ; perimeter
G1 X101.967 Y87.097 E0.55743 ; perimeter
G1 X102.045 Y86.701 E0.56292 ; perimeter
G1 X102.045 Y86.299 E0.56840 ; perimeter
G1 X101.967 Y85.903 E0.57388 ; perimeter
