; generated by Slic3r 1.2.9 on 2017-08-04 at 21:00:06

; external perimeters extrusion width = 0.35mm
; perimeters extrusion width = 0.52mm
; infill extrusion width = 0.52mm
; solid infill extrusion width = 0.52mm
; top infill extrusion width = 0.52mm

M107 ; disable fan
G28 ; home all axes
G21 ; set units to millimeters
G90 ; use absolute coordinates
M82 ; use absolute distances for extrusion
G92 E0 ; reset extrusion distance
G1 E-0.50000 F420.00000 ; retract
G92 E0 ; reset extrusion distance
G1 Z0.200 F6000.000 ; move to next layer (0)
G1 X77.939 Y88.252 F6000.000 ; move to first skirt point
G1 E0.50000 F420.00000 ; unretract
G1 X78.495 Y87.768 E0.51003 F1800.000 ; skirt
G1 X81.652 Y85.190 E0.56550 ; skirt
G1 X82.629 Y84.548 E0.58142 ; skirt
G1 X82.795 Y84.460 E0.58398 ; skirt
G1 X82.991 Y84.358 E0.58699 ; skirt
G1 X84.060 Y83.927 E0.60268 ; skirt
G1 X88.361 Y82.745 E0.66338 ; skirt
G1 X89.628 Y82.534 E0.68087 ; skirt
G1 X90.349 Y82.501 E0.69069 ; skirt
G1 X109.651 Y82.501 E0.95342 ; skirt
G1 X110.071 Y82.514 E0.95914 ; skirt
G1 X110.370 Y82.534 E0.96322 F1800.000 ; skirt
G1 X111.640 Y82.745 E0.98074 ; skirt
G1 X115.940 Y83.927 E1.04143 ; skirt
G1 X117.009 Y84.358 E1.05713 ; skirt
G1 X117.205 Y84.460 E1.06013 ; skirt
G1 X117.371 Y84.548 E1.06269 ; skirt
G1 X118.348 Y85.190 E1.07861 ; skirt
G1 X121.669 Y87.908 E1.13702 ; skirt
G1 X122.061 Y88.252 E1.14411 ; skirt
G1 X122.535 Y88.714 E1.15312 ; skirt
G1 X122.997 Y89.212 E1.16237 ; skirt
G1 X123.419 Y89.717 E1.17132 ; skirt
G1 X123.835 Y90.269 E1.18074 ; skirt
G1 X124.191 Y90.793 E1.18936 ; skirt
G1 X124.555 Y91.391 E1.19889 ; skirt
G1 X124.848 Y91.926 E1.20718 ; skirt
G1 X125.177 Y92.607 E1.21748 ; skirt
G1 X125.402 Y93.138 E1.22533 ; skirt
G1 X125.652 Y93.806 E1.23504 ; skirt
G1 X125.822 Y94.329 E1.24252 ; skirt
G1 X126.132 Y95.525 E1.25934 ; skirt
G1 X126.340 Y96.707 E1.27567 ; skirt
G1 X126.452 Y97.868 E1.29155 ; skirt
G1 X126.481 Y98.765 E1.30377 ; skirt
G1 X126.481 Y113.202 E1.50027 ; skirt
G1 X126.084 Y115.435 E1.53114 ; skirt
G1 X124.942 Y117.395 E1.56201 ; skirt
G1 X123.195 Y118.841 E1.59289 ; skirt
G1 X120.000 Y119.683 E1.63785 ; skirt
G1 X80.000 Y119.683 E2.18230 ; skirt
G1 X77.767 Y119.286 E2.21317 ; skirt
G1 X75.807 Y118.144 E2.24404 ; skirt
G1 X74.361 Y116.396 E2.27492 ; skirt
G1 X73.519 Y113.202 E2.31988 ; skirt
G1 X73.519 Y98.765 E2.51638 ; skirt
G1 X73.548 Y97.868 E2.52860 ; skirt
G1 X73.660 Y96.707 E2.54448 ; skirt
G1 X73.736 Y96.208 E2.55135 ; skirt
G1 X73.988 Y95.011 E2.56800 ; skirt
G1 X74.178 Y94.329 E2.57763 ; skirt
G1 X74.348 Y93.807 E2.58511 ; skirt
G1 X74.598 Y93.138 E2.59483 ; skirt
G1 X74.823 Y92.607 E2.60268 ; skirt
G1 X75.152 Y91.926 E2.61297 ; skirt
G1 X75.445 Y91.391 E2.62127 ; skirt
G1 X75.809 Y90.793 E2.63080 ; skirt
G1 X76.165 Y90.270 E2.63941 ; skirt
G1 X76.580 Y89.718 E2.64881 ; skirt
G1 X77.004 Y89.212 E2.65780 ; skirt
G1 X77.465 Y88.714 E2.66704 ; skirt
G1 X77.902 Y88.289 E2.67533 ; skirt
G1 E2.17533 F420.00000 ; retract
G92 E0 ; reset extrusion distance
G1 X101.803 Y102.605 F6000.000 ; move to first perimeter point
G1 E0.50000 F420.00000 ; unretract
G1 X101.627 Y102.495 E0.50282 F2100.000 ; perimeter
G1 X101.394 Y102.686 E0.50693 ; perimeter
G1 X100.960 Y102.918 E0.51362 ; perimeter
G1 X100.490 Y103.061 E0.52032 ; perimeter
G1 X100.000 Y103.109 E0.52701 ; perimeter
G1 X99.510 Y103.061 E0.53371 ; perimeter
G1 X99.040 Y102.918 E0.54040 ; perimeter
G1 X98.606 Y102.686 E0.54710 ; perimeter
G1 X98.373 Y102.495 E0.55121 ; perimeter
G1 X98.197 Y102.605 E0.55403 ; perimeter
G1 X98.285 Y102.973 E0.55917 ; perimeter
G1 X98.387 Y103.706 E0.56926 ; perimeter
G1 X98.421 Y104.429 E0.57910 ; perimeter
G1 X98.391 Y105.106 E0.58833 ; perimeter
G1 X98.280 Y105.908 E0.59935 ; perimeter
G1 X98.116 Y106.596 E0.60898 ; perimeter
G1 X97.887 Y107.278 E0.61877 ; perimeter
G1 X97.535 Y108.057 E0.63041 ; perimeter
G1 X97.165 Y108.693 E0.64042 ; perimeter
G1 X96.678 Y109.368 E0.65175 ; perimeter
G1 X96.116 Y109.994 E0.66319 ; perimeter
G1 X95.525 Y110.528 E0.67404 ; perimeter
G1 X94.888 Y110.996 E0.68479 ; perimeter
G1 X94.215 Y111.395 E0.69545 ; perimeter
G1 X93.512 Y111.721 E0.70599 ; perimeter
G1 X92.789 Y111.975 E0.71642 ; perimeter
G1 X92.050 Y112.155 E0.72677 ; perimeter
G1 X91.302 Y112.263 E0.73706 ; perimeter
G1 X90.551 Y112.299 E0.74730 ; perimeter
G1 X89.799 Y112.263 E0.75754 ; perimeter
G1 X89.051 Y112.155 E0.76783 ; perimeter
G1 X88.313 Y111.975 E0.77818 ; perimeter
G1 X87.589 Y111.721 E0.78861 ; perimeter
G1 X86.887 Y111.395 E0.79915 ; perimeter
G1 X86.213 Y110.996 E0.80981 ; perimeter
G1 X85.577 Y110.528 E0.82056 ; perimeter
G1 X84.985 Y109.994 E0.83141 ; perimeter
G1 X84.424 Y109.368 E0.84285 ; perimeter
G1 X83.937 Y108.693 E0.85418 ; perimeter
G1 X83.567 Y108.057 E0.86419 ; perimeter
G1 X83.215 Y107.278 E0.87583 ; perimeter
G1 X82.985 Y106.596 E0.88562 ; perimeter
G1 X82.822 Y105.908 E0.89525 ; perimeter
G1 X82.711 Y105.106 E0.90627 ; perimeter
G1 X82.681 Y104.429 E0.91550 ; perimeter
G1 X82.715 Y103.706 E0.92534 ; perimeter
G1 X82.817 Y102.973 E0.93543 ; perimeter
G1 X82.993 Y102.237 E0.94573 ; perimeter
G1 X83.244 Y101.507 E0.95623 ; perimeter
G1 X83.571 Y100.794 E0.96690 ; perimeter
G1 X83.973 Y100.109 E0.97771 ; perimeter
G1 X84.446 Y99.463 E0.98862 ; perimeter
G1 X84.986 Y98.865 E0.99958 ; perimeter
G1 X85.583 Y98.326 E1.01052 ; perimeter
G1 X86.228 Y97.854 E1.02141 ; perimeter
G1 X86.912 Y97.452 E1.03220 ; perimeter
G1 X87.624 Y97.125 E1.04287 ; perimeter
G1 X88.354 Y96.873 E1.05338 ; perimeter
G1 X89.091 Y96.697 E1.06369 ; perimeter
G1 X89.825 Y96.594 E1.07379 ; perimeter
G1 X90.551 Y96.560 E1.08368 ; perimeter
G1 X91.276 Y96.593 E1.09356 ; perimeter
G1 X92.011 Y96.697 E1.10366 ; perimeter
G1 X92.748 Y96.873 E1.11398 ; perimeter
G1 X93.478 Y97.125 E1.12449 ; perimeter
G1 X94.190 Y97.452 E1.13515 ; perimeter
G1 X94.874 Y97.854 E1.14595 ; perimeter
G1 X95.519 Y98.326 E1.15683 ; perimeter
G1 X96.116 Y98.865 E1.16777 ; perimeter
G1 X96.656 Y99.463 E1.17874 ; perimeter
G1 X97.129 Y100.109 E1.18965 ; perimeter
G1 X97.309 Y100.415 E1.19447 ; perimeter
G1 X97.513 Y100.370 E1.19733 ; perimeter
G1 X97.539 Y100.110 E1.20088 ; perimeter
G1 X97.682 Y99.640 E1.20758 ; perimeter
G1 X97.914 Y99.206 E1.21427 ; perimeter
G1 X98.226 Y98.826 E1.22097 ; perimeter
G1 X98.606 Y98.514 E1.22766 ; perimeter
G1 X99.040 Y98.282 E1.23436 ; perimeter
G1 X99.510 Y98.139 E1.24105 ; perimeter
G1 X99.934 Y98.097 E1.24684 ; perimeter
G1 X100.482 Y98.137 E1.25433 ; perimeter
G1 X100.960 Y98.282 E1.26113 ; perimeter
G1 X101.394 Y98.514 E1.26782 ; perimeter
G1 X101.774 Y98.826 E1.27452 ; perimeter
G1 X102.086 Y99.206 E1.28121 ; perimeter
G1 X102.318 Y99.640 E1.28791 ; perimeter
G1 X102.461 Y100.110 E1.29461 ; perimeter
G1 X102.487 Y100.370 E1.29816 ; perimeter
G1 X102.691 Y100.415 E1.30101 ; perimeter
G1 X102.871 Y100.109 E1.30584 ; perimeter
G1 X103.344 Y99.463 E1.31675 ; perimeter
G1 X103.884 Y98.865 E1.32771 ; perimeter
G1 X104.481 Y98.326 E1.33865 ; perimeter
G1 X105.126 Y97.854 E1.34954 ; perimeter
G1 X105.810 Y97.452 E1.36033 ; perimeter
G1 X106.522 Y97.125 E1.37100 ; perimeter
G1 X107.252 Y96.873 E1.38151 ; perimeter
G1 X107.989 Y96.697 E1.39182 ; perimeter
G1 X108.723 Y96.594 E1.40192 ; perimeter
G1 X109.449 Y96.560 E1.41181 ; perimeter
G1 X110.174 Y96.593 E1.42169 ; perimeter
G1 X110.909 Y96.697 E1.43179 ; perimeter
G1 X111.646 Y96.873 E1.44211 ; perimeter
G1 X112.376 Y97.125 E1.45262 ; perimeter
G1 X113.088 Y97.452 E1.46328 ; perimeter
G1 X113.772 Y97.854 E1.47408 ; perimeter
G1 X114.417 Y98.326 E1.48496 ; perimeter
G1 X115.014 Y98.865 E1.49590 ; perimeter
G1 X115.554 Y99.463 E1.50687 ; perimeter
G1 X116.027 Y100.109 E1.51778 ; perimeter
G1 X116.429 Y100.794 E1.52859 ; perimeter
G1 X116.756 Y101.507 E1.53926 ; perimeter
G1 X117.007 Y102.237 E1.54976 ; perimeter
G1 X117.183 Y102.973 E1.56006 ; perimeter
G1 X117.285 Y103.706 E1.57014 ; perimeter
G1 X117.319 Y104.429 E1.57999 ; perimeter
G1 X117.289 Y105.106 E1.58921 ; perimeter
G1 X117.178 Y105.908 E1.60023 ; perimeter
G1 X117.015 Y106.596 E1.60987 ; perimeter
G1 X116.785 Y107.278 E1.61965 ; perimeter
G1 X116.433 Y108.057 E1.63130 ; perimeter
G1 X116.063 Y108.693 E1.64130 ; perimeter
G1 X115.576 Y109.368 E1.65264 ; perimeter
G1 X115.015 Y109.994 E1.66408 ; perimeter
G1 X114.423 Y110.528 E1.67492 ; perimeter
G1 X113.787 Y110.996 E1.68568 ; perimeter
G1 X113.113 Y111.395 E1.69633 ; perimeter
G1 X112.411 Y111.721 E1.70688 ; perimeter
G1 X111.687 Y111.975 E1.71731 ; perimeter
G1 X110.949 Y112.155 E1.72766 ; perimeter
G1 X110.200 Y112.263 E1.73795 ; perimeter
G1 X109.449 Y112.299 E1.74819 ; perimeter
G1 X108.698 Y112.263 E1.75843 ; perimeter
G1 X107.950 Y112.155 E1.76871 ; perimeter
G1 X107.211 Y111.975 E1.77906 ; perimeter
G1 X106.488 Y111.721 E1.78950 ; perimeter
G1 X105.785 Y111.395 E1.80004 ; perimeter
G1 X105.112 Y110.996 E1.81069 ; perimeter
G1 X104.475 Y110.528 E1.82145 ; perimeter
G1 X103.884 Y109.994 E1.83229 ; perimeter
G1 X103.322 Y109.368 E1.84373 ; perimeter
G1 X102.835 Y108.693 E1.85507 ; perimeter
G1 X102.465 Y108.057 E1.86508 ; perimeter
G1 X102.113 Y107.278 E1.87672 ; perimeter
G1 X101.883 Y106.596 E1.88651 ; perimeter
G1 X101.720 Y105.908 E1.89614 ; perimeter
G1 X101.609 Y105.106 E1.90716 ; perimeter
G1 X101.579 Y104.429 E1.91639 ; perimeter
G1 X101.613 Y103.706 E1.92623 ; perimeter
G1 X101.715 Y102.973 E1.93631 ; perimeter
G1 X101.791 Y102.656 E1.94074 ; perimeter
G1 E1.44074 F420.00000 ; retract
G92 E0 ; reset extrusion distance
G1 X97.911 Y103.150 F6000.000 ; move to first perimeter point
G1 E0.50000 F420.00000 ; unretract
G1 X97.994 Y103.743 E0.50520 F1050.000 ; perimeter
G1 X98.026 Y104.429 E0.51117 ; perimeter
G1 X97.998 Y105.070 E0.51675 ; perimeter
G1 X97.892 Y105.835 E0.52346 ; perimeter
G1 X97.737 Y106.488 E0.52929 ; perimeter
G1 X97.519 Y107.133 E0.53521 ; perimeter
G1 X97.184 Y107.877 E0.54229 ; perimeter
G1 X96.834 Y108.478 E0.54834 ; perimeter
G1 X96.371 Y109.121 E0.55522 ; perimeter
G1 X95.837 Y109.715 E0.56216 ; perimeter
G1 X95.276 Y110.222 E0.56873 ; perimeter
G1 X94.671 Y110.667 E0.57526 ; perimeter
G1 X94.031 Y111.046 E0.58172 ; perimeter
G1 X93.364 Y111.356 E0.58811 ; perimeter
G1 X92.677 Y111.596 E0.59443 ; perimeter
G1 X91.975 Y111.768 E0.60071 ; perimeter
G1 X91.265 Y111.871 E0.60695 ; perimeter
G1 X90.551 Y111.905 E0.61316 ; perimeter
G1 X89.837 Y111.871 E0.61936 ; perimeter
G1 X89.127 Y111.768 E0.62560 ; perimeter
G1 X88.425 Y111.596 E0.63188 ; perimeter
G1 X87.738 Y111.356 E0.63820 ; perimeter
G1 X87.071 Y111.046 E0.64460 ; perimeter
G1 X86.431 Y110.667 E0.65106 ; perimeter
G1 X85.826 Y110.222 E0.65758 ; perimeter
G1 X85.265 Y109.715 E0.66415 ; perimeter
G1 X84.731 Y109.121 E0.67109 ; perimeter
G1 X84.268 Y108.478 E0.67797 ; perimeter
G1 X83.918 Y107.877 E0.68402 ; perimeter
G1 X83.582 Y107.133 E0.69111 ; perimeter
G1 X83.364 Y106.488 E0.69703 ; perimeter
G1 X83.209 Y105.835 E0.70286 ; perimeter
G1 X83.103 Y105.070 E0.70956 ; perimeter
G1 X83.076 Y104.429 E0.71514 ; perimeter
G1 X83.107 Y103.743 E0.72111 ; perimeter
G1 X83.205 Y103.046 E0.72722 ; perimeter
G1 X83.372 Y102.347 E0.73347 ; perimeter
G1 X83.610 Y101.654 E0.73984 ; perimeter
G1 X83.921 Y100.977 E0.74631 ; perimeter
G1 X84.302 Y100.326 E0.75286 ; perimeter
G1 X84.752 Y99.712 E0.75948 ; perimeter
G1 X85.265 Y99.144 E0.76613 ; perimeter
G1 X85.832 Y98.632 E0.77276 ; perimeter
G1 X86.445 Y98.183 E0.77936 ; perimeter
G1 X87.094 Y97.802 E0.78590 ; perimeter
G1 X87.770 Y97.491 E0.79237 ; perimeter
G1 X88.464 Y97.252 E0.79875 ; perimeter
G1 X89.164 Y97.084 E0.80500 ; perimeter
G1 X89.862 Y96.986 E0.81113 ; perimeter
G1 X90.121 Y96.974 E0.81338 ; perimeter
G1 X90.551 Y96.954 E0.81712 F1050.000 ; perimeter
G1 X91.240 Y96.986 E0.82311 ; perimeter
G1 X91.938 Y97.084 E0.82923 ; perimeter
G1 X92.638 Y97.252 E0.83549 ; perimeter
G1 X93.331 Y97.491 E0.84186 ; perimeter
G1 X94.008 Y97.802 E0.84833 ; perimeter
G1 X94.657 Y98.183 E0.85487 ; perimeter
G1 X95.270 Y98.632 E0.86147 ; perimeter
G1 X95.837 Y99.144 E0.86811 ; perimeter
G1 X96.350 Y99.712 E0.87476 ; perimeter
G1 X96.799 Y100.326 E0.88137 ; perimeter
G1 X97.181 Y100.977 E0.88792 ; perimeter
G1 X97.492 Y101.654 E0.89440 ; perimeter
G1 X97.730 Y102.347 E0.90076 ; perimeter
G1 X97.904 Y103.098 E0.90746 ; perimeter
G1 X98.239 Y103.272 F6000.000 ; move inwards before travel
G1 X98.668 Y102.228 F6000.000 ; move to first perimeter point
G1 X98.506 Y102.094 E0.90929 F1500.000 ; perimeter
G1 X98.243 Y101.774 E0.91289 ; perimeter
G1 X98.048 Y101.409 E0.91649 ; perimeter
G1 X97.927 Y101.012 E0.92009 ; perimeter
G1 X97.887 Y100.600 E0.92369 ; perimeter
G1 X97.927 Y100.188 E0.92729 ; perimeter
G1 X98.048 Y99.791 E0.93089 ; perimeter
G1 X98.243 Y99.426 E0.93449 ; perimeter
G1 X98.506 Y99.106 E0.93809 ; perimeter
G1 X98.826 Y98.843 E0.94168 ; perimeter
G1 X99.191 Y98.648 E0.94528 ; perimeter
G1 X99.588 Y98.527 E0.94888 ; perimeter
G1 X99.939 Y98.493 E0.95195 F1500.000 ; perimeter
G1 X100.410 Y98.527 E0.95605 ; perimeter
G1 X100.809 Y98.648 E0.95967 ; perimeter
G1 X101.174 Y98.843 E0.96327 ; perimeter
G1 X101.494 Y99.106 E0.96687 ; perimeter
G1 X101.757 Y99.426 E0.97047 ; perimeter
G1 X101.952 Y99.791 E0.97407 ; perimeter
G1 X102.073 Y100.188 E0.97767 ; perimeter
G1 X102.113 Y100.600 E0.98127 ; perimeter
G1 X102.073 Y101.012 E0.98487 ; perimeter
G1 X101.952 Y101.409 E0.98847 ; perimeter
G1 X101.757 Y101.774 E0.99207 ; perimeter
G1 X101.494 Y102.094 E0.99567 ; perimeter
G1 X101.174 Y102.357 E0.99927 ; perimeter
G1 X100.809 Y102.552 E1.00287 ; perimeter
G1 X100.412 Y102.673 E1.00647 ; perimeter
G1 X100.000 Y102.713 E1.01007 ; perimeter
G1 X99.588 Y102.673 E1.01367 ; perimeter
G1 X99.191 Y102.552 E1.01727 ; perimeter
G1 X98.826 Y102.357 E1.02087 ; perimeter
G1 X98.709 Y102.261 E1.02218 ; perimeter
G1 X98.471 Y102.302 F6000.000 ; move inwards before travel
G1 E0.52218 F420.00000 ; retract
G92 E0 ; reset extrusion distance
G1 X102.103 Y103.046 F6000.000 ; move to first perimeter point
G1 E0.50000 F420.00000 ; unretract
G1 X102.270 Y102.347 E0.50625 F1050.000 ; perimeter
G1 X102.508 Y101.654 E0.51261 ; perimeter
G1 X102.819 Y100.977 E0.51908 ; perimeter
G1 X103.201 Y100.326 E0.52564 ; perimeter
G1 X103.650 Y99.712 E0.53225 ; perimeter
G1 X104.163 Y99.144 E0.53890 ; perimeter
G1 X104.730 Y98.632 E0.54554 ; perimeter
G1 X105.343 Y98.183 E0.55214 ; perimeter
G1 X105.992 Y97.802 E0.55868 ; perimeter
G1 X106.669 Y97.491 E0.56515 ; perimeter
G1 X107.362 Y97.252 E0.57152 ; perimeter
G1 X108.062 Y97.084 E0.57778 ; perimeter
G1 X108.760 Y96.986 E0.58390 ; perimeter
G1 X109.019 Y96.974 E0.58616 ; perimeter
G1 X109.449 Y96.954 E0.58989 F1050.000 ; perimeter
G1 X110.138 Y96.986 E0.59588 ; perimeter
G1 X110.836 Y97.084 E0.60201 ; perimeter
G1 X111.536 Y97.252 E0.60826 ; perimeter
G1 X112.230 Y97.491 E0.61464 ; perimeter
G1 X112.906 Y97.802 E0.62110 ; perimeter
G1 X113.555 Y98.183 E0.62765 ; perimeter
G1 X114.168 Y98.632 E0.63425 ; perimeter
G1 X114.735 Y99.144 E0.64088 ; perimeter
G1 X115.248 Y99.712 E0.64753 ; perimeter
G1 X115.697 Y100.326 E0.65415 ; perimeter
G1 X116.079 Y100.977 E0.66070 ; perimeter
G1 X116.390 Y101.654 E0.66717 ; perimeter
G1 X116.628 Y102.347 E0.67354 ; perimeter
G1 X116.795 Y103.046 E0.67979 ; perimeter
G1 X116.893 Y103.743 E0.68590 ; perimeter
G1 X116.924 Y104.429 E0.69187 ; perimeter
G1 X116.896 Y105.070 E0.69745 ; perimeter
G1 X116.791 Y105.835 E0.70415 ; perimeter
G1 X116.635 Y106.488 E0.70998 ; perimeter
G1 X116.418 Y107.133 E0.71590 ; perimeter
G1 X116.082 Y107.877 E0.72299 ; perimeter
G1 X115.732 Y108.478 E0.72904 ; perimeter
G1 X115.269 Y109.121 E0.73592 ; perimeter
G1 X114.735 Y109.715 E0.74286 ; perimeter
G1 X114.174 Y110.222 E0.74943 ; perimeter
G1 X113.569 Y110.667 E0.75595 ; perimeter
G1 X112.929 Y111.046 E0.76241 ; perimeter
G1 X112.262 Y111.356 E0.76881 ; perimeter
G1 X111.575 Y111.596 E0.77513 ; perimeter
G1 X110.873 Y111.768 E0.78141 ; perimeter
G1 X110.163 Y111.871 E0.78764 ; perimeter
G1 X109.449 Y111.905 E0.79385 ; perimeter
G1 X108.735 Y111.871 E0.80006 ; perimeter
G1 X108.025 Y111.768 E0.80630 ; perimeter
