; generated by Slic3r 1.2.9 on 2017-06-09 at 14:46:55

; external perimeters extrusion width = 0.35mm
; perimeters extrusion width = 0.52mm
; infill extrusion width = 0.52mm
; solid infill extrusion width = 0.52mm
; top infill extrusion width = 0.52mm

M107 ; disable fan
G28 ; home all axes
G21 ; set units to millimeters
G90 ; use absolute coordinates
M82 ; use absolute distances for extrusion
G92 E0 ; reset extrusion distance
G1 E-0.50000 F420.00000 ; retract
G92 E0 ; reset extrusion distance
G1 Z0.200 F6000.000 ; move to next layer (0)
G1 X58.440 Y67.597 F6000.000 ; move to first skirt point
G1 E0.50000 F420.00000 ; unretract
G1 X58.850 Y67.262 E0.50720 F1800.000 ; skirt
G1 X59.178 Y67.024 E0.51272 ; skirt
G1 X59.631 Y66.731 E0.52006 ; skirt
G1 X60.203 Y66.417 E0.52893 ; skirt
G1 X60.576 Y66.242 E0.53455 ; skirt
G1 X61.071 Y66.042 E0.54182 ; skirt
G1 X61.691 Y65.840 E0.55070 ; skirt
G1 X62.089 Y65.738 E0.55628 ; skirt
G1 X62.611 Y65.634 E0.56352 ; skirt
G1 X63.261 Y65.552 E0.57244 ; skirt
G1 X63.799 Y65.522 E0.57978 ; skirt
G1 X136.190 Y65.522 E1.56510 ; skirt
G1 X136.864 Y65.564 E1.57430 F1800.000 ; skirt
G1 X137.386 Y65.634 E1.58146 ; skirt
G1 X137.788 Y65.710 E1.58704 ; skirt
G1 X138.429 Y65.875 E1.59604 ; skirt
G1 X138.929 Y66.042 E1.60321 ; skirt
G1 X139.308 Y66.192 E1.60877 ; skirt
G1 X139.909 Y66.474 E1.61780 ; skirt
G1 X140.368 Y66.731 E1.62495 ; skirt
G1 X140.718 Y66.953 E1.63060 ; skirt
G1 X141.150 Y67.262 E1.63783 ; skirt
G1 X141.552 Y67.590 E1.64490 ; skirt
G1 X142.040 Y68.048 E1.65400 ; skirt
G1 X142.321 Y68.346 E1.65957 ; skirt
G1 X142.661 Y68.751 E1.66677 ; skirt
G1 X143.054 Y69.293 E1.67589 ; skirt
G1 X143.525 Y70.091 E1.68850 ; skirt
G1 X143.808 Y70.692 E1.69754 ; skirt
G1 X143.958 Y71.071 E1.70309 ; skirt
G1 X144.125 Y71.571 E1.71026 ; skirt
G1 X144.294 Y72.231 E1.71953 ; skirt
G1 X144.436 Y73.135 E1.73200 ; skirt
G1 X144.481 Y74.000 E1.74378 ; skirt
G1 X144.481 Y126.000 E2.45156 ; skirt
G1 X144.448 Y126.740 E2.46164 ; skirt
G1 X144.386 Y127.262 E2.46879 ; skirt
G1 X144.262 Y127.911 E2.47779 ; skirt
G1 X144.160 Y128.308 E2.48337 ; skirt
G1 X144.001 Y128.811 E2.49055 ; skirt
G1 X143.757 Y129.428 E2.49958 ; skirt
G1 X143.518 Y129.924 E2.50708 ; skirt
G1 X143.047 Y130.718 E2.51964 ; skirt
G1 X142.661 Y131.249 E2.52858 ; skirt
G1 X142.053 Y131.939 E2.54110 ; skirt
G1 X141.654 Y132.320 E2.54861 ; skirt
G1 X141.150 Y132.738 E2.55751 ; skirt
G1 X140.718 Y133.047 E2.56475 ; skirt
G1 X140.368 Y133.269 E2.57039 ; skirt
G1 X139.797 Y133.583 E2.57925 ; skirt
G1 X139.308 Y133.808 E2.58658 ; skirt
G1 X138.929 Y133.958 E2.59213 ; skirt
G1 X138.430 Y134.125 E2.59929 ; skirt
G1 X137.788 Y134.290 E2.60831 ; skirt
G1 X137.385 Y134.366 E2.61390 ; skirt
G1 X136.868 Y134.436 E2.62100 ; skirt
G1 X136.201 Y134.478 E2.63009 ; skirt
G1 X63.799 Y134.478 E3.61557 ; skirt
G1 X63.261 Y134.448 E3.62290 ; skirt
G1 X62.614 Y134.366 E3.63177 ; skirt
G1 X62.212 Y134.290 E3.63735 ; skirt
G1 X61.693 Y134.160 E3.64463 ; skirt
G1 X61.071 Y133.958 E3.65353 ; skirt
G1 X60.692 Y133.808 E3.65908 ; skirt
G1 X60.210 Y133.587 E3.66629 ; skirt
G1 X59.632 Y133.269 E3.67527 ; skirt
G1 X59.178 Y132.976 E3.68262 ; skirt
G1 X58.850 Y132.737 E3.68815 ; skirt
G1 X58.440 Y132.403 E3.69534 ; skirt
G1 X57.959 Y131.952 E3.70432 ; skirt
G1 X57.596 Y131.560 E3.71160 ; skirt
G1 X57.262 Y131.150 E3.71879 ; skirt
G1 X56.953 Y130.718 E3.72602 ; skirt
G1 X56.731 Y130.367 E3.73167 ; skirt
G1 X56.474 Y129.909 E3.73882 ; skirt
G1 X56.242 Y129.424 E3.74615 ; skirt
G1 X56.042 Y128.929 E3.75341 ; skirt
G1 X55.875 Y128.429 E3.76058 ; skirt
G1 X55.709 Y127.783 E3.76966 ; skirt
G1 X55.634 Y127.386 E3.77516 ; skirt
G1 X55.564 Y126.865 E3.78232 ; skirt
G1 X55.519 Y126.000 E3.79411 ; skirt
G1 X55.526 Y73.673 E4.50633 ; skirt
G1 X55.552 Y73.261 E4.51196 ; skirt
G1 X55.614 Y72.738 E4.51912 ; skirt
G1 X55.738 Y72.089 E4.52812 ; skirt
G1 X55.875 Y71.571 E4.53541 ; skirt
G1 X56.042 Y71.071 E4.54258 ; skirt
G1 X56.242 Y70.576 E4.54985 ; skirt
G1 X56.417 Y70.203 E4.55547 ; skirt
G1 X56.731 Y69.633 E4.56432 ; skirt
G1 X56.953 Y69.282 E4.56997 ; skirt
G1 X57.262 Y68.850 E4.57720 ; skirt
G1 X57.684 Y68.342 E4.58619 ; skirt
G1 X58.048 Y67.959 E4.59338 ; skirt
G1 X58.401 Y67.631 E4.59993 ; skirt
G1 E4.09993 F420.00000 ; retract
G92 E0 ; reset extrusion distance
G1 X113.569 Y126.819 F6000.000 ; move to first perimeter point
G1 E0.50000 F420.00000 ; unretract
G1 X112.857 Y126.819 E0.50969 F2100.000 ; perimeter
G1 X112.579 Y126.961 E0.51395 ; perimeter
G1 X112.294 Y127.044 E0.51798 ; perimeter
G1 X112.027 Y127.069 E0.52164 ; perimeter
G1 X87.973 Y127.069 E0.84903 ; perimeter
G1 X87.706 Y127.044 E0.85269 ; perimeter
G1 X87.421 Y126.961 E0.85672 ; perimeter
G1 X87.143 Y126.819 E0.86098 ; perimeter
G1 X86.431 Y126.819 E0.87066 ; perimeter
G1 X86.431 Y119.955 E0.96409 ; perimeter
G1 X86.500 Y119.522 E0.97006 ; perimeter
G1 X86.671 Y119.157 E0.97555 ; perimeter
G1 X86.923 Y118.853 E0.98092 ; perimeter
G1 X87.234 Y118.626 E0.98617 ; perimeter
G1 X87.523 Y118.502 E0.99044 ; perimeter
G1 X87.883 Y118.433 E0.99544 ; perimeter
G1 X95.432 Y118.431 E1.09818 ; perimeter
G1 X95.439 Y111.812 E1.18828 ; perimeter
G1 X95.505 Y111.514 E1.19242 ; perimeter
G1 X95.630 Y111.226 E1.19669 ; perimeter
G1 X95.910 Y110.865 E1.20291 ; perimeter
G1 X96.158 Y110.673 E1.20718 ; perimeter
G1 X96.421 Y110.539 E1.21121 ; perimeter
G1 X96.706 Y110.456 E1.21523 ; perimeter
G1 X96.973 Y110.431 E1.21889 ; perimeter
G1 X103.117 Y110.433 E1.30251 ; perimeter
G1 X103.477 Y110.502 E1.30751 ; perimeter
G1 X103.757 Y110.623 E1.31166 ; perimeter
G1 X104.002 Y110.789 E1.31569 ; perimeter
G1 X104.211 Y110.998 E1.31971 ; perimeter
G1 X104.377 Y111.243 E1.32374 ; perimeter
G1 X104.502 Y111.531 E1.32801 ; perimeter
G1 X104.569 Y111.955 E1.33386 ; perimeter
G1 X104.569 Y118.431 E1.42200 ; perimeter
G1 X112.027 Y118.431 E1.52351 ; perimeter
G1 X112.294 Y118.456 E1.52717 ; perimeter
G1 X112.579 Y118.539 E1.53119 ; perimeter
G1 X112.842 Y118.673 E1.53522 ; perimeter
G1 X113.076 Y118.854 E1.53924 ; perimeter
G1 X113.271 Y119.076 E1.54327 ; perimeter
G1 X113.422 Y119.331 E1.54730 ; perimeter
G1 X113.522 Y119.609 E1.55132 ; perimeter
G1 X113.567 Y119.892 E1.55523 ; perimeter
G1 X113.569 Y126.767 E1.64879 ; perimeter
G1 X113.175 Y126.425 F6000.000 ; move to first perimeter point
G1 X112.719 Y126.425 E1.65275 F1050.000 ; perimeter
G1 X112.629 Y126.493 E1.65374 ; perimeter
G1 X112.433 Y126.593 E1.65565 ; perimeter
G1 X112.220 Y126.655 E1.65757 ; perimeter
G1 X112.008 Y126.675 E1.65942 ; perimeter
G1 X87.992 Y126.675 E1.86809 ; perimeter
G1 X87.780 Y126.655 E1.86994 ; perimeter
G1 X87.567 Y126.593 E1.87187 ; perimeter
G1 X87.371 Y126.493 E1.87378 ; perimeter
G1 X87.281 Y126.425 E1.87476 ; perimeter
G1 X86.825 Y126.425 E1.87872 ; perimeter
G1 X86.825 Y119.986 E1.93467 ; perimeter
G1 X86.880 Y119.639 E1.93772 ; perimeter
G1 X87.007 Y119.370 E1.94031 ; perimeter
G1 X87.195 Y119.142 E1.94287 ; perimeter
G1 X87.431 Y118.971 E1.94541 ; perimeter
G1 X87.639 Y118.881 E1.94738 ; perimeter
G1 X87.921 Y118.827 E1.94987 ; perimeter
G1 X95.825 Y118.825 E2.01855 ; perimeter
G1 X95.833 Y111.855 E2.07910 ; perimeter
G1 X95.882 Y111.637 E2.08105 ; perimeter
G1 X95.972 Y111.428 E2.08302 ; perimeter
G1 X96.191 Y111.146 E2.08612 ; perimeter
G1 X96.370 Y111.007 E2.08809 ; perimeter
G1 X96.567 Y110.907 E2.09002 ; perimeter
G1 X96.780 Y110.845 E2.09194 ; perimeter
G1 X96.992 Y110.825 E2.09379 ; perimeter
G1 X103.079 Y110.827 E2.14668 ; perimeter
G1 X103.361 Y110.881 E2.14917 ; perimeter
G1 X103.566 Y110.970 E2.15112 ; perimeter
G1 X103.749 Y111.094 E2.15304 ; perimeter
G1 X103.906 Y111.251 E2.15497 ; perimeter
G1 X104.030 Y111.434 E2.15689 ; perimeter
G1 X104.120 Y111.642 E2.15886 ; perimeter
G1 X104.175 Y111.986 E2.16189 ; perimeter
G1 X104.175 Y118.825 E2.22131 ; perimeter
G1 X112.008 Y118.825 E2.28937 ; perimeter
G1 X112.220 Y118.845 E2.29122 ; perimeter
G1 X112.433 Y118.907 E2.29314 ; perimeter
G1 X112.630 Y119.007 E2.29506 ; perimeter
G1 X112.805 Y119.143 E2.29699 ; perimeter
G1 X112.951 Y119.309 E2.29891 ; perimeter
G1 X113.064 Y119.499 E2.30083 ; perimeter
G1 X113.139 Y119.708 E2.30276 ; perimeter
G1 X113.173 Y119.923 E2.30465 ; perimeter
G1 X113.175 Y126.372 E2.36069 ; perimeter
G1 X113.175 Y126.775 F6000.000 ; move inwards before travel
G1 E1.86069 F420.00000 ; retract
G92 E0 ; reset extrusion distance
G1 X111.545 Y109.569 F6000.000 ; move to first perimeter point
G1 E0.50000 F420.00000 ; unretract
G1 X88.455 Y109.569 E0.81427 F2100.000 ; perimeter
G1 X88.013 Y109.499 E0.82037 ; perimeter
G1 X87.582 Y109.279 E0.82696 ; perimeter
G1 X87.281 Y108.997 E0.83257 ; perimeter
G1 X87.039 Y108.588 E0.83904 ; perimeter
G1 X86.939 Y108.197 E0.84453 ; perimeter
G1 X86.933 Y101.893 E0.93034 ; perimeter
G1 X86.978 Y101.609 E0.93425 ; perimeter
G1 X87.078 Y101.331 E0.93828 ; perimeter
G1 X87.229 Y101.076 E0.94230 ; perimeter
G1 X87.424 Y100.854 E0.94633 ; perimeter
G1 X87.658 Y100.673 E0.95035 ; perimeter
G1 X87.921 Y100.539 E0.95438 ; perimeter
G1 X88.205 Y100.456 E0.95841 ; perimeter
G1 X88.473 Y100.431 E0.96207 ; perimeter
G1 X111.545 Y100.431 E1.27610 F2100.000 ; perimeter
G1 X111.987 Y100.501 E1.28219 ; perimeter
G1 X112.426 Y100.725 E1.28890 ; perimeter
G1 X112.775 Y101.074 E1.29561 ; perimeter
G1 X112.995 Y101.505 E1.30220 ; perimeter
G1 X113.067 Y101.883 E1.30745 ; perimeter
G1 X113.069 Y108.045 E1.39131 ; perimeter
G1 X112.999 Y108.487 E1.39741 ; perimeter
G1 X112.775 Y108.926 E1.40412 ; perimeter
G1 X112.426 Y109.275 E1.41083 ; perimeter
G1 X111.987 Y109.499 E1.41754 ; perimeter
G1 X111.597 Y109.561 E1.42292 ; perimeter
G1 X111.514 Y109.175 F6000.000 ; move to first perimeter point
G1 X88.486 Y109.175 E1.62300 F1050.000 ; perimeter
G1 X88.136 Y109.120 E1.62608 ; perimeter
G1 X87.811 Y108.954 E1.62925 ; perimeter
G1 X87.592 Y108.748 E1.63187 ; perimeter
G1 X87.407 Y108.436 E1.63502 ; perimeter
G1 X87.333 Y108.148 E1.63760 ; perimeter
G1 X87.327 Y101.924 E1.69168 ; perimeter
G1 X87.361 Y101.708 E1.69358 ; perimeter
G1 X87.436 Y101.499 E1.69550 ; perimeter
G1 X87.549 Y101.309 E1.69742 ; perimeter
G1 X87.695 Y101.143 E1.69935 ; perimeter
G1 X87.870 Y101.007 E1.70127 ; perimeter
G1 X88.067 Y100.907 E1.70319 ; perimeter
G1 X88.280 Y100.845 E1.70512 ; perimeter
G1 X88.492 Y100.825 E1.70697 ; perimeter
G1 X111.514 Y100.825 E1.90700 F1050.000 ; perimeter
G1 X111.864 Y100.880 E1.91007 ; perimeter
G1 X112.192 Y101.048 E1.91327 ; perimeter
G1 X112.452 Y101.308 E1.91647 ; perimeter
G1 X112.618 Y101.634 E1.91965 ; perimeter
G1 X112.673 Y101.921 E1.92219 ; perimeter
G1 X112.675 Y108.014 E1.97513 ; perimeter
G1 X112.620 Y108.364 E1.97821 ; perimeter
G1 X112.452 Y108.692 E1.98141 ; perimeter
G1 X112.192 Y108.952 E1.98461 ; perimeter
G1 X111.864 Y109.120 E1.98781 ; perimeter
G1 X111.566 Y109.167 E1.99043 ; perimeter
G1 X111.355 Y109.487 F6000.000 ; move inwards before travel
G1 E1.49043 F420.00000 ; retract
G92 E0 ; reset extrusion distance
G1 X101.111 Y99.111 F6000.000 ; move to first perimeter point
G1 E0.50000 F420.00000 ; unretract
G1 X100.873 Y99.307 E0.50419 F1500.000 ; perimeter
G1 X100.602 Y99.452 E0.50839 ; perimeter
G1 X100.307 Y99.542 E0.51258 ; perimeter
G1 X100.000 Y99.572 E0.51678 ; perimeter
G1 X99.693 Y99.542 E0.52097 ; perimeter
G1 X99.398 Y99.452 E0.52516 ; perimeter
G1 X99.127 Y99.307 E0.52936 ; perimeter
G1 X98.889 Y99.111 E0.53355 ; perimeter
G1 X98.693 Y98.873 E0.53775 ; perimeter
G1 X98.548 Y98.601 E0.54194 ; perimeter
G1 X98.458 Y98.307 E0.54613 ; perimeter
G1 X98.428 Y98.000 E0.55033 ; perimeter
G1 X98.458 Y97.693 E0.55452 ; perimeter
G1 X98.548 Y97.399 E0.55872 ; perimeter
G1 X98.693 Y97.127 E0.56291 ; perimeter
G1 X98.889 Y96.889 E0.56710 ; perimeter
G1 X99.127 Y96.693 E0.57130 ; perimeter
G1 X99.398 Y96.548 E0.57549 ; perimeter
G1 X99.693 Y96.458 E0.57968 ; perimeter
G1 X99.994 Y96.428 E0.58379 F1500.000 ; perimeter
G1 X100.306 Y96.458 E0.58806 ; perimeter
G1 X100.602 Y96.548 E0.59227 ; perimeter
G1 X100.873 Y96.693 E0.59646 ; perimeter
G1 X101.111 Y96.889 E0.60066 ; perimeter
G1 X101.307 Y97.127 E0.60485 ; perimeter
G1 X101.452 Y97.398 E0.60904 ; perimeter
G1 X101.542 Y97.693 E0.61324 ; perimeter
G1 X101.572 Y98.000 E0.61743 ; perimeter
G1 X101.542 Y98.307 E0.62163 ; perimeter
G1 X101.452 Y98.601 E0.62582 ; perimeter
G1 X101.307 Y98.873 E0.63001 ; perimeter
G1 X101.145 Y99.071 E0.63349 ; perimeter
G1 X100.831 Y98.831 F6000.000 ; move to first perimeter point
G1 X100.653 Y98.978 E0.63550 F1500.000 ; perimeter
G1 X100.450 Y99.086 E0.63750 ; perimeter
G1 X100.229 Y99.153 E0.63950 ; perimeter
G1 X100.000 Y99.176 E0.64150 ; perimeter
G1 X99.771 Y99.153 E0.64351 ; perimeter
G1 X99.550 Y99.086 E0.64551 ; perimeter
G1 X99.347 Y98.978 E0.64751 ; perimeter
G1 X99.169 Y98.831 E0.64952 ; perimeter
G1 X99.022 Y98.653 E0.65152 ; perimeter
G1 X98.914 Y98.450 E0.65352 ; perimeter
G1 X98.847 Y98.229 E0.65552 ; perimeter
G1 X98.824 Y98.000 E0.65753 ; perimeter
G1 X98.847 Y97.771 E0.65953 ; perimeter
G1 X98.914 Y97.550 E0.66153 ; perimeter
G1 X99.022 Y97.347 E0.66353 ; perimeter
G1 X99.169 Y97.169 E0.66554 ; perimeter
G1 X99.347 Y97.022 E0.66754 ; perimeter
G1 X99.550 Y96.914 E0.66954 ; perimeter
G1 X99.770 Y96.847 E0.67154 ; perimeter
G1 X99.995 Y96.824 E0.67350 F1500.000 ; perimeter
G1 X100.229 Y96.847 E0.67555 ; perimeter
G1 X100.450 Y96.914 E0.67755 ; perimeter
G1 X100.653 Y97.022 E0.67956 ; perimeter
G1 X100.831 Y97.169 E0.68156 ; perimeter
G1 X100.978 Y97.347 E0.68356 ; perimeter
G1 X101.086 Y97.550 E0.68556 ; perimeter
G1 X101.153 Y97.771 E0.68757 ; perimeter
G1 X101.176 Y98.000 E0.68957 ; perimeter
G1 X101.153 Y98.229 E0.69157 ; perimeter
G1 X101.086 Y98.450 E0.69358 ; perimeter
G1 X100.978 Y98.653 E0.69558 ; perimeter
G1 X100.865 Y98.791 E0.69712 ; perimeter
G1 X100.884 Y99.056 F6000.000 ; move inwards before travel
G1 E0.19712 F420.00000 ; retract
G92 E0 ; reset extrusion distance
G1 X100.831 Y95.569 F6000.000 ; move to first perimeter point
G1 E0.50000 F420.00000 ; unretract
G1 X98.964 Y95.569 E0.52542 F1500.000 ; perimeter
G1 X98.600 Y95.523 E0.53042 ; perimeter
G1 X98.164 Y95.334 E0.53688 ; perimeter
G1 X97.846 Y95.071 E0.54250 ; perimeter
G1 X97.579 Y94.679 E0.54896 ; perimeter
G1 X97.457 Y94.303 E0.55433 ; perimeter
G1 X97.431 Y94.027 E0.55811 ; perimeter
G1 X97.439 Y84.812 E0.68354 ; perimeter
G1 X97.505 Y84.514 E0.68769 ; perimeter
G1 X97.630 Y84.226 E0.69196 ; perimeter
G1 X97.910 Y83.865 E0.69818 ; perimeter
G1 X98.158 Y83.673 E0.70245 ; perimeter
G1 X98.421 Y83.539 E0.70647 ; perimeter
G1 X98.706 Y83.456 E0.71050 ; perimeter
G1 X98.973 Y83.431 E0.71416 ; perimeter
G1 X101.036 Y83.431 E0.74223 F1500.000 ; perimeter
G1 X101.391 Y83.476 E0.74711 ; perimeter
G1 X101.767 Y83.624 E0.75261 ; perimeter
G1 X102.142 Y83.916 E0.75908 ; perimeter
G1 X102.386 Y84.253 E0.76474 ; perimeter
G1 X102.542 Y84.688 E0.77103 ; perimeter
G1 X102.569 Y84.973 E0.77493 ; perimeter
G1 X102.567 Y94.108 E0.89926 ; perimeter
G1 X102.522 Y94.391 E0.90316 ; perimeter
G1 X102.416 Y94.686 E0.90743 ; perimeter
G1 X102.149 Y95.079 E0.91390 ; perimeter
G1 X101.759 Y95.381 E0.92061 ; perimeter
G1 X101.313 Y95.542 E0.92707 ; perimeter
G1 X100.884 Y95.569 E0.93292 ; perimeter
G1 X100.831 Y95.175 F6000.000 ; move to first perimeter point
G1 X98.989 Y95.175 E0.94893 F1500.000 ; perimeter
G1 X98.705 Y95.139 E0.95142 ; perimeter
G1 X98.372 Y94.995 E0.95457 ; perimeter
G1 X98.140 Y94.804 E0.95718 ; perimeter
G1 X97.936 Y94.504 E0.96033 ; perimeter
G1 X97.845 Y94.223 E0.96289 ; perimeter
G1 X97.825 Y94.008 E0.96477 ; perimeter
G1 X97.833 Y84.855 E1.04429 ; perimeter
G1 X97.882 Y84.637 E1.04624 ; perimeter
G1 X97.972 Y84.428 E1.04821 ; perimeter
G1 X98.191 Y84.146 E1.05131 ; perimeter
G1 X98.370 Y84.007 E1.05329 ; perimeter
G1 X98.567 Y83.907 E1.05521 ; perimeter
G1 X98.780 Y83.845 E1.05713 ; perimeter
G1 X98.992 Y83.825 E1.05898 ; perimeter
G1 X101.011 Y83.825 E1.07653 F1500.000 ; perimeter
G1 X101.293 Y83.861 E1.07899 ; perimeter
G1 X101.569 Y83.970 E1.08158 ; perimeter
G1 X101.856 Y84.193 E1.08473 ; perimeter
G1 X102.034 Y84.439 E1.08737 ; perimeter
