; generated by Slic3r 1.2.9 on 2017-06-14 at 14:41:19

; external perimeters extrusion width = 0.35mm
; perimeters extrusion width = 0.52mm
; infill extrusion width = 0.52mm
; solid infill extrusion width = 0.52mm
; top infill extrusion width = 0.52mm

M107 ; disable fan
G28 ; home all axes
G21 ; set units to millimeters
G90 ; use absolute coordinates
M82 ; use absolute distances for extrusion
G92 E0 ; reset extrusion distance
G1 E-0.50000 F420.00000 ; retract
G92 E0 ; reset extrusion distance
G1 Z0.200 F6000.000 ; move to next layer (0)
G1 X86.589 Y81.310 F6000.000 ; move to first skirt point
G1 E0.50000 F420.00000 ; unretract
G1 X87.258 Y80.642 E0.51286 F1800.000 ; skirt
G1 X87.814 Y80.181 E0.52270 ; skirt
G1 X88.274 Y79.854 E0.53038 ; skirt
G1 X88.618 Y79.636 E0.53592 ; skirt
G1 X89.110 Y79.359 E0.54360 ; skirt
G1 X89.762 Y79.053 E0.55341 ; skirt
G1 X90.141 Y78.903 E0.55896 ; skirt
G1 X90.674 Y78.724 E0.56661 ; skirt
G1 X91.373 Y78.544 E0.57644 ; skirt
G1 X91.930 Y78.443 E0.58413 ; skirt
G1 X92.489 Y78.378 E0.59180 ; skirt
G1 X93.424 Y78.346 E0.60454 ; skirt
G1 X106.912 Y78.696 E0.78818 ; skirt
G1 X107.667 Y78.742 E0.79848 F1800.000 ; skirt
G1 X108.226 Y78.818 E0.80615 ; skirt
G1 X108.626 Y78.894 E0.81170 ; skirt
G1 X109.325 Y79.074 E0.82152 ; skirt
G1 X109.859 Y79.252 E0.82919 ; skirt
G1 X110.238 Y79.403 E0.83474 ; skirt
G1 X110.889 Y79.709 E0.84453 ; skirt
G1 X111.247 Y79.906 E0.85009 ; skirt
G1 X111.725 Y80.203 E0.85775 ; skirt
G1 X112.310 Y80.628 E0.86758 ; skirt
G1 X112.741 Y80.991 E0.87527 ; skirt
G1 X113.039 Y81.271 E0.88082 ; skirt
G1 X113.531 Y81.795 E0.89060 ; skirt
G1 X113.792 Y82.111 E0.89619 ; skirt
G1 X114.126 Y82.562 E0.90383 ; skirt
G1 X114.512 Y83.170 E0.91363 ; skirt
G1 X114.780 Y83.668 E0.92133 ; skirt
G1 X114.955 Y84.039 E0.92691 ; skirt
G1 X115.219 Y84.707 E0.93669 ; skirt
G1 X115.388 Y85.242 E0.94432 ; skirt
G1 X115.491 Y85.642 E0.94994 ; skirt
G1 X115.600 Y86.191 E0.95757 ; skirt
G1 X115.676 Y86.751 E0.96526 ; skirt
G1 X115.722 Y87.473 E0.97510 ; skirt
G1 X115.725 Y110.675 E1.29091 ; skirt
G1 X115.676 Y111.601 E1.30353 ; skirt
G1 X115.601 Y112.158 E1.31118 ; skirt
G1 X115.491 Y112.709 E1.31883 ; skirt
G1 X115.344 Y113.259 E1.32658 ; skirt
G1 X115.166 Y113.790 E1.33420 ; skirt
G1 X113.744 Y117.498 E1.38825 ; skirt
G1 X112.573 Y119.441 E1.41913 ; skirt
G1 X110.805 Y120.861 E1.45000 ; skirt
G1 X107.694 Y121.656 E1.49370 ; skirt
G1 X103.495 Y121.653 E1.55086 ; skirt
G1 X92.107 Y121.303 E1.70593 ; skirt
G1 X89.887 Y120.838 E1.73680 ; skirt
G1 X87.964 Y119.636 E1.76767 ; skirt
G1 X86.256 Y117.148 E1.80874 ; skirt
G1 X84.881 Y113.568 E1.86094 ; skirt
G1 X84.656 Y112.909 E1.87042 ; skirt
G1 X84.475 Y112.206 E1.88031 ; skirt
G1 X84.375 Y111.651 E1.88797 ; skirt
G1 X84.309 Y111.093 E1.89563 ; skirt
G1 X84.275 Y110.325 E1.90609 ; skirt
G1 X84.275 Y87.325 E2.21914 ; skirt
G1 X84.309 Y86.557 E2.22960 ; skirt
G1 X84.400 Y85.840 E2.23945 ; skirt
G1 X84.510 Y85.290 E2.24708 ; skirt
G1 X84.612 Y84.892 E2.25267 ; skirt
G1 X84.834 Y84.209 E2.26245 ; skirt
G1 X85.045 Y83.689 E2.27008 ; skirt
G1 X85.220 Y83.318 E2.27566 ; skirt
G1 X85.569 Y82.684 E2.28552 ; skirt
G1 X85.786 Y82.342 E2.29103 ; skirt
G1 X86.111 Y81.885 E2.29867 ; skirt
G1 X86.554 Y81.349 E2.30813 ; skirt
G1 E1.80813 F420.00000 ; retract
G92 E0 ; reset extrusion distance
G1 X95.136 Y112.828 F6000.000 ; move to first perimeter point
G1 E0.50000 F420.00000 ; unretract
G1 X95.009 Y112.973 E0.50168 F1500.000 ; perimeter
G1 X94.856 Y113.091 E0.50336 ; perimeter
G1 X94.684 Y113.179 E0.50503 ; perimeter
G1 X94.499 Y113.233 E0.50671 ; perimeter
G1 X94.306 Y113.251 E0.50839 ; perimeter
G1 X94.114 Y113.233 E0.51007 ; perimeter
G1 X93.929 Y113.179 E0.51174 ; perimeter
G1 X93.757 Y113.091 E0.51342 ; perimeter
G1 X93.604 Y112.973 E0.51510 ; perimeter
G1 X93.476 Y112.828 E0.51678 ; perimeter
G1 X93.378 Y112.662 E0.51845 ; perimeter
G1 X93.312 Y112.478 E0.52015 ; perimeter
G1 X93.280 Y112.228 E0.52234 ; perimeter
G1 X93.299 Y112.033 E0.52404 ; perimeter
G1 X93.353 Y111.847 E0.52572 ; perimeter
G1 X93.440 Y111.675 E0.52740 ; perimeter
G1 X93.559 Y111.523 E0.52908 ; perimeter
G1 X93.703 Y111.395 E0.53075 ; perimeter
G1 X93.870 Y111.297 E0.53243 ; perimeter
G1 X94.054 Y111.231 E0.53413 ; perimeter
G1 X94.302 Y111.199 E0.53630 F1500.000 ; perimeter
G1 X94.498 Y111.217 E0.53802 ; perimeter
G1 X94.684 Y111.271 E0.53970 ; perimeter
G1 X94.856 Y111.359 E0.54138 ; perimeter
G1 X95.009 Y111.477 E0.54305 ; perimeter
G1 X95.136 Y111.622 E0.54473 ; perimeter
G1 X95.234 Y111.788 E0.54641 ; perimeter
G1 X95.301 Y111.973 E0.54811 ; perimeter
G1 X95.333 Y112.225 E0.55032 ; perimeter
G1 X95.301 Y112.478 E0.55253 ; perimeter
G1 X95.234 Y112.662 E0.55423 ; perimeter
G1 X95.163 Y112.783 E0.55545 ; perimeter
G1 X95.209 Y113.007 F6000.000 ; move inwards before travel
G1 X95.737 Y113.003 F6000.000 ; move to first perimeter point
G1 X95.737 Y114.256 E0.57251 F1500.000 ; perimeter
G1 X92.875 Y114.256 E0.61146 ; perimeter
G1 X92.875 Y113.003 E0.62851 ; perimeter
G1 X93.088 Y112.945 E0.63151 ; perimeter
G1 X93.156 Y113.061 E0.63334 ; perimeter
G1 X93.333 Y113.261 E0.63698 ; perimeter
G1 X93.544 Y113.425 E0.64062 ; perimeter
G1 X93.783 Y113.547 E0.64426 ; perimeter
G1 X94.040 Y113.621 E0.64790 ; perimeter
G1 X94.306 Y113.647 E0.65155 ; perimeter
G1 X94.573 Y113.621 E0.65519 ; perimeter
G1 X94.829 Y113.547 E0.65883 ; perimeter
G1 X95.068 Y113.425 E0.66247 ; perimeter
G1 X95.279 Y113.261 E0.66612 ; perimeter
G1 X95.456 Y113.061 E0.66976 ; perimeter
G1 X95.525 Y112.945 E0.67158 ; perimeter
G1 X95.687 Y112.989 E0.67387 ; perimeter
G1 E0.17387 F420.00000 ; retract
G92 E0 ; reset extrusion distance
G1 X94.435 Y94.443 F6000.000 ; move to first perimeter point
G1 E0.50000 F420.00000 ; unretract
G1 X94.239 Y94.449 E0.50170 F1500.000 ; perimeter
G1 X93.994 Y94.403 E0.50386 ; perimeter
G1 X93.812 Y94.324 E0.50559 ; perimeter
G1 X93.652 Y94.215 E0.50727 ; perimeter
G1 X93.516 Y94.079 E0.50894 ; perimeter
G1 X93.407 Y93.919 E0.51062 ; perimeter
G1 X93.331 Y93.742 E0.51230 ; perimeter
G1 X93.289 Y93.554 E0.51398 ; perimeter
G1 X93.283 Y93.361 E0.51565 ; perimeter
G1 X93.313 Y93.170 E0.51733 ; perimeter
G1 X93.378 Y92.988 E0.51901 ; perimeter
G1 X93.476 Y92.822 E0.52069 ; perimeter
G1 X93.604 Y92.677 E0.52236 ; perimeter
G1 X93.759 Y92.557 E0.52407 ; perimeter
G1 X93.987 Y92.450 E0.52625 ; perimeter
G1 X94.180 Y92.407 E0.52798 ; perimeter
G1 X94.432 Y92.407 E0.53017 F1500.000 ; perimeter
G1 X94.623 Y92.449 E0.53187 ; perimeter
G1 X94.800 Y92.526 E0.53355 ; perimeter
G1 X94.960 Y92.635 E0.53522 ; perimeter
G1 X95.097 Y92.771 E0.53690 ; perimeter
G1 X95.205 Y92.931 E0.53858 ; perimeter
G1 X95.282 Y93.108 E0.54026 ; perimeter
G1 X95.324 Y93.297 E0.54193 ; perimeter
G1 X95.330 Y93.489 E0.54361 ; perimeter
G1 X95.300 Y93.680 E0.54529 ; perimeter
G1 X95.234 Y93.862 E0.54697 ; perimeter
G1 X95.136 Y94.028 E0.54864 ; perimeter
G1 X95.008 Y94.173 E0.55032 ; perimeter
G1 X94.854 Y94.293 E0.55202 ; perimeter
G1 X94.626 Y94.400 E0.55421 ; perimeter
G1 X94.486 Y94.431 E0.55545 ; perimeter
G1 X94.353 Y94.621 F6000.000 ; move inwards before travel
G1 X94.706 Y95.310 F6000.000 ; move to first perimeter point
G1 X94.701 Y110.357 E0.76027 F2100.000 ; perimeter
G1 X94.287 Y110.319 E0.76593 ; perimeter
G1 X93.848 Y110.375 E0.77195 ; perimeter
G1 X93.495 Y110.502 E0.77705 ; perimeter
G1 X93.187 Y110.684 E0.78193 ; perimeter
G1 X92.918 Y110.921 E0.78681 ; perimeter
G1 X92.698 Y111.204 E0.79169 ; perimeter
G1 X92.517 Y111.560 E0.79712 ; perimeter
G1 X92.319 Y111.427 E0.80037 ; perimeter
G1 X92.201 Y111.316 E0.80256 ; perimeter
G1 X91.988 Y111.023 E0.80750 ; perimeter
G1 X91.854 Y110.685 E0.81245 ; perimeter
G1 X91.806 Y110.292 E0.81783 ; perimeter
G1 X91.806 Y89.888 E1.09556 ; perimeter
G1 X92.169 Y90.072 E1.10109 ; perimeter
G1 X92.703 Y90.228 E1.10866 ; perimeter
G1 X93.256 Y90.280 E1.11623 ; perimeter
G1 X93.810 Y90.228 E1.12380 ; perimeter
G1 X94.344 Y90.072 E1.13137 ; perimeter
G1 X94.704 Y89.889 E1.13687 ; perimeter
G1 X94.706 Y91.571 E1.15977 ; perimeter
G1 X94.529 Y91.532 E1.16224 ; perimeter
G1 X94.084 Y91.532 E1.16830 ; perimeter
G1 X93.701 Y91.617 E1.17363 ; perimeter
G1 X93.299 Y91.807 E1.17969 ; perimeter
G1 X93.002 Y92.037 E1.18480 ; perimeter
G1 X92.765 Y92.306 E1.18968 ; perimeter
G1 X92.583 Y92.614 E1.19456 ; perimeter
G1 X92.461 Y92.951 E1.19944 ; perimeter
G1 X92.405 Y93.305 E1.20431 ; perimeter
G1 X92.416 Y93.664 E1.20919 ; perimeter
G1 X92.495 Y94.014 E1.21407 ; perimeter
G1 X92.637 Y94.343 E1.21895 ; perimeter
G1 X92.839 Y94.639 E1.22384 ; perimeter
G1 X93.092 Y94.893 E1.22871 ; perimeter
G1 X93.389 Y95.095 E1.23361 ; perimeter
G1 X93.737 Y95.244 E1.23876 ; perimeter
G1 X94.171 Y95.327 E1.24476 ; perimeter
G1 X94.654 Y95.311 E1.25134 ; perimeter
G1 X95.174 Y94.578 F6000.000 ; move to first perimeter point
G1 X95.312 Y94.781 E1.25469 F2100.000 ; perimeter
G1 X95.187 Y94.899 E1.25703 ; perimeter
G1 X95.182 Y110.736 E1.47258 ; perimeter
G1 X95.332 Y110.886 E1.47547 ; perimeter
G1 X95.187 Y111.085 E1.47882 ; perimeter
G1 X94.829 Y110.903 E1.48428 ; perimeter
G1 X94.572 Y110.829 E1.48792 ; perimeter
G1 X94.295 Y110.803 E1.49172 ; perimeter
G1 X93.961 Y110.845 E1.49630 ; perimeter
G1 X93.701 Y110.939 E1.50006 ; perimeter
G1 X93.471 Y111.075 E1.50370 ; perimeter
G1 X93.270 Y111.252 E1.50734 ; perimeter
G1 X93.106 Y111.463 E1.51099 ; perimeter
G1 X92.984 Y111.702 E1.51463 ; perimeter
G1 X92.910 Y111.959 E1.51827 ; perimeter
G1 X92.872 Y112.360 E1.52376 ; perimeter
G1 X92.626 Y112.376 E1.52711 ; perimeter
G1 X92.582 Y112.182 E1.52982 ; perimeter
G1 X92.018 Y111.804 E1.53906 ; perimeter
G1 X91.850 Y111.646 E1.54220 ; perimeter
G1 X91.695 Y111.459 E1.54550 ; perimeter
G1 X91.565 Y111.255 E1.54880 ; perimeter
G1 X91.462 Y111.035 E1.55210 ; perimeter
G1 X91.387 Y110.805 E1.55540 ; perimeter
G1 X91.342 Y110.567 E1.55870 ; perimeter
G1 X91.325 Y110.307 E1.56224 ; perimeter
G1 X91.325 Y88.941 E1.85305 ; perimeter
G1 X91.932 Y89.412 E1.86350 ; perimeter
G1 X92.346 Y89.623 E1.86983 ; perimeter
G1 X92.793 Y89.753 E1.87617 ; perimeter
G1 X93.256 Y89.797 E1.88250 ; perimeter
G1 X93.719 Y89.753 E1.88883 ; perimeter
G1 X94.166 Y89.623 E1.89516 ; perimeter
G1 X94.581 Y89.412 E1.90149 ; perimeter
G1 X95.184 Y88.944 E1.91189 ; perimeter
G1 X95.187 Y91.940 E1.95268 ; perimeter
G1 X95.362 Y92.115 E1.95604 ; perimeter
G1 X95.194 Y92.317 E1.95961 ; perimeter
G1 X94.991 Y92.179 E1.96295 ; perimeter
G1 X94.746 Y92.073 E1.96659 ; perimeter
G1 X94.476 Y92.013 E1.97036 ; perimeter
G1 X94.137 Y92.013 E1.97497 ; perimeter
G1 X93.858 Y92.075 E1.97885 ; perimeter
G1 X93.552 Y92.219 E1.98347 ; perimeter
G1 X93.333 Y92.389 E1.98723 ; perimeter
G1 X93.156 Y92.589 E1.99087 ; perimeter
G1 X93.020 Y92.820 E1.99451 ; perimeter
G1 X92.929 Y93.072 E1.99816 ; perimeter
G1 X92.887 Y93.336 E2.00180 ; perimeter
G1 X92.896 Y93.603 E2.00544 ; perimeter
G1 X92.954 Y93.864 E2.00908 ; perimeter
G1 X93.060 Y94.110 E2.01272 ; perimeter
G1 X93.211 Y94.331 E2.01637 ; perimeter
G1 X93.400 Y94.520 E2.02001 ; perimeter
G1 X93.622 Y94.671 E2.02366 ; perimeter
G1 X93.878 Y94.782 E2.02746 ; perimeter
G1 X94.208 Y94.844 E2.03203 ; perimeter
G1 X94.484 Y94.835 E2.03579 ; perimeter
G1 X94.754 Y94.775 E2.03955 ; perimeter
G1 X95.126 Y94.600 E2.04515 ; perimeter
G1 E1.54515 F420.00000 ; retract
G92 E0 ; reset extrusion distance
G1 X93.658 Y89.360 F6000.000 ; move to first perimeter point
G1 E0.50000 F420.00000 ; unretract
G1 X93.256 Y89.401 E0.50351 F1500.000 ; perimeter
G1 X92.867 Y89.364 E0.50690 ; perimeter
G1 X92.492 Y89.255 E0.51030 ; perimeter
G1 X92.144 Y89.078 E0.51369 ; perimeter
G1 X91.835 Y88.838 E0.51708 ; perimeter
G1 X91.577 Y88.545 E0.52048 ; perimeter
G1 X91.378 Y88.209 E0.52387 ; perimeter
G1 X91.247 Y87.844 E0.52724 ; perimeter
G1 X91.197 Y87.585 E0.52953 ; perimeter
G1 X91.181 Y87.322 E0.53182 ; perimeter
G1 X91.217 Y86.936 E0.53519 ; perimeter
G1 X91.326 Y86.561 E0.53859 ; perimeter
G1 X91.504 Y86.213 E0.54198 ; perimeter
G1 X91.743 Y85.904 E0.54538 ; perimeter
G1 X92.036 Y85.646 E0.54877 ; perimeter
G1 X92.372 Y85.447 E0.55216 ; perimeter
G1 X92.737 Y85.315 E0.55554 ; perimeter
G1 X92.996 Y85.266 E0.55782 ; perimeter
G1 X93.255 Y85.250 E0.56008 F1500.000 ; perimeter
G1 X93.645 Y85.286 E0.56348 ; perimeter
G1 X94.020 Y85.395 E0.56688 ; perimeter
G1 X94.369 Y85.572 E0.57027 ; perimeter
G1 X94.677 Y85.812 E0.57367 ; perimeter
G1 X94.936 Y86.105 E0.57706 ; perimeter
G1 X95.135 Y86.443 E0.58047 ; perimeter
G1 X95.230 Y86.684 E0.58272 ; perimeter
G1 X95.295 Y86.939 E0.58501 ; perimeter
G1 X95.332 Y87.322 E0.58835 ; perimeter
G1 X95.315 Y87.585 E0.59064 ; perimeter
G1 X95.266 Y87.844 E0.59293 ; perimeter
G1 X95.135 Y88.209 E0.59630 ; perimeter
G1 X94.936 Y88.545 E0.59970 ; perimeter
G1 X94.677 Y88.838 E0.60309 ; perimeter
G1 X94.369 Y89.078 E0.60649 ; perimeter
G1 X94.020 Y89.255 E0.60988 ; perimeter
G1 X93.708 Y89.346 E0.61270 ; perimeter
G1 X93.534 Y89.688 F6000.000 ; move inwards before travel
G1 E0.11270 F420.00000 ; retract
G92 E0 ; reset extrusion distance
G1 X92.481 Y114.650 F6000.000 ; move to first perimeter point
G1 E0.50000 F420.00000 ; unretract
G1 X92.481 Y113.218 E0.51244 F1050.000 ; perimeter
G1 X92.334 Y112.867 E0.51575 ; perimeter
G1 X92.233 Y112.422 E0.51971 ; perimeter
G1 X91.772 Y112.114 E0.52453 ; perimeter
G1 X91.562 Y111.916 E0.52704 ; perimeter
G1 X91.376 Y111.691 E0.52957 ; perimeter
G1 X91.219 Y111.445 E0.53211 ; perimeter
G1 X91.095 Y111.181 E0.53465 ; perimeter
G1 X91.005 Y110.903 E0.53718 ; perimeter
G1 X90.950 Y110.616 E0.53972 ; perimeter
G1 X90.931 Y110.320 E0.54230 ; perimeter
G1 X90.931 Y87.331 E0.74205 ; perimeter
G1 X90.950 Y87.036 E0.74461 ; perimeter
G1 X91.046 Y86.607 E0.74843 ; perimeter
G1 X91.220 Y86.205 E0.75223 ; perimeter
G1 X91.465 Y85.844 E0.75603 ; perimeter
G1 X91.775 Y85.534 E0.75983 ; perimeter
G1 X92.137 Y85.288 E0.76363 ; perimeter
G1 X92.538 Y85.115 E0.76744 ; perimeter
G1 X92.968 Y85.019 E0.77126 ; perimeter
G1 X93.257 Y85.001 E0.77377 ; perimeter
G1 X93.695 Y85.042 E0.77760 ; perimeter
G1 X93.972 Y85.113 E0.78009 ; perimeter
G1 X94.379 Y85.289 E0.78394 ; perimeter
G1 X94.623 Y85.444 E0.78645 ; perimeter
G1 X94.848 Y85.630 E0.78898 ; perimeter
G1 X95.046 Y85.841 E0.79150 ; perimeter
G1 X95.295 Y86.208 E0.79535 ; perimeter
G1 X95.418 Y86.469 E0.79786 ; perimeter
G1 X95.507 Y86.744 E0.80037 ; perimeter
G1 X95.576 Y87.182 E0.80422 ; perimeter
G1 X95.581 Y91.778 E0.84415 ; perimeter
G1 X95.904 Y92.103 E0.84813 ; perimeter
G1 X96.124 Y92.426 E0.85153 ; perimeter
G1 X96.279 Y92.784 E0.85492 ; perimeter
G1 X96.365 Y93.168 E0.85833 ; perimeter
G1 X96.381 Y93.425 E0.86057 ; perimeter
G1 X96.365 Y93.685 E0.86284 ; perimeter
G1 X96.316 Y93.941 E0.86510 ; perimeter
G1 X96.235 Y94.189 E0.86737 ; perimeter
G1 X96.124 Y94.425 E0.86963 ; perimeter
G1 X95.985 Y94.645 E0.87189 ; perimeter
G1 X95.818 Y94.845 E0.87416 ; perimeter
G1 X95.581 Y95.069 E0.87699 ; perimeter
G1 X95.576 Y110.573 E1.01170 ; perimeter
G1 X95.904 Y110.903 E1.01574 ; perimeter
G1 X96.124 Y111.226 E1.01914 ; perimeter
G1 X96.279 Y111.584 E1.02253 ; perimeter
G1 X96.364 Y111.965 E1.02592 ; perimeter
G1 X96.377 Y112.358 E1.02934 ; perimeter
G1 X96.344 Y112.614 E1.03158 ; perimeter
G1 X96.280 Y112.864 E1.03382 ; perimeter
G1 X96.131 Y113.218 E1.03716 ; perimeter
G1 X96.131 Y114.650 E1.04960 ; perimeter
G1 X92.534 Y114.650 E1.08086 ; perimeter
G1 X92.656 Y114.347 F6000.000 ; move inwards before travel
G1 X93.116 Y113.762 F6000.000 ; move to first infill point
G1 X93.659 Y113.891 E1.08846 F600.000 ; infill
G1 X93.987 Y113.937 E1.09296 ; infill
G1 X94.300 Y113.952 E1.09723 ; infill
G1 X94.625 Y113.937 E1.10166 ; infill
G1 X94.953 Y113.891 E1.10616 ; infill
G1 X95.497 Y113.762 E1.11377 ; infill
G1 X95.789 Y112.813 F6000.000 ; move to first infill point
G1 X95.853 Y112.266 E1.12944 F600.000 ; infill
G1 X95.814 Y111.886 E1.14030 ; infill
G1 X95.692 Y111.539 E1.15074 ; infill
G1 X95.420 Y111.099 E1.16546 ; infill
G1 E0.66546 F420.00000 ; retract
G92 E0 ; reset extrusion distance
G1 X92.526 Y111.025 F6000.000 ; move to first infill point
