; generated by Slic3r 1.2.9 on 2017-06-30 at 11:18:07

; external perimeters extrusion width = 0.35mm
; perimeters extrusion width = 0.52mm
; infill extrusion width = 0.52mm
; solid infill extrusion width = 0.52mm
; top infill extrusion width = 0.52mm

M107 ; disable fan
G28 ; home all axes
G21 ; set units to millimeters
G90 ; use absolute coordinates
M82 ; use absolute distances for extrusion
G92 E0 ; reset extrusion distance
G1 E-0.50000 F420.00000 ; retract
G92 E0 ; reset extrusion distance
G1 Z0.200 F6000.000 ; move to next layer (0)
G1 X82.158 Y85.307 F6000.000 ; move to first skirt point
G1 E0.50000 F420.00000 ; unretract
G1 X83.905 Y83.861 E0.53087 F1800.000 ; skirt
G1 X87.100 Y83.019 E0.57584 ; skirt
G1 X112.900 Y83.019 E0.92701 ; skirt
G1 X115.133 Y83.416 E0.95788 ; skirt
G1 X117.093 Y84.558 E0.98875 F1800.000 ; skirt
G1 X118.539 Y86.305 E1.01963 ; skirt
G1 X119.381 Y89.500 E1.06459 ; skirt
G1 X119.381 Y99.500 E1.20070 ; skirt
G1 X118.984 Y101.733 E1.23158 ; skirt
G1 X117.842 Y103.693 E1.26245 ; skirt
G1 X116.095 Y105.139 E1.29332 ; skirt
G1 X112.900 Y105.981 E1.33829 ; skirt
G1 X87.100 Y105.981 E1.68946 ; skirt
G1 X84.867 Y105.584 E1.72033 ; skirt
G1 X82.907 Y104.442 E1.75120 ; skirt
G1 X81.461 Y102.695 E1.78208 ; skirt
G1 X80.619 Y99.500 E1.82704 ; skirt
G1 X80.619 Y89.500 E1.96315 ; skirt
G1 X81.016 Y87.267 E1.99403 ; skirt
G1 X82.132 Y85.352 E2.02418 ; skirt
G1 E1.52418 F420.00000 ; retract
G92 E0 ; reset extrusion distance
G1 X103.469 Y96.969 F6000.000 ; move to first perimeter point
G1 E0.50000 F420.00000 ; unretract
G1 X102.940 Y97.403 E0.50932 F1500.000 ; perimeter
G1 X102.336 Y97.726 E0.51864 ; perimeter
G1 X101.681 Y97.925 E0.52795 ; perimeter
G1 X101.000 Y97.992 E0.53727 ; perimeter
G1 X100.319 Y97.925 E0.54659 ; perimeter
G1 X99.664 Y97.726 E0.55590 ; perimeter
G1 X99.060 Y97.403 E0.56522 ; perimeter
G1 X98.531 Y96.969 E0.57454 ; perimeter
G1 X98.097 Y96.440 E0.58385 ; perimeter
G1 X97.774 Y95.836 E0.59317 ; perimeter
G1 X97.575 Y95.181 E0.60249 ; perimeter
G1 X97.508 Y94.500 E0.61181 ; perimeter
G1 X97.575 Y93.819 E0.62112 ; perimeter
G1 X97.774 Y93.164 E0.63044 ; perimeter
G1 X98.097 Y92.560 E0.63976 ; perimeter
G1 X98.531 Y92.031 E0.64907 ; perimeter
G1 X99.060 Y91.597 E0.65839 ; perimeter
G1 X99.664 Y91.274 E0.66771 ; perimeter
G1 X100.319 Y91.075 E0.67702 ; perimeter
G1 X100.969 Y91.011 E0.68592 F1500.000 ; perimeter
G1 X101.679 Y91.075 E0.69562 ; perimeter
G1 X102.336 Y91.274 E0.70497 ; perimeter
G1 X102.940 Y91.597 E0.71429 ; perimeter
G1 X103.469 Y92.031 E0.72360 ; perimeter
G1 X103.903 Y92.560 E0.73292 ; perimeter
G1 X104.226 Y93.164 E0.74224 ; perimeter
G1 X104.425 Y93.819 E0.75155 ; perimeter
G1 X104.491 Y94.496 E0.76082 ; perimeter
G1 X104.437 Y95.140 E0.76962 ; perimeter
G1 X104.226 Y95.836 E0.77952 ; perimeter
G1 X103.903 Y96.440 E0.78883 ; perimeter
G1 X103.502 Y96.928 E0.79743 ; perimeter
G1 X103.189 Y96.689 F6000.000 ; move to first perimeter point
G1 X102.720 Y97.074 E0.80271 F1500.000 ; perimeter
G1 X102.185 Y97.360 E0.80798 ; perimeter
G1 X101.604 Y97.536 E0.81325 ; perimeter
G1 X101.000 Y97.596 E0.81853 ; perimeter
G1 X100.396 Y97.536 E0.82380 ; perimeter
G1 X99.815 Y97.360 E0.82907 ; perimeter
G1 X99.280 Y97.074 E0.83435 ; perimeter
G1 X98.811 Y96.689 E0.83962 ; perimeter
G1 X98.426 Y96.220 E0.84489 ; perimeter
G1 X98.140 Y95.685 E0.85017 ; perimeter
G1 X97.964 Y95.104 E0.85544 ; perimeter
G1 X97.904 Y94.500 E0.86071 ; perimeter
G1 X97.964 Y93.896 E0.86598 ; perimeter
G1 X98.140 Y93.315 E0.87126 ; perimeter
G1 X98.426 Y92.780 E0.87653 ; perimeter
G1 X98.811 Y92.311 E0.88180 ; perimeter
G1 X99.280 Y91.926 E0.88708 ; perimeter
G1 X99.815 Y91.640 E0.89235 ; perimeter
G1 X100.396 Y91.464 E0.89762 ; perimeter
G1 X100.971 Y91.407 E0.90264 F1500.000 ; perimeter
G1 X101.603 Y91.463 E0.90816 ; perimeter
G1 X102.185 Y91.640 E0.91344 ; perimeter
G1 X102.720 Y91.926 E0.91871 ; perimeter
G1 X103.189 Y92.311 E0.92398 ; perimeter
G1 X103.574 Y92.780 E0.92926 ; perimeter
G1 X103.860 Y93.315 E0.93453 ; perimeter
G1 X104.036 Y93.896 E0.93980 ; perimeter
G1 X104.096 Y94.499 E0.94506 ; perimeter
G1 X104.048 Y95.066 E0.95001 ; perimeter
G1 X103.860 Y95.685 E0.95563 ; perimeter
G1 X103.574 Y96.220 E0.96090 ; perimeter
G1 X103.222 Y96.649 E0.96572 ; perimeter
G1 X103.269 Y97.030 F6000.000 ; move inwards before travel
G1 E0.46572 F420.00000 ; retract
G92 E0 ; reset extrusion distance
G1 X99.589 Y98.231 F6000.000 ; move to first perimeter point
G1 E0.50000 F420.00000 ; unretract
G1 X99.534 Y98.450 E0.50307 F1500.000 ; perimeter
G1 X88.150 Y98.450 E0.65801 ; perimeter
G1 X88.150 Y90.550 E0.76554 ; perimeter
G1 X99.534 Y90.550 E0.92049 ; perimeter
G1 X99.589 Y90.769 E0.92355 ; perimeter
G1 X98.791 Y91.195 E0.93586 ; perimeter
G1 X98.189 Y91.689 E0.94646 ; perimeter
G1 X97.695 Y92.292 E0.95707 ; perimeter
G1 X97.327 Y92.979 E0.96768 ; perimeter
G1 X97.101 Y93.724 E0.97828 ; perimeter
G1 X97.025 Y94.500 E0.98889 ; perimeter
G1 X97.101 Y95.276 E0.99950 ; perimeter
G1 X97.327 Y96.021 E1.01010 ; perimeter
G1 X97.695 Y96.708 E1.02071 ; perimeter
G1 X98.189 Y97.311 E1.03132 ; perimeter
G1 X98.791 Y97.805 E1.04192 ; perimeter
G1 X99.542 Y98.207 E1.05351 ; perimeter
G1 E0.55351 F420.00000 ; retract
G92 E0 ; reset extrusion distance
G1 X102.411 Y98.231 F6000.000 ; move to first perimeter point
G1 E0.50000 F420.00000 ; unretract
G1 X103.209 Y97.805 E0.51230 F1500.000 ; perimeter
G1 X103.811 Y97.311 E0.52291 ; perimeter
G1 X104.305 Y96.708 E0.53352 ; perimeter
G1 X104.673 Y96.021 E0.54412 ; perimeter
G1 X104.912 Y95.231 E0.55536 ; perimeter
G1 X104.974 Y94.493 E0.56545 ; perimeter
G1 X104.899 Y93.724 E0.57596 ; perimeter
G1 X104.673 Y92.979 E0.58656 ; perimeter
G1 X104.305 Y92.292 E0.59717 ; perimeter
G1 X103.811 Y91.689 E0.60778 ; perimeter
G1 X103.209 Y91.195 E0.61838 ; perimeter
G1 X102.411 Y90.769 E0.63069 ; perimeter
G1 X102.466 Y90.550 E0.63375 ; perimeter
G1 X111.850 Y90.550 E0.76148 ; perimeter
G1 X111.850 Y98.450 E0.86900 ; perimeter
G1 X102.466 Y98.450 E0.99673 ; perimeter
G1 X102.424 Y98.282 E0.99908 ; perimeter
G1 E0.49908 F420.00000 ; retract
G92 E0 ; reset extrusion distance
G1 X112.331 Y98.931 F6000.000 ; move to first perimeter point
G1 E0.50000 F420.00000 ; unretract
G1 X87.669 Y98.931 E0.83568 F2100.000 ; perimeter
G1 X87.669 Y90.069 E0.95630 ; perimeter
G1 X112.331 Y90.069 E1.29197 ; perimeter
G1 X112.331 Y98.878 E1.41188 ; perimeter
G1 X112.725 Y99.325 F6000.000 ; move to first perimeter point
G1 X87.275 Y99.325 E1.63300 F1050.000 ; perimeter
G1 X87.275 Y89.675 E1.71684 ; perimeter
G1 X112.725 Y89.675 E1.93797 ; perimeter
G1 X112.725 Y99.273 E2.02136 ; perimeter
G1 X112.422 Y99.150 F6000.000 ; move inwards before travel
G1 E1.52136 F420.00000 ; retract
G92 E0 ; reset extrusion distance
G1 X111.563 Y91.081 F6000.000 ; move to first infill point
G1 E0.50000 F420.00000 ; unretract
G1 X111.319 Y90.837 E0.50492 F2700.000 ; infill
G1 X110.607 Y90.837 E0.51507 ; infill
G1 X111.563 Y91.793 E0.53434 ; infill
G1 X111.563 Y92.506 E0.54449 ; infill
G1 X109.894 Y90.837 E0.57812 ; infill
G1 X109.182 Y90.837 E0.58827 ; infill
G1 X111.563 Y93.218 E0.63625 ; infill
G1 X111.563 Y93.930 E0.64640 ; infill
G1 X108.470 Y90.837 E0.70873 ; infill
G1 X107.758 Y90.837 E0.71888 ; infill
G1 X111.563 Y94.642 E0.79557 ; infill
G1 X111.563 Y95.355 E0.80571 ; infill
G1 X107.045 Y90.837 E0.89676 ; infill
G1 X106.333 Y90.837 E0.90690 ; infill
G1 X111.563 Y96.067 E1.01230 ; infill
G1 X111.563 Y96.779 E1.02245 ; infill
G1 X105.621 Y90.837 E1.14220 ; infill
G1 X104.909 Y90.837 E1.15235 ; infill
G1 X111.563 Y97.491 E1.28645 ; infill
G1 X111.523 Y98.163 E1.29604 ; infill
G1 X104.196 Y90.837 E1.44368 ; infill
G1 X104.038 Y91.390 E1.45188 ; infill
G1 X103.484 Y90.837 E1.46304 ; infill
G1 X110.810 Y98.163 E1.61067 ; infill
G1 X110.098 Y98.163 E1.62082 ; infill
G1 X105.049 Y93.114 E1.72258 ; infill
G1 X105.225 Y94.002 E1.73548 ; infill
G1 X109.386 Y98.163 E1.81933 ; infill
G1 X108.674 Y98.163 E1.82948 ; infill
G1 X105.235 Y94.724 E1.89879 ; infill
G1 X105.149 Y95.351 E1.90781 ; infill
G1 X107.961 Y98.163 E1.96447 ; infill
G1 X107.249 Y98.163 E1.97462 ; infill
G1 X104.984 Y95.897 E2.02028 ; infill
G1 X104.761 Y96.387 E2.02795 ; infill
G1 X106.537 Y98.163 E2.06373 ; infill
G1 X105.825 Y98.163 E2.07388 ; infill
G1 X104.509 Y96.847 E2.10040 ; infill
G1 X104.188 Y97.238 E2.10761 ; infill
G1 X105.112 Y98.163 E2.12624 ; infill
G1 X104.400 Y98.163 E2.13639 ; infill
G1 X103.841 Y97.604 E2.14767 ; infill
G1 X103.450 Y97.925 E2.15488 ; infill
G1 X103.688 Y98.163 E2.15968 ; infill
G1 X102.196 Y98.363 F6000.000 ; move to first infill point
G1 X101.754 Y98.425 E2.17237 F600.000 ; infill
G1 X101.022 Y98.461 E2.19321 ; infill
G1 X100.246 Y98.425 E2.21532 ; infill
G1 X99.804 Y98.363 E2.22801 ; infill
G1 E1.72801 F420.00000 ; retract
G92 E0 ; reset extrusion distance
G1 X98.550 Y91.075 F6000.000 ; move to first infill point
G1 E0.50000 F420.00000 ; unretract
G1 X98.312 Y90.837 E0.50476 F2700.000 ; infill
G1 X98.162 Y91.394 E0.51291 ; infill
G1 X97.606 Y90.837 E0.52405 ; infill
G1 X96.899 Y90.837 E0.53403 ; infill
G1 X97.817 Y91.755 E0.55239 ; infill
G1 X97.499 Y92.143 E0.55949 ; infill
G1 X96.192 Y90.837 E0.58561 ; infill
G1 X95.486 Y90.837 E0.59560 ; infill
G1 X97.247 Y92.598 E0.63080 ; infill
G1 X97.023 Y93.081 E0.63832 ; infill
G1 X94.779 Y90.837 E0.68317 ; infill
G1 X94.073 Y90.837 E0.69316 ; infill
G1 X96.859 Y93.623 E0.74885 ; infill
G1 X96.772 Y94.242 E0.75770 ; infill
G1 X93.366 Y90.837 E0.82577 ; infill
G1 X92.660 Y90.837 E0.83576 ; infill
G1 X96.770 Y94.947 E0.91793 ; infill
G1 X96.929 Y95.813 E0.93036 ; infill
G1 X91.953 Y90.837 E1.02983 ; infill
G1 X91.247 Y90.837 E1.03982 ; infill
G1 X98.544 Y98.135 E1.18571 ; infill
G1 X97.866 Y98.163 E1.19531 ; infill
G1 X90.540 Y90.837 E1.34177 ; infill
G1 X89.834 Y90.837 E1.35176 ; infill
G1 X97.160 Y98.163 E1.49821 ; infill
G1 X96.453 Y98.163 E1.50820 ; infill
G1 X89.127 Y90.837 E1.65466 ; infill
G1 X88.449 Y90.865 E1.66426 ; infill
G1 X95.747 Y98.163 E1.81015 ; infill
G1 X95.040 Y98.163 E1.82014 ; infill
G1 X88.437 Y91.560 E1.95214 ; infill
G1 X88.437 Y92.267 E1.96213 ; infill
G1 X94.333 Y98.163 E2.08001 ; infill
G1 X93.627 Y98.163 E2.08999 ; infill
G1 X88.437 Y92.973 E2.19375 ; infill
G1 X88.437 Y93.680 E2.20373 ; infill
G1 X92.920 Y98.163 E2.29336 ; infill
G1 X92.214 Y98.163 E2.30335 ; infill
G1 X88.437 Y94.386 E2.37885 ; infill
G1 X88.437 Y95.093 E2.38884 ; infill
G1 X91.507 Y98.163 E2.45022 ; infill
G1 X90.801 Y98.163 E2.46021 ; infill
G1 X88.437 Y95.799 E2.50746 ; infill
G1 X88.437 Y96.506 E2.51745 ; infill
G1 X90.094 Y98.163 E2.55058 ; infill
G1 X89.388 Y98.163 E2.56057 ; infill
G1 X88.437 Y97.212 E2.57957 ; infill
G1 X88.437 Y97.919 E2.58956 ; infill
G1 X88.681 Y98.163 E2.59444 ; infill
G1 E2.09444 F420.00000 ; retract
G92 E0 ; reset extrusion distance
G1 X99.804 Y90.637 F6000.000 ; move to first infill point
G1 E0.50000 F420.00000 ; unretract
G1 X100.246 Y90.575 E0.51269 F600.000 ; infill
G1 X100.988 Y90.540 E0.53383 ; infill
G1 X101.748 Y90.574 E0.55546 ; infill
G1 X102.196 Y90.637 E0.56833 ; infill
M106 S255 ; enable fan
G1 E0.06833 F420.00000 ; retract
G92 E0 ; reset extrusion distance
G1 Z0.400 F6000.000 ; move to next layer (1)
G1 X104.226 Y95.836 F6000.000 ; move to first perimeter point
G1 E0.50000 F420.00000 ; unretract
G1 X103.903 Y96.440 E0.50932 F1699.382 ; perimeter
G1 X103.469 Y96.969 E0.51863 ; perimeter
G1 X102.940 Y97.403 E0.52795 ; perimeter
G1 X102.336 Y97.726 E0.53727 ; perimeter
G1 X101.681 Y97.925 E0.54658 ; perimeter
G1 X101.000 Y97.992 E0.55590 ; perimeter
G1 X100.319 Y97.925 E0.56522 ; perimeter
G1 X99.664 Y97.726 E0.57454 ; perimeter
G1 X99.060 Y97.403 E0.58385 ; perimeter
G1 X98.531 Y96.969 E0.59317 ; perimeter
G1 X98.097 Y96.440 E0.60249 ; perimeter
G1 X97.774 Y95.836 E0.61180 ; perimeter
G1 X97.575 Y95.181 E0.62112 ; perimeter
G1 X97.508 Y94.500 E0.63044 ; perimeter
G1 X97.575 Y93.819 E0.63976 ; perimeter
G1 X97.774 Y93.164 E0.64907 ; perimeter
G1 X98.097 Y92.560 E0.65839 ; perimeter
G1 X98.531 Y92.031 E0.66771 ; perimeter
G1 X99.060 Y91.597 E0.67702 ; perimeter
G1 X99.664 Y91.274 E0.68634 ; perimeter
G1 X100.319 Y91.075 E0.69566 ; perimeter
G1 X100.859 Y91.022 E0.70304 ; perimeter
G1 X101.000 Y91.008 E0.70497 F1699.382 ; perimeter
G1 X101.681 Y91.075 E0.71429 ; perimeter
G1 X102.336 Y91.274 E0.72361 ; perimeter
G1 X102.940 Y91.597 E0.73293 ; perimeter
G1 X103.469 Y92.031 E0.74224 ; perimeter
G1 X103.903 Y92.560 E0.75156 ; perimeter
G1 X104.226 Y93.164 E0.76088 ; perimeter
G1 X104.425 Y93.819 E0.77019 ; perimeter
G1 X104.492 Y94.500 E0.77951 ; perimeter
G1 X104.425 Y95.181 E0.78883 ; perimeter
G1 X104.241 Y95.786 E0.79743 ; perimeter
G1 X103.860 Y95.685 F6000.000 ; move to first perimeter point
G1 X103.574 Y96.220 E0.80270 F1699.382 ; perimeter
G1 X103.189 Y96.689 E0.80798 ; perimeter
G1 X102.720 Y97.074 E0.81325 ; perimeter
G1 X102.185 Y97.360 E0.81852 ; perimeter
G1 X101.604 Y97.536 E0.82380 ; perimeter
G1 X101.000 Y97.596 E0.82907 ; perimeter
G1 X100.396 Y97.536 E0.83434 ; perimeter
G1 X99.815 Y97.360 E0.83961 ; perimeter
G1 X99.280 Y97.074 E0.84489 ; perimeter
G1 X98.811 Y96.689 E0.85016 ; perimeter
G1 X98.426 Y96.220 E0.85543 ; perimeter
G1 X98.140 Y95.685 E0.86071 ; perimeter
G1 X97.964 Y95.104 E0.86598 ; perimeter
G1 X97.904 Y94.500 E0.87125 ; perimeter
G1 X97.964 Y93.896 E0.87653 ; perimeter
G1 X98.140 Y93.315 E0.88180 ; perimeter
G1 X98.426 Y92.780 E0.88707 ; perimeter
G1 X98.811 Y92.311 E0.89234 ; perimeter
G1 X99.280 Y91.926 E0.89762 ; perimeter
G1 X99.815 Y91.640 E0.90289 ; perimeter
G1 X100.396 Y91.464 E0.90816 ; perimeter
G1 X100.897 Y91.414 E0.91254 ; perimeter
G1 X101.000 Y91.404 E0.91344 F1699.382 ; perimeter
G1 X101.604 Y91.464 E0.91871 ; perimeter
G1 X102.185 Y91.640 E0.92398 ; perimeter
G1 X102.720 Y91.926 E0.92926 ; perimeter
G1 X103.189 Y92.311 E0.93453 ; perimeter
G1 X103.574 Y92.780 E0.93980 ; perimeter
G1 X103.860 Y93.315 E0.94508 ; perimeter
G1 X104.036 Y93.896 E0.95035 ; perimeter
G1 X104.096 Y94.500 E0.95562 ; perimeter
G1 X104.036 Y95.104 E0.96089 ; perimeter
G1 X103.875 Y95.634 E0.96571 ; perimeter
G1 X104.064 Y95.969 F6000.000 ; move inwards before travel
G1 E0.46571 F420.00000 ; retract
G92 E0 ; reset extrusion distance
G1 X99.589 Y98.231 F6000.000 ; move to first perimeter point
G1 E0.50000 F420.00000 ; unretract
G1 X99.534 Y98.450 E0.50307 F1699.382 ; perimeter
G1 X88.150 Y98.450 E0.65801 ; perimeter
G1 X88.150 Y90.550 E0.76554 ; perimeter
G1 X99.534 Y90.550 E0.92049 ; perimeter
G1 X99.589 Y90.769 E0.92355 ; perimeter
G1 X98.791 Y91.195 E0.93586 ; perimeter
G1 X98.189 Y91.689 E0.94646 ; perimeter
G1 X97.695 Y92.292 E0.95707 ; perimeter
G1 X97.327 Y92.979 E0.96768 ; perimeter
G1 X97.101 Y93.724 E0.97828 ; perimeter
G1 X97.025 Y94.500 E0.98889 ; perimeter
G1 X97.101 Y95.276 E0.99950 ; perimeter
G1 X97.327 Y96.021 E1.01010 ; perimeter
G1 X97.695 Y96.708 E1.02071 ; perimeter
G1 X98.189 Y97.311 E1.03132 ; perimeter
G1 X98.791 Y97.805 E1.04192 ; perimeter
G1 X99.542 Y98.207 E1.05351 ; perimeter
G1 E0.55351 F420.00000 ; retract
G92 E0 ; reset extrusion distance
G1 X102.411 Y98.231 F6000.000 ; move to first perimeter point
G1 E0.50000 F420.00000 ; unretract
G1 X103.209 Y97.805 E0.51230 F1699.382 ; perimeter
G1 X103.811 Y97.311 E0.52291 ; perimeter
G1 X104.305 Y96.708 E0.53352 ; perimeter
G1 X104.673 Y96.021 E0.54412 ; perimeter
G1 X104.899 Y95.276 E0.55473 ; perimeter
G1 X104.975 Y94.500 E0.56534 ; perimeter
G1 X104.899 Y93.724 E0.57595 ; perimeter
G1 X104.673 Y92.979 E0.58655 ; perimeter
G1 X104.305 Y92.292 E0.59716 ; perimeter
G1 X103.811 Y91.689 E0.60776 ; perimeter
G1 X103.209 Y91.195 E0.61837 ; perimeter
G1 X102.411 Y90.769 E0.63068 ; perimeter
G1 X102.466 Y90.550 E0.63374 ; perimeter
G1 X111.850 Y90.550 E0.76147 ; perimeter
G1 X111.850 Y98.450 E0.86899 ; perimeter
G1 X102.466 Y98.450 E0.99672 ; perimeter
G1 X102.424 Y98.282 E0.99907 ; perimeter
G1 E0.49907 F420.00000 ; retract
G92 E0 ; reset extrusion distance
G1 X112.331 Y98.931 F6000.000 ; move to first perimeter point
G1 E0.50000 F420.00000 ; unretract
