; generated by Slic3r 1.2.9 on 2017-06-09 at 22:49:54

; external perimeters extrusion width = 0.35mm
; perimeters extrusion width = 0.52mm
; infill extrusion width = 0.52mm
; solid infill extrusion width = 0.52mm
; top infill extrusion width = 0.52mm

M107 ; disable fan
G28 ; home all axes
G21 ; set units to millimeters
G90 ; use absolute coordinates
M82 ; use absolute distances for extrusion
G92 E0 ; reset extrusion distance
G1 E-0.50000 F420.00000 ; retract
G92 E0 ; reset extrusion distance
G1 Z0.200 F6000.000 ; move to next layer (0)
G1 X61.771 Y87.929 F6000.000 ; move to first skirt point
G1 E0.50000 F420.00000 ; unretract
G1 X62.216 Y87.647 E0.50716 F1800.000 ; skirt
G1 X62.818 Y87.329 E0.51643 ; skirt
G1 X71.288 Y83.353 E0.64379 ; skirt
G1 X71.734 Y83.173 E0.65034 ; skirt
G1 X72.245 Y83.007 E0.65765 ; skirt
G1 X72.699 Y82.893 E0.66402 ; skirt
G1 X73.102 Y82.816 E0.66961 ; skirt
G1 X73.628 Y82.750 E0.67683 ; skirt
G1 X74.300 Y82.719 E0.68598 ; skirt
G1 X125.886 Y82.722 E1.38812 ; skirt
G1 X126.434 Y82.756 E1.39560 F1800.000 ; skirt
G1 X126.898 Y82.816 E1.40196 ; skirt
G1 X127.298 Y82.892 E1.40751 ; skirt
G1 X127.815 Y83.025 E1.41478 ; skirt
G1 X128.207 Y83.152 E1.42038 ; skirt
G1 X128.645 Y83.323 E1.42678 ; skirt
G1 X137.182 Y87.329 E1.55514 ; skirt
G1 X137.838 Y87.679 E1.56526 ; skirt
G1 X138.522 Y88.141 E1.57649 ; skirt
G1 X138.972 Y88.511 E1.58441 ; skirt
G1 X139.308 Y88.829 E1.59071 ; skirt
G1 X139.593 Y89.132 E1.59638 ; skirt
G1 X139.930 Y89.540 E1.60359 ; skirt
G1 X140.170 Y89.870 E1.60913 ; skirt
G1 X140.422 Y90.263 E1.61550 ; skirt
G1 X140.652 Y90.677 E1.62193 ; skirt
G1 X140.876 Y91.154 E1.62912 ; skirt
G1 X141.048 Y91.593 E1.63553 ; skirt
G1 X141.175 Y91.985 E1.64114 ; skirt
G1 X141.307 Y92.500 E1.64837 ; skirt
G1 X141.394 Y92.964 E1.65479 ; skirt
G1 X141.456 Y93.493 E1.66205 ; skirt
G1 X141.481 Y94.100 E1.67032 ; skirt
G1 X141.481 Y108.500 E1.86632 ; skirt
G1 X141.444 Y109.234 E1.87633 ; skirt
G1 X141.384 Y109.698 E1.88269 ; skirt
G1 X141.307 Y110.100 E1.88826 ; skirt
G1 X140.708 Y112.431 E1.92102 ; skirt
G1 X139.762 Y114.492 E1.95189 ; skirt
G1 X138.163 Y116.102 E1.98276 ; skirt
G1 X136.108 Y117.061 E2.01364 ; skirt
G1 X134.435 Y117.281 E2.03660 ; skirt
G1 X65.565 Y117.281 E2.97400 ; skirt
G1 X63.331 Y116.884 E3.00488 ; skirt
G1 X61.372 Y115.742 E3.03575 ; skirt
G1 X59.926 Y113.995 E3.06662 ; skirt
G1 X59.292 Y112.431 E3.08959 ; skirt
G1 X58.684 Y110.063 E3.12287 ; skirt
G1 X58.556 Y109.234 E3.13428 ; skirt
G1 X58.524 Y108.769 E3.14062 ; skirt
G1 X58.519 Y94.100 E3.34029 ; skirt
G1 X58.550 Y93.428 E3.34944 ; skirt
G1 X58.606 Y92.964 E3.35581 ; skirt
G1 X58.706 Y92.438 E3.36309 ; skirt
G1 X58.824 Y91.985 E3.36946 ; skirt
G1 X58.952 Y91.593 E3.37507 ; skirt
G1 X59.124 Y91.154 E3.38149 ; skirt
G1 X59.320 Y90.733 E3.38781 ; skirt
G1 X59.578 Y90.264 E3.39510 ; skirt
G1 X59.830 Y89.870 E3.40147 ; skirt
G1 X60.070 Y89.540 E3.40701 ; skirt
G1 X60.407 Y89.132 E3.41422 ; skirt
G1 X61.010 Y88.527 E3.42585 ; skirt
G1 X61.388 Y88.210 E3.43256 ; skirt
G1 X61.729 Y87.960 E3.43832 ; skirt
G1 E2.93832 F420.00000 ; retract
G92 E0 ; reset extrusion distance
G1 X125.650 Y94.150 F6000.000 ; move to first perimeter point
G1 E0.50000 F420.00000 ; unretract
G1 X133.950 Y94.152 E0.61297 F2100.000 ; perimeter
G1 X133.950 Y108.459 E0.80771 ; perimeter
G1 X133.385 Y108.847 E0.81703 ; perimeter
G1 X133.385 Y109.750 E0.82932 ; perimeter
G1 X66.615 Y109.750 E1.73814 ; perimeter
G1 X66.615 Y108.847 E1.75043 ; perimeter
G1 X66.050 Y108.459 E1.75975 ; perimeter
G1 X66.050 Y94.152 E1.95449 ; perimeter
G1 X74.350 Y94.150 E2.06746 ; perimeter
G1 X74.350 Y90.250 E2.12054 ; perimeter
G1 X75.950 Y90.250 E2.14232 ; perimeter
G1 X75.950 Y92.550 E2.17362 ; perimeter
G1 X124.050 Y92.550 E2.82832 ; perimeter
G1 X124.050 Y90.250 E2.85963 ; perimeter
G1 X125.650 Y90.250 E2.88140 ; perimeter
G1 X125.650 Y94.097 E2.93377 ; perimeter
G1 X126.131 Y93.669 F6000.000 ; move to first perimeter point
G1 X134.009 Y93.671 E3.04100 F2100.000 ; perimeter
G1 X134.123 Y93.693 E3.04257 ; perimeter
G1 X134.257 Y93.761 E3.04463 ; perimeter
G1 X134.322 Y93.822 E3.04583 ; perimeter
G1 X134.403 Y93.960 E3.04801 ; perimeter
G1 X134.431 Y94.127 E3.05032 ; perimeter
G1 X134.431 Y108.455 E3.24534 ; perimeter
G1 X134.402 Y108.640 E3.24789 ; perimeter
G1 X134.297 Y108.805 E3.25055 ; perimeter
G1 X133.866 Y109.100 E3.25766 ; perimeter
G1 X133.866 Y110.231 E3.27305 ; perimeter
G1 X66.134 Y110.231 E4.19496 ; perimeter
G1 X66.134 Y109.100 E4.21035 ; perimeter
G1 X65.703 Y108.805 E4.21746 ; perimeter
G1 X65.598 Y108.640 E4.22012 ; perimeter
G1 X65.569 Y108.455 E4.22266 ; perimeter
G1 X65.569 Y94.145 E4.41744 ; perimeter
G1 X65.598 Y93.960 E4.41999 ; perimeter
G1 X65.640 Y93.872 E4.42132 ; perimeter
G1 X65.708 Y93.789 E4.42278 ; perimeter
G1 X65.795 Y93.726 E4.42423 ; perimeter
G1 X65.982 Y93.671 E4.42689 ; perimeter
G1 X73.869 Y93.669 E4.53424 ; perimeter
G1 X73.877 Y90.138 E4.58230 ; perimeter
G1 X73.932 Y89.987 E4.58448 ; perimeter
G1 X73.984 Y89.915 E4.58569 ; perimeter
G1 X74.096 Y89.829 E4.58762 ; perimeter
G1 X74.238 Y89.777 E4.58967 ; perimeter
G1 X76.431 Y89.769 E4.61952 ; perimeter
G1 X76.431 Y92.069 E4.65083 ; perimeter
G1 X123.569 Y92.069 E5.29243 ; perimeter
G1 X123.569 Y89.769 E5.32374 ; perimeter
G1 X125.655 Y89.769 E5.35213 ; perimeter
G1 X125.840 Y89.798 E5.35468 ; perimeter
G1 X125.928 Y89.840 E5.35601 ; perimeter
G1 X126.011 Y89.908 E5.35747 ; perimeter
G1 X126.068 Y89.987 E5.35880 ; perimeter
G1 X126.123 Y90.138 E5.36097 ; perimeter
G1 X126.131 Y93.616 E5.40832 ; perimeter
G1 X126.525 Y93.275 F6000.000 ; move to first perimeter point
G1 X134.046 Y93.277 E5.47367 F1050.000 ; perimeter
G1 X134.252 Y93.316 E5.47549 ; perimeter
G1 X134.486 Y93.436 E5.47777 ; perimeter
G1 X134.633 Y93.573 E5.47952 ; perimeter
G1 X134.768 Y93.802 E5.48183 ; perimeter
G1 X134.810 Y93.946 E5.48313 ; perimeter
G1 X134.825 Y94.108 E5.48455 ; perimeter
G1 X134.825 Y108.486 E5.60947 ; perimeter
G1 X134.782 Y108.757 E5.61186 ; perimeter
G1 X134.695 Y108.941 E5.61362 ; perimeter
G1 X134.565 Y109.099 E5.61540 ; perimeter
G1 X134.260 Y109.308 E5.61861 ; perimeter
G1 X134.260 Y110.625 E5.63006 ; perimeter
G1 X65.740 Y110.625 E6.22540 ; perimeter
G1 X65.740 Y109.308 E6.23685 ; perimeter
G1 X65.435 Y109.099 E6.24006 ; perimeter
G1 X65.305 Y108.941 E6.24183 ; perimeter
G1 X65.218 Y108.757 E6.24360 ; perimeter
G1 X65.175 Y108.486 E6.24599 ; perimeter
G1 X65.175 Y94.114 E6.37086 ; perimeter
G1 X65.218 Y93.843 E6.37324 ; perimeter
G1 X65.305 Y93.659 E6.37501 ; perimeter
G1 X65.436 Y93.500 E6.37681 ; perimeter
G1 X65.603 Y93.378 E6.37860 ; perimeter
G1 X65.798 Y93.301 E6.38042 ; perimeter
G1 X65.951 Y93.277 E6.38177 ; perimeter
G1 X73.475 Y93.275 E6.44714 ; perimeter
G1 X73.475 Y90.208 E6.47379 ; perimeter
G1 X73.490 Y90.051 E6.47516 ; perimeter
G1 X73.580 Y89.801 E6.47747 ; perimeter
G1 X73.698 Y89.639 E6.47921 ; perimeter
G1 X73.904 Y89.479 E6.48147 ; perimeter
G1 X74.151 Y89.390 E6.48376 ; perimeter
G1 X74.308 Y89.375 E6.48513 ; perimeter
G1 X76.825 Y89.375 E6.50700 ; perimeter
G1 X76.825 Y91.675 E6.52698 ; perimeter
G1 X123.175 Y91.675 E6.92970 ; perimeter
G1 X123.175 Y89.375 E6.94968 ; perimeter
G1 X125.686 Y89.375 E6.97150 ; perimeter
G1 X125.957 Y89.418 E6.97388 ; perimeter
G1 X126.141 Y89.505 E6.97565 ; perimeter
G1 X126.300 Y89.636 E6.97744 ; perimeter
G1 X126.420 Y89.801 E6.97921 ; perimeter
G1 X126.510 Y90.051 E6.98152 ; perimeter
G1 X126.525 Y90.208 E6.98290 ; perimeter
G1 X126.525 Y93.222 E7.00908 ; perimeter
G1 X126.525 Y93.625 F6000.000 ; move inwards before travel
G1 E6.50908 F420.00000 ; retract
G92 E0 ; reset extrusion distance
G1 X125.363 Y91.165 F6000.000 ; move to first infill point
G1 E0.50000 F420.00000 ; unretract
G1 X124.735 Y90.537 E0.51214 F2700.000 ; infill
G1 X124.337 Y90.822 E0.51883 ; infill
G1 X125.363 Y91.848 E0.53867 ; infill
G1 X125.363 Y92.531 E0.54801 ; infill
G1 X124.337 Y91.505 E0.56784 ; infill
G1 X124.337 Y92.189 E0.57718 ; infill
G1 X125.363 Y93.215 E0.59701 ; infill
G1 X125.363 Y93.898 E0.60635 ; infill
G1 X124.302 Y92.837 E0.62685 ; infill
G1 X123.619 Y92.837 E0.63619 ; infill
G1 X133.663 Y102.881 E0.83034 ; infill
G1 X133.663 Y102.198 E0.83968 ; infill
G1 X125.902 Y94.437 E0.98970 ; infill
G1 X126.585 Y94.437 E0.99904 ; infill
G1 X133.663 Y101.515 E1.13585 ; infill
G1 X133.663 Y100.831 E1.14519 ; infill
G1 X127.269 Y94.437 E1.26879 ; infill
G1 X127.952 Y94.437 E1.27813 ; infill
G1 X133.663 Y100.148 E1.38852 ; infill
G1 X133.663 Y99.465 E1.39786 ; infill
G1 X128.635 Y94.437 E1.49504 ; infill
G1 X129.319 Y94.438 E1.50438 ; infill
G1 X133.663 Y98.782 E1.58835 ; infill
G1 X133.663 Y98.099 E1.59769 ; infill
G1 X130.002 Y94.438 E1.66845 ; infill
G1 X130.686 Y94.438 E1.67779 ; infill
G1 X133.663 Y97.416 E1.73535 ; infill
G1 X133.663 Y96.732 E1.74469 ; infill
G1 X131.369 Y94.438 E1.78903 ; infill
G1 X132.052 Y94.438 E1.79837 ; infill
G1 X133.663 Y96.049 E1.82951 ; infill
G1 X133.663 Y95.366 E1.83885 ; infill
G1 X132.736 Y94.439 E1.85677 ; infill
G1 X133.419 Y94.439 E1.86611 ; infill
G1 X133.663 Y94.683 E1.87083 ; infill
G1 E1.37083 F420.00000 ; retract
G92 E0 ; reset extrusion distance
G1 X122.936 Y92.837 F6000.000 ; move to first infill point
G1 E0.50000 F420.00000 ; unretract
G1 X133.663 Y103.564 E0.70735 F2700.000 ; infill
G1 X133.663 Y104.247 E0.71669 ; infill
G1 X122.253 Y92.837 E0.93725 ; infill
G1 X121.570 Y92.837 E0.94659 ; infill
G1 X133.663 Y104.930 E1.18035 ; infill
G1 X133.663 Y105.614 E1.18969 ; infill
G1 X120.886 Y92.837 E1.43666 ; infill
G1 X120.203 Y92.837 E1.44600 ; infill
G1 X133.663 Y106.297 E1.70618 ; infill
G1 X133.663 Y106.980 E1.71552 ; infill
G1 X119.520 Y92.837 E1.98890 ; infill
G1 X118.837 Y92.837 E1.99824 ; infill
G1 X133.663 Y107.663 E2.28482 ; infill
G1 X133.663 Y108.346 E2.29416 ; infill
G1 X118.154 Y92.837 E2.59395 ; infill
G1 X117.470 Y92.837 E2.60329 ; infill
G1 X133.264 Y108.631 E2.90858 ; infill
G1 X133.098 Y109.148 F6000.000 ; move to first infill point
G1 X116.787 Y92.837 E3.22387 F2700.000 ; infill
G1 X116.104 Y92.837 E3.23321 ; infill
G1 X132.730 Y109.463 E3.55458 ; infill
G1 X132.047 Y109.463 E3.56392 ; infill
G1 X115.421 Y92.837 E3.88530 ; infill
G1 X114.738 Y92.837 E3.89464 ; infill
G1 X131.364 Y109.463 E4.21602 ; infill
G1 X130.681 Y109.463 E4.22536 ; infill
G1 X114.055 Y92.837 E4.54674 ; infill
G1 X113.371 Y92.837 E4.55607 ; infill
G1 X129.998 Y109.463 E4.87745 ; infill
G1 X129.314 Y109.463 E4.88679 ; infill
G1 X112.688 Y92.837 E5.20817 ; infill
G1 X112.005 Y92.837 E5.21751 ; infill
G1 X128.631 Y109.463 E5.53889 ; infill
G1 X127.948 Y109.463 E5.54823 ; infill
G1 X111.322 Y92.837 E5.86960 ; infill
G1 X110.639 Y92.837 E5.87894 ; infill
G1 X127.265 Y109.463 E6.20032 ; infill
G1 X126.582 Y109.463 E6.20966 ; infill
G1 X109.956 Y92.837 E6.53104 ; infill
G1 X109.272 Y92.837 E6.54038 ; infill
G1 X125.899 Y109.463 E6.86176 ; infill
G1 X125.215 Y109.463 E6.87109 ; infill
G1 X108.589 Y92.837 E7.19247 ; infill
G1 X107.906 Y92.837 E7.20181 ; infill
G1 X124.532 Y109.463 E7.52319 ; infill
G1 X123.849 Y109.463 E7.53253 ; infill
G1 X107.223 Y92.837 E7.85391 ; infill
G1 X106.540 Y92.837 E7.86324 ; infill
G1 X123.166 Y109.463 E8.18462 ; infill
G1 X122.483 Y109.463 E8.19396 ; infill
G1 X105.857 Y92.837 E8.51534 ; infill
G1 X105.173 Y92.837 E8.52468 ; infill
G1 X121.799 Y109.463 E8.84606 ; infill
G1 X121.116 Y109.463 E8.85540 ; infill
G1 X104.490 Y92.837 E9.17677 ; infill
G1 X103.807 Y92.837 E9.18611 ; infill
G1 X120.433 Y109.463 E9.50749 ; infill
G1 X119.750 Y109.463 E9.51683 ; infill
G1 X103.124 Y92.837 E9.83821 ; infill
G1 X102.441 Y92.837 E9.84755 ; infill
G1 X119.067 Y109.463 E10.16893 ; infill
G1 X118.384 Y109.463 E10.17826 ; infill
G1 X101.758 Y92.837 E10.49964 ; infill
G1 X101.074 Y92.837 E10.50898 ; infill
G1 X117.700 Y109.463 E10.83036 ; infill
G1 X117.017 Y109.463 E10.83970 ; infill
G1 X100.391 Y92.837 E11.16108 ; infill
G1 X99.708 Y92.837 E11.17042 ; infill
G1 X116.334 Y109.463 E11.49179 ; infill
G1 X115.651 Y109.463 E11.50113 ; infill
G1 X99.025 Y92.837 E11.82251 ; infill
G1 X98.342 Y92.837 E11.83185 ; infill
G1 X114.968 Y109.463 E12.15323 ; infill
G1 X114.285 Y109.463 E12.16257 ; infill
G1 X97.659 Y92.837 E12.48395 ; infill
G1 X96.975 Y92.837 E12.49328 ; infill
G1 X113.601 Y109.463 E12.81466 ; infill
G1 X112.918 Y109.463 E12.82400 ; infill
G1 X96.292 Y92.837 E13.14538 ; infill
G1 X95.609 Y92.837 E13.15472 ; infill
G1 X112.235 Y109.463 E13.47610 ; infill
G1 X111.552 Y109.463 E13.48543 ; infill
G1 X94.926 Y92.837 E13.80681 ; infill
G1 X94.243 Y92.837 E13.81615 ; infill
G1 X110.869 Y109.463 E14.13753 ; infill
G1 X110.186 Y109.463 E14.14687 ; infill
G1 X93.559 Y92.837 E14.46825 ; infill
G1 X92.876 Y92.837 E14.47759 ; infill
G1 X109.502 Y109.463 E14.79897 ; infill
G1 X108.819 Y109.463 E14.80830 ; infill
G1 X92.193 Y92.837 E15.12968 ; infill
G1 X91.510 Y92.837 E15.13902 ; infill
G1 X108.136 Y109.463 E15.46040 ; infill
G1 X107.453 Y109.463 E15.46974 ; infill
G1 X90.827 Y92.837 E15.79112 ; infill
G1 X90.144 Y92.837 E15.80045 ; infill
G1 X106.770 Y109.463 E16.12183 ; infill
G1 X106.087 Y109.463 E16.13117 ; infill
G1 X89.460 Y92.837 E16.45255 ; infill
G1 X88.777 Y92.837 E16.46189 ; infill
G1 X105.403 Y109.463 E16.78327 ; infill
G1 X104.720 Y109.463 E16.79261 ; infill
G1 X88.094 Y92.837 E17.11398 ; infill
G1 X87.411 Y92.837 E17.12332 ; infill
G1 X104.037 Y109.463 E17.44470 ; infill
G1 X103.354 Y109.463 E17.45404 ; infill
G1 X86.728 Y92.837 E17.77542 ; infill
G1 X86.045 Y92.837 E17.78476 ; infill
G1 X102.671 Y109.463 E18.10614 ; infill
G1 X101.987 Y109.463 E18.11547 ; infill
G1 X85.361 Y92.837 E18.43685 ; infill
G1 X84.678 Y92.837 E18.44619 ; infill
G1 X101.304 Y109.463 E18.76757 ; infill
G1 X100.621 Y109.463 E18.77691 ; infill
G1 X83.995 Y92.837 E19.09829 ; infill
G1 X83.312 Y92.837 E19.10763 ; infill
G1 X99.938 Y109.463 E19.42900 ; infill
G1 X99.255 Y109.463 E19.43834 ; infill
G1 X82.629 Y92.837 E19.75972 ; infill
G1 X81.946 Y92.837 E19.76906 ; infill
G1 X98.572 Y109.463 E20.09044 ; infill
G1 X97.888 Y109.463 E20.09978 ; infill
G1 X81.262 Y92.837 E20.42116 ; infill
G1 X80.579 Y92.837 E20.43049 ; infill
G1 X97.205 Y109.463 E20.75187 ; infill
G1 X96.522 Y109.463 E20.76121 ; infill
G1 X79.896 Y92.837 E21.08259 ; infill
G1 X79.213 Y92.837 E21.09193 ; infill
G1 X95.839 Y109.463 E21.41331 ; infill
G1 X95.156 Y109.463 E21.42264 ; infill
G1 X78.530 Y92.837 E21.74402 ; infill
G1 X77.847 Y92.837 E21.75336 ; infill
G1 X94.473 Y109.463 E22.07474 ; infill
G1 X93.789 Y109.463 E22.08408 ; infill
G1 X77.163 Y92.837 E22.40546 ; infill
G1 X76.480 Y92.837 E22.41480 ; infill
G1 X93.106 Y109.463 E22.73618 ; infill
G1 X92.423 Y109.463 E22.74551 ; infill
G1 X74.637 Y91.677 E23.08932 ; infill
G1 X74.637 Y92.360 E23.09865 ; infill
G1 X91.740 Y109.463 E23.42925 ; infill
G1 X91.057 Y109.463 E23.43859 ; infill
G1 X74.637 Y93.043 E23.75598 ; infill
G1 X74.637 Y93.726 E23.76532 ; infill
G1 X90.374 Y109.463 E24.06950 ; infill
G1 X89.690 Y109.463 E24.07884 ; infill
G1 X74.637 Y94.410 E24.36982 ; infill
G1 X73.981 Y94.437 E24.37880 ; infill
G1 X89.007 Y109.463 E24.66925 ; infill
G1 X88.324 Y109.463 E24.67859 ; infill
G1 X73.298 Y94.437 E24.96904 ; infill
G1 X72.615 Y94.437 E24.97838 ; infill
G1 X87.641 Y109.463 E25.26883 ; infill
G1 X86.958 Y109.463 E25.27816 ; infill
G1 X71.932 Y94.437 E25.56861 ; infill
G1 X71.249 Y94.437 E25.57794 ; infill
G1 X86.275 Y109.463 E25.86839 ; infill
G1 X85.591 Y109.463 E25.87772 ; infill
G1 X70.566 Y94.438 E26.16816 ; infill
G1 X69.883 Y94.438 E26.17750 ; infill
G1 X84.908 Y109.463 E26.46793 ; infill
G1 X84.225 Y109.463 E26.47727 ; infill
G1 X69.200 Y94.438 E26.76770 ; infill
G1 X68.517 Y94.438 E26.77703 ; infill
G1 X83.542 Y109.463 E27.06746 ; infill
G1 X82.859 Y109.463 E27.07680 ; infill
G1 X67.834 Y94.438 E27.36722 ; infill
G1 X67.151 Y94.439 E27.37656 ; infill
G1 X82.175 Y109.463 E27.66698 ; infill
G1 X81.492 Y109.463 E27.67632 ; infill
G1 X66.468 Y94.439 E27.96673 ; infill
G1 X66.337 Y94.991 E27.97449 ; infill
G1 X80.809 Y109.463 E28.25424 ; infill
G1 X80.126 Y109.463 E28.26357 ; infill
