; generated by Slic3r 1.2.9 on 2017-07-28 at 22:51:20

; external perimeters extrusion width = 0.35mm
; perimeters extrusion width = 0.52mm
; infill extrusion width = 0.52mm
; solid infill extrusion width = 0.52mm
; top infill extrusion width = 0.52mm

M107 ; disable fan
G28 ; home all axes
G21 ; set units to millimeters
G90 ; use absolute coordinates
M82 ; use absolute distances for extrusion
G92 E0 ; reset extrusion distance
G1 E-0.50000 F420.00000 ; retract
G92 E0 ; reset extrusion distance
G1 Z0.200 F6000.000 ; move to next layer (0)
G1 X61.690 Y70.847 F6000.000 ; move to first skirt point
G1 E0.50000 F420.00000 ; unretract
G1 X62.100 Y70.512 E0.50720 F1800.000 ; skirt
G1 X62.428 Y70.274 E0.51272 ; skirt
G1 X62.883 Y69.981 E0.52008 ; skirt
G1 X63.453 Y69.667 E0.52893 ; skirt
G1 X63.826 Y69.492 E0.53454 ; skirt
G1 X64.320 Y69.292 E0.54180 ; skirt
G1 X64.941 Y69.090 E0.55070 ; skirt
G1 X65.339 Y68.988 E0.55629 ; skirt
G1 X65.864 Y68.884 E0.56357 ; skirt
G1 X66.511 Y68.802 E0.57244 ; skirt
G1 X67.049 Y68.772 E0.57978 ; skirt
G1 X132.950 Y68.772 E1.47677 ; skirt
G1 X133.614 Y68.814 E1.48583 F1800.000 ; skirt
G1 X134.136 Y68.884 E1.49299 ; skirt
G1 X134.538 Y68.960 E1.49856 ; skirt
G1 X135.179 Y69.125 E1.50757 ; skirt
G1 X135.679 Y69.292 E1.51474 ; skirt
G1 X136.174 Y69.491 E1.52200 ; skirt
G1 X136.547 Y69.667 E1.52762 ; skirt
G1 X137.009 Y69.917 E1.53477 ; skirt
G1 X137.572 Y70.274 E1.54384 ; skirt
G1 X137.900 Y70.512 E1.54936 ; skirt
G1 X138.310 Y70.846 E1.55656 ; skirt
G1 X138.790 Y71.298 E1.56553 ; skirt
G1 X139.070 Y71.596 E1.57110 ; skirt
G1 X139.411 Y72.001 E1.57830 ; skirt
G1 X139.797 Y72.532 E1.58724 ; skirt
G1 X140.019 Y72.883 E1.59289 ; skirt
G1 X140.275 Y73.341 E1.60003 ; skirt
G1 X140.558 Y73.942 E1.60907 ; skirt
G1 X140.708 Y74.321 E1.61463 ; skirt
G1 X140.875 Y74.821 E1.62180 ; skirt
G1 X141.040 Y75.463 E1.63082 ; skirt
G1 X141.116 Y75.864 E1.63638 ; skirt
G1 X141.186 Y76.385 E1.64353 ; skirt
G1 X141.231 Y77.250 E1.65532 ; skirt
G1 X141.231 Y122.750 E2.27462 ; skirt
G1 X141.198 Y123.490 E2.28470 ; skirt
G1 X141.136 Y124.012 E2.29186 ; skirt
G1 X141.012 Y124.661 E2.30086 ; skirt
G1 X140.857 Y125.240 E2.30902 ; skirt
G1 X140.558 Y126.058 E2.32087 ; skirt
G1 X140.259 Y126.692 E2.33041 ; skirt
G1 X139.797 Y127.468 E2.34270 ; skirt
G1 X139.411 Y127.999 E2.35164 ; skirt
G1 X139.065 Y128.410 E2.35894 ; skirt
G1 X138.702 Y128.791 E2.36612 ; skirt
G1 X138.404 Y129.071 E2.37168 ; skirt
G1 X137.900 Y129.488 E2.38058 ; skirt
G1 X137.468 Y129.797 E2.38781 ; skirt
G1 X137.118 Y130.019 E2.39346 ; skirt
G1 X136.547 Y130.333 E2.40231 ; skirt
G1 X136.058 Y130.558 E2.40965 ; skirt
G1 X135.679 Y130.708 E2.41519 ; skirt
G1 X135.179 Y130.875 E2.42237 ; skirt
G1 X134.538 Y131.040 E2.43138 ; skirt
G1 X134.136 Y131.116 E2.43695 ; skirt
G1 X133.614 Y131.186 E2.44411 ; skirt
G1 X132.951 Y131.228 E2.45316 ; skirt
G1 X67.049 Y131.228 E3.35015 ; skirt
G1 X66.386 Y131.186 E3.35921 ; skirt
G1 X65.864 Y131.116 E3.36637 ; skirt
G1 X65.464 Y131.040 E3.37191 ; skirt
G1 X64.946 Y130.911 E3.37918 ; skirt
G1 X64.321 Y130.708 E3.38813 ; skirt
G1 X63.826 Y130.509 E3.39538 ; skirt
G1 X63.453 Y130.333 E3.40100 ; skirt
G1 X62.990 Y130.083 E3.40816 ; skirt
G1 X62.428 Y129.726 E3.41722 ; skirt
G1 X61.696 Y129.159 E3.42982 ; skirt
G1 X61.209 Y128.702 E3.43891 ; skirt
G1 X60.836 Y128.298 E3.44639 ; skirt
G1 X60.505 Y127.891 E3.45354 ; skirt
G1 X60.197 Y127.459 E3.46075 ; skirt
G1 X59.917 Y127.009 E3.46797 ; skirt
G1 X59.667 Y126.547 E3.47512 ; skirt
G1 X59.492 Y126.174 E3.48073 ; skirt
G1 X59.292 Y125.679 E3.48800 ; skirt
G1 X59.125 Y125.179 E3.49517 ; skirt
G1 X58.960 Y124.536 E3.50421 ; skirt
G1 X58.884 Y124.136 E3.50975 ; skirt
G1 X58.814 Y123.615 E3.51691 ; skirt
G1 X58.769 Y122.750 E3.52870 ; skirt
G1 X58.776 Y76.923 E4.15245 ; skirt
G1 X58.802 Y76.511 E4.15808 ; skirt
G1 X58.864 Y75.988 E4.16524 ; skirt
G1 X58.988 Y75.339 E4.17423 ; skirt
G1 X59.125 Y74.820 E4.18154 ; skirt
G1 X59.292 Y74.321 E4.18870 ; skirt
G1 X59.492 Y73.826 E4.19596 ; skirt
G1 X59.667 Y73.453 E4.20158 ; skirt
G1 X59.981 Y72.883 E4.21044 ; skirt
G1 X60.203 Y72.532 E4.21608 ; skirt
G1 X60.512 Y72.100 E4.22331 ; skirt
G1 X60.930 Y71.596 E4.23223 ; skirt
G1 X61.298 Y71.209 E4.23950 ; skirt
G1 X61.651 Y70.881 E4.24605 ; skirt
G1 E3.74605 F420.00000 ; retract
G92 E0 ; reset extrusion distance
G1 X71.836 Y78.900 F6000.000 ; move to first perimeter point
G1 E0.50000 F420.00000 ; unretract
G1 X71.605 Y79.036 E0.50364 F1500.000 ; perimeter
G1 X71.354 Y79.127 E0.50728 ; perimeter
G1 X71.089 Y79.169 E0.51092 ; perimeter
G1 X70.822 Y79.160 E0.51457 ; perimeter
G1 X70.552 Y79.100 E0.51833 ; perimeter
G1 X70.245 Y78.956 E0.52294 ; perimeter
G1 X70.027 Y78.786 E0.52671 ; perimeter
G1 X69.850 Y78.586 E0.53035 ; perimeter
G1 X69.714 Y78.355 E0.53399 ; perimeter
G1 X69.623 Y78.104 E0.53763 ; perimeter
G1 X69.581 Y77.839 E0.54127 ; perimeter
G1 X69.590 Y77.572 E0.54492 ; perimeter
G1 X69.650 Y77.302 E0.54868 ; perimeter
G1 X69.794 Y76.995 E0.55329 ; perimeter
G1 X69.964 Y76.777 E0.55706 ; perimeter
G1 X70.164 Y76.600 E0.56070 ; perimeter
G1 X70.395 Y76.464 E0.56434 ; perimeter
G1 X70.646 Y76.373 E0.56798 ; perimeter
G1 X70.911 Y76.331 E0.57162 F1500.000 ; perimeter
G1 X71.178 Y76.340 E0.57526 ; perimeter
G1 X71.448 Y76.400 E0.57903 ; perimeter
G1 X71.755 Y76.544 E0.58364 ; perimeter
G1 X71.973 Y76.714 E0.58741 ; perimeter
G1 X72.150 Y76.914 E0.59105 ; perimeter
G1 X72.286 Y77.145 E0.59469 ; perimeter
G1 X72.377 Y77.396 E0.59833 ; perimeter
G1 X72.419 Y77.661 E0.60197 ; perimeter
G1 X72.410 Y77.928 E0.60561 ; perimeter
G1 X72.350 Y78.198 E0.60938 ; perimeter
G1 X72.206 Y78.505 E0.61399 ; perimeter
G1 X72.036 Y78.723 E0.61776 ; perimeter
G1 X71.875 Y78.865 E0.62068 ; perimeter
G1 X71.603 Y78.580 F6000.000 ; move to first perimeter point
G1 X71.437 Y78.678 E0.62236 F1500.000 ; perimeter
G1 X71.255 Y78.744 E0.62404 ; perimeter
G1 X71.064 Y78.774 E0.62572 ; perimeter
G1 X70.871 Y78.768 E0.62739 ; perimeter
G1 X70.680 Y78.725 E0.62910 ; perimeter
G1 X70.452 Y78.618 E0.63128 ; perimeter
G1 X70.298 Y78.498 E0.63299 ; perimeter
G1 X70.170 Y78.353 E0.63466 ; perimeter
G1 X70.072 Y78.187 E0.63634 ; perimeter
G1 X70.006 Y78.005 E0.63802 ; perimeter
G1 X69.976 Y77.814 E0.63969 ; perimeter
G1 X69.982 Y77.621 E0.64137 ; perimeter
G1 X70.025 Y77.430 E0.64307 ; perimeter
G1 X70.132 Y77.202 E0.64526 ; perimeter
G1 X70.252 Y77.048 E0.64696 ; perimeter
G1 X70.397 Y76.920 E0.64864 ; perimeter
G1 X70.563 Y76.822 E0.65032 ; perimeter
G1 X70.745 Y76.756 E0.65199 ; perimeter
G1 X70.936 Y76.726 E0.65367 F1500.000 ; perimeter
G1 X71.129 Y76.732 E0.65535 ; perimeter
G1 X71.320 Y76.775 E0.65705 ; perimeter
G1 X71.548 Y76.882 E0.65924 ; perimeter
G1 X71.702 Y77.002 E0.66094 ; perimeter
G1 X71.830 Y77.147 E0.66262 ; perimeter
G1 X71.928 Y77.313 E0.66430 ; perimeter
G1 X71.994 Y77.495 E0.66597 ; perimeter
G1 X72.024 Y77.686 E0.66765 ; perimeter
G1 X72.018 Y77.879 E0.66933 ; perimeter
G1 X71.975 Y78.070 E0.67103 ; perimeter
G1 X71.868 Y78.298 E0.67322 ; perimeter
G1 X71.748 Y78.452 E0.67492 ; perimeter
G1 X71.642 Y78.545 E0.67614 ; perimeter
G1 X71.617 Y78.772 F6000.000 ; move inwards before travel
G1 E0.17614 F420.00000 ; retract
G92 E0 ; reset extrusion distance
G1 X69.078 Y77.655 F6000.000 ; move to first perimeter point
G1 E0.50000 F420.00000 ; unretract
G1 X68.603 Y77.262 E0.50839 F1500.000 ; perimeter
G1 X68.153 Y77.050 E0.51517 ; perimeter
G1 X67.726 Y76.953 E0.52112 ; perimeter
G1 X66.333 Y76.951 E0.54008 ; perimeter
G1 X66.494 Y76.680 E0.54437 ; perimeter
G1 X66.694 Y76.485 E0.54818 ; perimeter
G1 X66.862 Y76.386 E0.55082 ; perimeter
G1 X67.056 Y76.323 E0.55361 ; perimeter
G1 X67.299 Y76.300 E0.55693 ; perimeter
G1 X69.725 Y76.300 E0.58994 ; perimeter
G1 X69.382 Y76.742 E0.59756 ; perimeter
G1 X69.192 Y77.145 E0.60362 ; perimeter
G1 X69.090 Y77.604 E0.61002 ; perimeter
G1 E0.11002 F420.00000 ; retract
G92 E0 ; reset extrusion distance
G1 X88.450 Y99.950 F6000.000 ; move to first perimeter point
G1 E0.50000 F420.00000 ; unretract
G1 X88.450 Y95.951 E0.55444 F2100.000 ; perimeter
G1 X88.485 Y95.582 E0.55948 ; perimeter
G1 X88.681 Y95.038 E0.56735 ; perimeter
G1 X88.917 Y94.690 E0.57307 ; perimeter
G1 X89.190 Y94.417 E0.57833 ; perimeter
G1 X89.510 Y94.199 E0.58359 ; perimeter
G1 X89.896 Y94.032 E0.58931 ; perimeter
G1 X90.418 Y93.950 E0.59651 ; perimeter
G1 X94.646 Y93.952 E0.65405 ; perimeter
G1 X95.011 Y94.010 E0.65909 ; perimeter
G1 X95.375 Y94.141 E0.66435 ; perimeter
G1 X95.722 Y94.346 E0.66984 ; perimeter
G1 X96.098 Y94.699 E0.67687 ; perimeter
G1 X96.418 Y95.240 E0.68542 ; perimeter
G1 X96.548 Y95.821 E0.69352 ; perimeter
G1 X96.550 Y99.950 E0.74972 ; perimeter
G1 X99.152 Y99.950 E0.78514 ; perimeter
G1 X98.547 Y99.453 E0.79579 ; perimeter
G1 X98.291 Y99.142 E0.80128 ; perimeter
G1 X98.101 Y98.786 E0.80676 ; perimeter
G1 X97.984 Y98.401 E0.81225 ; perimeter
G1 X97.945 Y98.000 E0.81773 ; perimeter
G1 X97.984 Y97.599 E0.82321 ; perimeter
G1 X98.101 Y97.214 E0.82870 ; perimeter
G1 X98.291 Y96.858 E0.83418 ; perimeter
G1 X98.547 Y96.547 E0.83966 ; perimeter
G1 X99.123 Y96.074 E0.84981 ; perimeter
G1 X98.472 Y95.992 E0.85874 ; perimeter
G1 X97.914 Y95.751 E0.86701 ; perimeter
G1 X97.487 Y95.399 E0.87454 ; perimeter
G1 X97.143 Y94.892 E0.88288 ; perimeter
G1 X96.983 Y94.402 E0.88990 ; perimeter
G1 X96.950 Y94.049 E0.89472 ; perimeter
G1 X96.958 Y84.758 E1.02118 ; perimeter
G1 X97.046 Y84.365 E1.02666 ; perimeter
G1 X97.213 Y83.979 E1.03238 ; perimeter
G1 X97.567 Y83.522 E1.04026 ; perimeter
G1 X97.899 Y83.265 E1.04597 ; perimeter
G1 X98.243 Y83.089 E1.05124 ; perimeter
G1 X98.615 Y82.982 E1.05650 ; perimeter
G1 X98.951 Y82.950 E1.06109 ; perimeter
G1 X99.358 Y82.950 E1.06663 ; perimeter
G1 X99.394 Y82.704 E1.07002 ; perimeter
G1 X99.214 Y82.649 E1.07259 ; perimeter
G1 X98.858 Y82.459 E1.07807 ; perimeter
G1 X98.547 Y82.203 E1.08356 ; perimeter
G1 X98.291 Y81.892 E1.08904 ; perimeter
G1 X98.101 Y81.536 E1.09452 ; perimeter
G1 X97.984 Y81.151 E1.10001 ; perimeter
G1 X97.945 Y80.750 E1.10549 ; perimeter
G1 X97.984 Y80.349 E1.11098 ; perimeter
G1 X98.101 Y79.964 E1.11646 ; perimeter
G1 X98.291 Y79.608 E1.12194 ; perimeter
G1 X98.547 Y79.297 E1.12743 ; perimeter
G1 X98.858 Y79.041 E1.13291 ; perimeter
G1 X99.214 Y78.851 E1.13840 ; perimeter
G1 X99.598 Y78.734 E1.14387 ; perimeter
G1 X99.993 Y78.695 E1.14926 ; perimeter
G1 X100.399 Y78.734 E1.15482 ; perimeter
G1 X100.786 Y78.851 E1.16033 ; perimeter
G1 X101.142 Y79.041 E1.16581 ; perimeter
G1 X101.453 Y79.297 E1.17130 ; perimeter
G1 X101.709 Y79.608 E1.17678 ; perimeter
G1 X101.899 Y79.964 E1.18227 ; perimeter
G1 X102.016 Y80.349 E1.18775 ; perimeter
G1 X102.055 Y80.750 E1.19323 ; perimeter
G1 X102.016 Y81.151 E1.19872 ; perimeter
G1 X101.899 Y81.536 E1.20420 ; perimeter
G1 X101.709 Y81.892 E1.20969 ; perimeter
G1 X101.453 Y82.203 E1.21517 ; perimeter
G1 X101.142 Y82.459 E1.22065 ; perimeter
G1 X100.786 Y82.649 E1.22614 ; perimeter
G1 X100.606 Y82.704 E1.22871 ; perimeter
G1 X100.642 Y82.950 E1.23209 ; perimeter
G1 X101.066 Y82.950 E1.23786 ; perimeter
G1 X101.512 Y83.006 E1.24398 ; perimeter
G1 X102.007 Y83.202 E1.25123 ; perimeter
G1 X102.491 Y83.578 E1.25957 ; perimeter
G1 X102.816 Y84.026 E1.26710 ; perimeter
G1 X103.015 Y84.582 E1.27515 ; perimeter
G1 X103.050 Y84.951 E1.28018 ; perimeter
G1 X103.048 Y94.146 E1.40533 ; perimeter
G1 X102.990 Y94.511 E1.41037 ; perimeter
G1 X102.848 Y94.906 E1.41609 ; perimeter
G1 X102.504 Y95.412 E1.42442 ; perimeter
G1 X101.994 Y95.808 E1.43320 ; perimeter
G1 X101.418 Y96.015 E1.44153 ; perimeter
G1 X100.869 Y96.067 E1.44904 ; perimeter
G1 X101.453 Y96.547 E1.45933 ; perimeter
G1 X101.709 Y96.858 E1.46481 ; perimeter
G1 X101.899 Y97.214 E1.47030 ; perimeter
G1 X102.016 Y97.599 E1.47578 ; perimeter
G1 X102.055 Y98.000 E1.48127 ; perimeter
G1 X102.016 Y98.401 E1.48675 ; perimeter
G1 X101.899 Y98.786 E1.49223 ; perimeter
G1 X101.709 Y99.142 E1.49772 ; perimeter
G1 X101.453 Y99.453 E1.50320 ; perimeter
G1 X100.848 Y99.950 E1.51386 ; perimeter
G1 X103.450 Y99.950 E1.54928 ; perimeter
G1 X103.452 Y95.854 E1.60502 ; perimeter
G1 X103.510 Y95.489 E1.61005 ; perimeter
G1 X103.652 Y95.094 E1.61577 ; perimeter
G1 X103.977 Y94.615 E1.62364 ; perimeter
G1 X104.292 Y94.338 E1.62936 ; perimeter
G1 X104.639 Y94.132 E1.63485 ; perimeter
G1 X105.098 Y93.983 E1.64142 ; perimeter
G1 X105.451 Y93.950 E1.64624 ; perimeter
G1 X109.662 Y93.952 E1.70356 ; perimeter
G1 X110.153 Y94.045 E1.71036 ; perimeter
G1 X110.683 Y94.316 E1.71845 ; perimeter
G1 X111.010 Y94.604 E1.72440 ; perimeter
G1 X111.295 Y94.996 E1.73098 ; perimeter
G1 X111.462 Y95.385 E1.73675 ; perimeter
G1 X111.548 Y95.839 E1.74303 ; perimeter
G1 X111.550 Y99.950 E1.79899 ; perimeter
G1 X112.083 Y99.950 E1.80625 ; perimeter
G1 X112.621 Y100.035 E1.81367 ; perimeter
G1 X113.104 Y100.262 E1.82093 ; perimeter
G1 X113.517 Y100.605 E1.82824 ; perimeter
G1 X113.858 Y101.108 E1.83651 ; perimeter
G1 X114.017 Y101.598 E1.84352 ; perimeter
G1 X114.050 Y101.951 E1.84833 ; perimeter
G1 X114.050 Y111.083 E1.97263 ; perimeter
G1 X113.962 Y111.638 E1.98028 ; perimeter
G1 X113.684 Y112.183 E1.98861 ; perimeter
G1 X113.396 Y112.510 E1.99455 ; perimeter
G1 X112.992 Y112.804 E2.00135 ; perimeter
G1 X112.512 Y112.994 E2.00837 ; perimeter
G1 X112.066 Y113.050 E2.01449 ; perimeter
G1 X87.917 Y113.050 E2.34318 ; perimeter
G1 X87.362 Y112.962 E2.35083 ; perimeter
G1 X86.817 Y112.684 E2.35916 ; perimeter
G1 X86.490 Y112.396 E2.36510 ; perimeter
G1 X86.205 Y112.004 E2.37168 ; perimeter
G1 X86.038 Y111.615 E2.37745 ; perimeter
G1 X85.952 Y111.161 E2.38374 ; perimeter
G1 X85.950 Y101.951 E2.50911 ; perimeter
G1 X85.985 Y101.582 E2.51415 ; perimeter
G1 X86.186 Y101.022 E2.52225 ; perimeter
G1 X86.499 Y100.591 E2.52950 ; perimeter
G1 X86.897 Y100.262 E2.53652 ; perimeter
G1 X87.379 Y100.035 E2.54378 ; perimeter
G1 X87.917 Y99.950 E2.55119 ; perimeter
G1 X88.397 Y99.950 E2.55773 ; perimeter
G1 X88.931 Y100.431 F6000.000 ; move to first perimeter point
G1 X88.931 Y95.973 E2.61840 F2100.000 ; perimeter
G1 X88.958 Y95.687 E2.62231 ; perimeter
G1 X89.113 Y95.258 E2.62852 ; perimeter
G1 X89.289 Y94.998 E2.63280 ; perimeter
G1 X89.498 Y94.789 E2.63682 ; perimeter
G1 X89.743 Y94.623 E2.64085 ; perimeter
G1 X90.031 Y94.498 E2.64512 ; perimeter
G1 X90.455 Y94.431 E2.65097 ; perimeter
G1 X94.608 Y94.433 E2.70749 ; perimeter
G1 X94.891 Y94.478 E2.71139 ; perimeter
G1 X95.169 Y94.578 E2.71541 ; perimeter
G1 X95.432 Y94.733 E2.71956 ; perimeter
G1 X95.719 Y95.003 E2.72493 ; perimeter
G1 X95.965 Y95.420 E2.73152 ; perimeter
G1 X96.067 Y95.874 E2.73786 ; perimeter
G1 X96.069 Y100.431 E2.79988 ; perimeter
G1 X103.931 Y100.431 E2.90690 ; perimeter
G1 X103.933 Y95.892 E2.96867 ; perimeter
G1 X103.978 Y95.609 E2.97257 ; perimeter
G1 X104.084 Y95.314 E2.97685 ; perimeter
G1 X104.341 Y94.936 E2.98306 ; perimeter
G1 X104.576 Y94.729 E2.98733 ; perimeter
G1 X104.839 Y94.573 E2.99148 ; perimeter
G1 X105.197 Y94.457 E2.99661 ; perimeter
G1 X105.473 Y94.431 E3.00039 ; perimeter
G1 X109.617 Y94.433 E3.05679 ; perimeter
G1 X109.995 Y94.505 E3.06203 ; perimeter
G1 X110.410 Y94.717 E3.06837 ; perimeter
G1 X110.652 Y94.930 E3.07277 ; perimeter
G1 X110.874 Y95.235 E3.07790 ; perimeter
G1 X110.999 Y95.527 E3.08222 ; perimeter
G1 X111.067 Y95.884 E3.08716 ; perimeter
G1 X111.069 Y100.431 E3.14906 ; perimeter
G1 X112.045 Y100.431 E3.16234 ; perimeter
G1 X112.478 Y100.500 E3.16831 ; perimeter
G1 X112.844 Y100.672 E3.17381 ; perimeter
G1 X113.157 Y100.932 E3.17935 ; perimeter
G1 X113.421 Y101.322 E3.18576 ; perimeter
G1 X113.543 Y101.696 E3.19113 ; perimeter
G1 X113.569 Y101.973 E3.19491 ; perimeter
G1 X113.569 Y111.045 E3.31838 ; perimeter
G1 X113.499 Y111.487 E3.32448 ; perimeter
G1 X113.283 Y111.910 E3.33094 ; perimeter
G1 X113.070 Y112.152 E3.33534 ; perimeter
G1 X112.758 Y112.379 E3.34058 ; perimeter
G1 X112.391 Y112.524 E3.34595 ; perimeter
G1 X112.036 Y112.569 E3.35083 ; perimeter
G1 X87.955 Y112.569 E3.67859 ; perimeter
G1 X87.513 Y112.499 E3.68469 ; perimeter
G1 X87.090 Y112.283 E3.69115 ; perimeter
