; generated by Slic3r 1.2.9 on 2017-06-05 at 15:51:13

; external perimeters extrusion width = 0.35mm
; perimeters extrusion width = 0.52mm
; infill extrusion width = 0.52mm
; solid infill extrusion width = 0.52mm
; top infill extrusion width = 0.52mm

M107 ; disable fan
G28 ; home all axes
G21 ; set units to millimeters
G90 ; use absolute coordinates
M82 ; use absolute distances for extrusion
G92 E0 ; reset extrusion distance
G1 E-0.30000 F420.00000 ; retract
G92 E0 ; reset extrusion distance
G1 Z0.200 F6000.000 ; move to next layer (0)
G1 X52.505 Y33.753 F6000.000 ; move to first skirt point
G1 E0.30000 F420.00000 ; unretract
G1 X57.533 Y25.932 E0.42656 F1800.000 ; skirt
G1 X58.112 Y25.119 E0.44014 ; skirt
G1 X58.653 Y24.470 E0.45164 ; skirt
G1 X59.077 Y24.025 E0.46001 ; skirt
G1 X59.676 Y23.470 E0.47112 ; skirt
G1 X60.152 Y23.082 E0.47948 ; skirt
G1 X60.801 Y22.617 E0.49034 ; skirt
G1 X61.321 Y22.290 E0.49871 ; skirt
G1 X62.016 Y21.911 E0.50948 ; skirt
G1 X62.572 Y21.650 E0.51785 ; skirt
G1 X63.314 Y21.356 E0.52870 ; skirt
G1 X63.898 Y21.165 E0.53707 ; skirt
G1 X64.689 Y20.961 E0.54818 ; skirt
G1 X65.292 Y20.846 E0.55655 ; skirt
G1 X66.131 Y20.741 E0.56805 ; skirt
G1 X67.128 Y20.693 E0.58164 ; skirt
G1 X85.630 Y20.705 E0.83348 ; skirt
G1 X86.259 Y20.743 E0.84205 F1800.000 ; skirt
G1 X87.118 Y20.853 E0.85383 ; skirt
G1 X87.735 Y20.974 E0.86239 ; skirt
G1 X88.542 Y21.187 E0.87376 ; skirt
G1 X89.139 Y21.387 E0.88232 ; skirt
G1 X89.894 Y21.693 E0.89341 ; skirt
G1 X90.460 Y21.966 E0.90197 ; skirt
G1 X148.749 Y52.072 E1.79492 ; skirt
G1 X150.551 Y53.450 E1.82580 ; skirt
G1 X151.768 Y55.364 E1.85667 ; skirt
G1 X152.256 Y57.830 E1.89089 ; skirt
G1 X152.256 Y142.170 E3.03884 ; skirt
G1 X151.859 Y144.403 E3.06972 ; skirt
G1 X150.717 Y146.363 E3.10059 ; skirt
G1 X148.889 Y147.854 E3.13270 ; skirt
G1 X94.067 Y177.882 E3.98349 ; skirt
G1 X93.192 Y178.313 E3.99677 ; skirt
G1 X92.438 Y178.618 E4.00784 ; skirt
G1 X91.844 Y178.816 E4.01636 ; skirt
G1 X91.039 Y179.028 E4.02769 ; skirt
G1 X90.424 Y179.148 E4.03622 ; skirt
G1 X89.567 Y179.257 E4.04797 ; skirt
G1 X88.552 Y179.307 E4.06181 ; skirt
G1 X69.410 Y179.307 E4.32236 ; skirt
G1 X68.391 Y179.257 E4.33624 ; skirt
G1 X67.532 Y179.147 E4.34803 ; skirt
G1 X66.915 Y179.026 E4.35659 ; skirt
G1 X66.108 Y178.813 E4.36795 ; skirt
G1 X65.512 Y178.613 E4.37651 ; skirt
G1 X64.756 Y178.307 E4.38760 ; skirt
G1 X64.190 Y178.034 E4.39616 ; skirt
G1 X63.485 Y177.638 E4.40716 ; skirt
G1 X62.956 Y177.297 E4.41573 ; skirt
G1 X62.301 Y176.813 E4.42682 ; skirt
G1 X61.820 Y176.408 E4.43538 ; skirt
G1 X61.217 Y175.830 E4.44674 ; skirt
G1 X60.792 Y175.367 E4.45530 ; skirt
G1 X60.250 Y174.691 E4.46708 ; skirt
G1 X59.890 Y174.175 E4.47566 ; skirt
G1 X49.992 Y158.000 E4.73376 ; skirt
G1 X49.462 Y157.016 E4.74898 ; skirt
G1 X49.106 Y156.199 E4.76111 ; skirt
G1 X48.879 Y155.563 E4.77030 ; skirt
G1 X48.640 Y154.713 E4.78232 ; skirt
G1 X48.502 Y154.052 E4.79151 ; skirt
G1 X48.380 Y153.169 E4.80364 ; skirt
G1 X48.318 Y152.052 E4.81886 ; skirt
G1 X48.322 Y43.389 E6.29790 ; skirt
G1 X48.368 Y42.568 E6.30908 ; skirt
G1 X48.472 Y41.759 E6.32018 ; skirt
G1 X48.535 Y41.413 E6.32497 ; skirt
G1 X48.694 Y40.742 E6.33436 ; skirt
G1 X48.892 Y40.067 E6.34393 ; skirt
G1 X49.256 Y39.092 E6.35810 ; skirt
G1 X49.606 Y38.355 E6.36921 ; skirt
G1 X50.011 Y37.640 E6.38039 ; skirt
G1 X52.476 Y33.797 E6.44253 ; skirt
G1 E6.14253 F420.00000 ; retract
G92 E0 ; reset extrusion distance
G1 X144.725 Y64.719 F6000.000 ; move to first perimeter point
G1 E0.30000 F420.00000 ; unretract
G1 X114.325 Y64.719 E0.71377 F2100.000 ; perimeter
G1 X114.325 Y58.881 E0.79325 ; perimeter
G1 X144.725 Y58.881 E1.20702 ; perimeter
G1 X144.725 Y64.667 E1.28578 ; perimeter
G1 X145.206 Y65.201 F6000.000 ; move to first perimeter point
G1 X113.844 Y65.201 E1.71265 F2100.000 ; perimeter
G1 X113.844 Y58.399 E1.80522 ; perimeter
G1 X145.206 Y58.399 E2.23209 ; perimeter
G1 X145.206 Y65.148 E2.32395 ; perimeter
G1 X145.600 Y65.595 F6000.000 ; move to first perimeter point
G1 X113.450 Y65.595 E2.60329 F1050.000 ; perimeter
G1 X113.450 Y58.005 E2.66923 ; perimeter
G1 X145.600 Y58.005 E2.94856 ; perimeter
G1 X145.600 Y65.542 E3.01405 ; perimeter
G1 X145.297 Y65.420 F6000.000 ; move inwards before travel
G1 E2.71405 F420.00000 ; retract
G92 E0 ; reset extrusion distance
G1 X144.438 Y59.411 F6000.000 ; move to first infill point
G1 E0.30000 F420.00000 ; unretract
G1 X144.194 Y59.167 E0.30478 F2700.000 ; infill
G1 X143.502 Y59.167 E0.31436 ; infill
G1 X144.438 Y60.104 E0.33269 ; infill
G1 X144.438 Y60.796 E0.34228 ; infill
G1 X142.810 Y59.167 E0.37416 ; infill
G1 X142.118 Y59.167 E0.38374 ; infill
G1 X144.438 Y61.488 E0.42918 ; infill
G1 X144.438 Y62.180 E0.43876 ; infill
G1 X141.426 Y59.167 E0.49774 ; infill
G1 X140.734 Y59.167 E0.50733 ; infill
G1 X144.438 Y62.872 E0.57986 ; infill
G1 X144.438 Y63.564 E0.58945 ; infill
G1 X140.042 Y59.167 E0.67554 ; infill
G1 X139.349 Y59.167 E0.68512 ; infill
G1 X144.438 Y64.256 E0.78476 ; infill
G1 X143.923 Y64.433 E0.79230 ; infill
G1 X138.657 Y59.167 E0.89540 ; infill
G1 X137.965 Y59.167 E0.90499 ; infill
G1 X143.231 Y64.433 E1.00809 ; infill
G1 X142.539 Y64.433 E1.01767 ; infill
G1 X137.273 Y59.167 E1.12077 ; infill
G1 X136.581 Y59.167 E1.13036 ; infill
G1 X141.847 Y64.433 E1.23346 ; infill
G1 X141.154 Y64.433 E1.24304 ; infill
G1 X135.889 Y59.167 E1.34614 ; infill
G1 X135.197 Y59.167 E1.35572 ; infill
G1 X140.462 Y64.433 E1.45883 ; infill
G1 X139.770 Y64.433 E1.46841 ; infill
G1 X134.505 Y59.167 E1.57151 ; infill
G1 X133.813 Y59.167 E1.58109 ; infill
G1 X139.078 Y64.433 E1.68420 ; infill
G1 X138.386 Y64.433 E1.69378 ; infill
G1 X133.121 Y59.167 E1.79688 ; infill
G1 X132.429 Y59.167 E1.80646 ; infill
G1 X137.694 Y64.433 E1.90956 ; infill
G1 X137.002 Y64.433 E1.91915 ; infill
G1 X131.737 Y59.167 E2.02225 ; infill
G1 X131.045 Y59.167 E2.03183 ; infill
G1 X136.310 Y64.433 E2.13493 ; infill
G1 X135.618 Y64.433 E2.14452 ; infill
G1 X130.353 Y59.167 E2.24762 ; infill
G1 X129.661 Y59.167 E2.25720 ; infill
G1 X134.926 Y64.433 E2.36030 ; infill
G1 X134.234 Y64.433 E2.36988 ; infill
G1 X128.969 Y59.167 E2.47299 ; infill
G1 X128.276 Y59.167 E2.48257 ; infill
G1 X133.542 Y64.433 E2.58567 ; infill
G1 X132.850 Y64.433 E2.59525 ; infill
G1 X127.584 Y59.167 E2.69836 ; infill
G1 X126.892 Y59.167 E2.70794 ; infill
G1 X132.158 Y64.433 E2.81104 ; infill
G1 X131.466 Y64.433 E2.82062 ; infill
G1 X126.200 Y59.167 E2.92372 ; infill
G1 X125.508 Y59.167 E2.93331 ; infill
G1 X130.774 Y64.433 E3.03641 ; infill
G1 X130.081 Y64.433 E3.04599 ; infill
G1 X124.816 Y59.167 E3.14909 ; infill
G1 X124.124 Y59.167 E3.15868 ; infill
G1 X129.389 Y64.433 E3.26178 ; infill
G1 X128.697 Y64.433 E3.27136 ; infill
G1 X123.432 Y59.167 E3.37446 ; infill
G1 X122.740 Y59.167 E3.38404 ; infill
G1 X128.005 Y64.433 E3.48715 ; infill
G1 X127.313 Y64.433 E3.49673 ; infill
G1 X122.048 Y59.167 E3.59983 ; infill
G1 X121.356 Y59.167 E3.60941 ; infill
G1 X126.621 Y64.433 E3.71252 ; infill
G1 X125.929 Y64.433 E3.72210 ; infill
G1 X120.664 Y59.167 E3.82520 ; infill
G1 X119.972 Y59.167 E3.83478 ; infill
G1 X125.237 Y64.433 E3.93788 ; infill
G1 X124.545 Y64.433 E3.94747 ; infill
G1 X119.280 Y59.167 E4.05057 ; infill
G1 X118.588 Y59.167 E4.06015 ; infill
G1 X123.853 Y64.433 E4.16325 ; infill
G1 X123.161 Y64.433 E4.17284 ; infill
G1 X117.896 Y59.167 E4.27594 ; infill
G1 X117.203 Y59.167 E4.28552 ; infill
G1 X122.469 Y64.433 E4.38862 ; infill
G1 X121.777 Y64.433 E4.39820 ; infill
G1 X116.511 Y59.167 E4.50131 ; infill
G1 X115.819 Y59.167 E4.51089 ; infill
G1 X121.085 Y64.433 E4.61399 ; infill
G1 X120.393 Y64.433 E4.62357 ; infill
G1 X115.127 Y59.167 E4.72668 ; infill
G1 X114.612 Y59.344 E4.73422 ; infill
G1 X119.700 Y64.433 E4.83386 ; infill
G1 X119.008 Y64.433 E4.84344 ; infill
G1 X114.612 Y60.036 E4.92953 ; infill
G1 X114.612 Y60.728 E4.93911 ; infill
G1 X118.316 Y64.433 E5.01165 ; infill
G1 X117.624 Y64.433 E5.02123 ; infill
G1 X114.612 Y61.420 E5.08022 ; infill
G1 X114.612 Y62.112 E5.08980 ; infill
G1 X116.932 Y64.433 E5.13523 ; infill
G1 X116.240 Y64.433 E5.14482 ; infill
G1 X114.612 Y62.804 E5.17670 ; infill
G1 X114.612 Y63.497 E5.18628 ; infill
G1 X115.548 Y64.433 E5.20461 ; infill
G1 X114.856 Y64.433 E5.21419 ; infill
G1 X114.612 Y64.189 E5.21897 ; infill
G1 E4.91897 F420.00000 ; retract
G92 E0 ; reset extrusion distance
G1 Z0.200 F6000.000 ; move to next layer (1)
G1 X77.119 Y80.125 F6000.000 ; move to first perimeter point
G1 E0.30000 F420.00000 ; unretract
G1 X77.242 Y80.486 E0.30518 F2100.000 ; perimeter
G1 X77.275 Y80.794 E0.30941 ; perimeter
G1 X77.275 Y84.658 E0.36200 ; perimeter
G1 X77.242 Y84.966 E0.36622 ; perimeter
G1 X77.119 Y85.327 E0.37140 ; perimeter
G1 X76.916 Y85.658 E0.37669 ; perimeter
G1 X76.672 Y85.911 E0.38146 ; perimeter
G1 X76.346 Y86.146 E0.38694 ; perimeter
G1 X75.962 Y86.314 E0.39265 ; perimeter
G1 X75.420 Y86.401 E0.40012 ; perimeter
G1 X61.030 Y86.401 E0.59598 ; perimeter
G1 X60.476 Y86.312 E0.60362 ; perimeter
G1 X60.085 Y86.130 E0.60948 ; perimeter
G1 X59.803 Y85.937 E0.61414 ; perimeter
G1 X59.561 Y85.686 E0.61889 ; perimeter
G1 X59.336 Y85.341 E0.62449 ; perimeter
G1 X59.220 Y85.001 E0.62938 ; perimeter
G1 X59.175 Y84.673 E0.63388 ; perimeter
G1 X59.175 Y80.794 E0.68668 ; perimeter
G1 X59.208 Y80.486 E0.69090 ; perimeter
G1 X59.331 Y80.125 E0.69609 ; perimeter
G1 X59.535 Y79.794 E0.70137 ; perimeter
G1 X59.803 Y79.515 E0.70665 ; perimeter
G1 X60.116 Y79.301 E0.71181 ; perimeter
G1 X60.488 Y79.138 E0.71734 ; perimeter
G1 X61.030 Y79.051 E0.72481 ; perimeter
G1 X75.420 Y79.051 E0.92067 F2100.000 ; perimeter
G1 X75.962 Y79.138 E0.92814 ; perimeter
G1 X76.300 Y79.286 E0.93316 ; perimeter
G1 X76.638 Y79.506 E0.93866 ; perimeter
G1 X76.916 Y79.794 E0.94410 ; perimeter
G1 X77.091 Y80.081 E0.94867 ; perimeter
G1 X76.681 Y80.331 F6000.000 ; move to first perimeter point
G1 X76.769 Y80.591 E0.95240 F2100.000 ; perimeter
G1 X76.794 Y80.820 E0.95555 ; perimeter
G1 X76.794 Y84.632 E1.00743 ; perimeter
G1 X76.769 Y84.862 E1.01057 ; perimeter
G1 X76.681 Y85.121 E1.01430 ; perimeter
G1 X76.533 Y85.362 E1.01815 ; perimeter
G1 X76.356 Y85.546 E1.02162 ; perimeter
G1 X76.106 Y85.726 E1.02581 ; perimeter
G1 X75.825 Y85.849 E1.02999 ; perimeter
G1 X75.382 Y85.920 E1.03610 ; perimeter
G1 X61.068 Y85.920 E1.23092 ; perimeter
G1 X60.618 Y85.848 E1.23713 ; perimeter
G1 X60.324 Y85.711 E1.24154 ; perimeter
G1 X60.116 Y85.568 E1.24498 ; perimeter
G1 X59.939 Y85.385 E1.24844 ; perimeter
G1 X59.772 Y85.128 E1.25261 ; perimeter
G1 X59.690 Y84.889 E1.25605 ; perimeter
G1 X59.656 Y84.640 E1.25947 ; perimeter
G1 X59.656 Y80.820 E1.31147 ; perimeter
G1 X59.681 Y80.591 E1.31461 ; perimeter
G1 X59.769 Y80.331 E1.31834 ; perimeter
G1 X59.917 Y80.090 E1.32219 ; perimeter
G1 X60.116 Y79.884 E1.32608 ; perimeter
G1 X60.350 Y79.723 E1.32995 ; perimeter
G1 X60.625 Y79.603 E1.33403 ; perimeter
G1 X61.068 Y79.532 E1.34015 ; perimeter
G1 X75.382 Y79.532 E1.53496 F2100.000 ; perimeter
G1 X75.825 Y79.603 E1.54108 ; perimeter
G1 X76.071 Y79.711 E1.54473 ; perimeter
G1 X76.330 Y79.879 E1.54893 ; perimeter
G1 X76.533 Y80.090 E1.55292 ; perimeter
G1 X76.653 Y80.287 E1.55605 ; perimeter
G1 X76.322 Y80.500 F6000.000 ; move to first perimeter point
G1 X76.382 Y80.676 E1.55767 F1050.000 ; perimeter
G1 X76.400 Y80.842 E1.55912 ; perimeter
G1 X76.400 Y84.611 E1.59186 ; perimeter
G1 X76.382 Y84.776 E1.59331 ; perimeter
G1 X76.322 Y84.952 E1.59493 ; perimeter
G1 X76.219 Y85.119 E1.59663 ; perimeter
G1 X76.096 Y85.247 E1.59817 ; perimeter
G1 X75.910 Y85.382 E1.60017 ; perimeter
G1 X75.713 Y85.468 E1.60204 ; perimeter
G1 X75.350 Y85.526 E1.60523 ; perimeter
G1 X61.100 Y85.526 E1.72904 ; perimeter
G1 X60.735 Y85.467 E1.73226 ; perimeter
G1 X60.520 Y85.368 E1.73431 ; perimeter
G1 X60.372 Y85.266 E1.73588 ; perimeter
G1 X60.249 Y85.138 E1.73742 ; perimeter
G1 X60.129 Y84.954 E1.73932 ; perimeter
G1 X60.076 Y84.798 E1.74076 ; perimeter
G1 X60.050 Y84.613 E1.74238 ; perimeter
G1 X60.050 Y80.842 E1.77515 ; perimeter
G1 X60.068 Y80.676 E1.77659 ; perimeter
G1 X60.128 Y80.500 E1.77821 ; perimeter
G1 X60.231 Y80.333 E1.77991 ; perimeter
G1 X60.372 Y80.186 E1.78168 ; perimeter
G1 X60.542 Y80.070 E1.78348 ; perimeter
G1 X60.737 Y79.984 E1.78532 ; perimeter
G1 X61.100 Y79.926 E1.78852 ; perimeter
G1 X75.350 Y79.926 E1.91233 F1050.000 ; perimeter
G1 X75.713 Y79.984 E1.91553 ; perimeter
G1 X75.883 Y80.059 E1.91714 ; perimeter
G1 X76.077 Y80.185 E1.91915 ; perimeter
G1 X76.219 Y80.333 E1.92093 ; perimeter
G1 X76.294 Y80.455 E1.92218 ; perimeter
G1 X76.507 Y80.523 F6000.000 ; move inwards before travel
G1 E1.62218 F420.00000 ; retract
G92 E0 ; reset extrusion distance
G1 X61.772 Y67.057 F6000.000 ; move to first perimeter point
G1 E0.30000 F420.00000 ; unretract
G1 X58.071 Y67.057 E0.35036 F1500.000 ; perimeter
G1 X58.071 Y52.356 E0.55045 ; perimeter
G1 X61.772 Y52.356 E0.60082 ; perimeter
G1 X61.772 Y67.004 E0.80019 ; perimeter
G1 X61.291 Y66.576 F6000.000 ; move to first perimeter point
G1 X58.553 Y66.576 E0.83746 F1500.000 ; perimeter
G1 X58.553 Y52.838 E1.02445 ; perimeter
G1 X61.291 Y52.838 E1.06172 ; perimeter
G1 X61.291 Y66.523 E1.24799 ; perimeter
G1 X60.897 Y66.182 F6000.000 ; move to first perimeter point
G1 X58.947 Y66.182 E1.26494 F1500.000 ; perimeter
G1 X58.947 Y53.232 E1.37745 ; perimeter
G1 X60.897 Y53.232 E1.39440 ; perimeter
G1 X60.897 Y66.129 E1.50646 ; perimeter
G1 X60.897 Y66.532 F6000.000 ; move inwards before travel
G1 E1.20646 F420.00000 ; retract
G92 E0 ; reset extrusion distance
G1 X75.751 Y41.595 F6000.000 ; move to first perimeter point
G1 E0.30000 F420.00000 ; unretract
G1 X75.751 Y36.587 E0.36816 F1500.000 ; perimeter
G1 X73.989 Y36.587 E0.39215 ; perimeter
G1 X73.989 Y33.649 E0.43214 ; perimeter
G1 X78.843 Y33.649 E0.49822 ; perimeter
G1 X78.843 Y41.595 E0.60638 ; perimeter
G1 X75.804 Y41.595 E0.64775 ; perimeter
G1 X76.232 Y41.114 F6000.000 ; move to first perimeter point
G1 X76.232 Y36.106 E0.71592 F1500.000 ; perimeter
G1 X74.470 Y36.106 E0.73991 ; perimeter
G1 X74.470 Y34.130 E0.76680 ; perimeter
G1 X78.362 Y34.130 E0.81978 ; perimeter
G1 X78.362 Y41.114 E0.91484 ; perimeter
G1 X76.285 Y41.114 E0.94312 ; perimeter
G1 X76.626 Y40.720 F6000.000 ; move to first perimeter point
G1 X76.626 Y35.712 E0.98663 F1500.000 ; perimeter
G1 X74.864 Y35.712 E1.00195 ; perimeter
G1 X74.864 Y34.524 E1.01227 ; perimeter
G1 X77.968 Y34.524 E1.03924 ; perimeter
G1 X77.968 Y40.720 E1.09308 ; perimeter
G1 X76.679 Y40.720 E1.10428 ; perimeter
G1 X76.276 Y40.720 F6000.000 ; move inwards before travel
G1 E0.80428 F420.00000 ; retract
G92 E0 ; reset extrusion distance
G1 X76.635 Y28.231 F6000.000 ; move to first perimeter point
G1 E0.30000 F420.00000 ; unretract
G1 X85.415 Y28.237 E0.41951 F2100.000 ; perimeter
G1 X85.736 Y28.256 E0.42388 F2100.000 ; perimeter
G1 X86.217 Y28.351 E0.43056 ; perimeter
G1 X86.686 Y28.508 E0.43729 ; perimeter
G1 X87.134 Y28.723 E0.44406 ; perimeter
G1 X87.552 Y28.993 E0.45082 ; perimeter
G1 X87.930 Y29.311 E0.45756 ; perimeter
G1 X88.262 Y29.673 E0.46423 ; perimeter
G1 X88.564 Y30.106 E0.47142 ; perimeter
G1 X98.213 Y45.896 E0.72329 ; perimeter
G1 X98.475 Y46.399 E0.73100 ; perimeter
G1 X98.653 Y46.899 E0.73823 ; perimeter
G1 X98.762 Y47.418 E0.74545 ; perimeter
G1 X98.800 Y47.983 E0.75317 ; perimeter
G1 X98.800 Y75.617 E1.12928 ; perimeter
G1 X98.762 Y76.182 E1.13700 ; perimeter
G1 X98.653 Y76.701 E1.14422 ; perimeter
G1 X98.475 Y77.201 E1.15145 ; perimeter
G1 X98.213 Y77.704 E1.15916 ; perimeter
G1 X88.564 Y93.494 E1.41103 ; perimeter
G1 X88.262 Y93.927 E1.41822 ; perimeter
G1 X87.930 Y94.289 E1.42490 ; perimeter
G1 X87.552 Y94.607 E1.43163 ; perimeter
G1 X87.134 Y94.877 E1.43839 ; perimeter
G1 X86.686 Y95.092 E1.44516 ; perimeter
G1 X86.217 Y95.249 E1.45189 ; perimeter
G1 X85.736 Y95.344 E1.45857 ; perimeter
G1 X85.209 Y95.375 E1.46575 ; perimeter
G1 X66.130 Y95.375 E1.72544 ; perimeter
G1 X65.604 Y95.344 E1.73260 ; perimeter
G1 X65.124 Y95.250 E1.73926 ; perimeter
G1 X64.657 Y95.094 E1.74597 ; perimeter
G1 X64.210 Y94.880 E1.75272 ; perimeter
